/* XPM */
static char *out[] = {
/* columns rows colors chars-per-pixel */
"64 64 176 2 ",
"   c #FFFFFF",
".  c #231715",
"X  c #231815",
"o  c #251B1B",
"O  c #291F1F",
"+  c #261D21",
"@  c #281F21",
"#  c #1C253C",
"$  c #292125",
"%  c #2B232A",
"&  c #2C2632",
"*  c #2E2939",
"=  c #212534",
"-  c #322E37",
";  c #312D3E",
":  c #34313D",
">  c #38343A",
",  c #162745",
"<  c #222C4B",
"1  c #322E45",
"2  c #353441",
"3  c #35324D",
"4  c #3B3C4D",
"5  c #3A3741",
"6  c #363351",
"7  c #393754",
"8  c #393758",
"9  c #3B3A5E",
"0  c #3A3D50",
"q  c #08377D",
"w  c #0A3576",
"e  c #1C3F77",
"r  c #3D3D65",
"t  c #3E3E69",
"y  c #263D76",
"u  c #3D4052",
"i  c #3F416B",
"p  c #3C467F",
"a  c #484856",
"s  c #404358",
"d  c #444758",
"f  c #454C65",
"g  c #40426F",
"h  c #414373",
"j  c #494F72",
"k  c #45497E",
"l  c #444971",
"z  c #4C5472",
"x  c #4E5979",
"c  c #4D567A",
"v  c #535E7B",
"b  c #5B6276",
"n  c #073A85",
"m  c #024099",
"M  c #0B449B",
"N  c #0E489E",
"B  c #13469C",
"V  c #104A9F",
"C  c #1B499D",
"Z  c #305184",
"A  c #214897",
"S  c #234B9F",
"D  c #144EA1",
"F  c #1D4CA0",
"G  c #1951A3",
"H  c #2B4EA0",
"J  c #274DA0",
"K  c #2255A6",
"L  c #2F50A1",
"P  c #2A5CAA",
"I  c #235AA8",
"U  c #3152A3",
"Y  c #3C54A3",
"T  c #345EAB",
"R  c #2C60AC",
"E  c #3262AD",
"W  c #3966AF",
"Q  c #3A67B1",
"!  c #3B6BB2",
"~  c #464B83",
"^  c #494E86",
"/  c #484F8D",
"(  c #4A508E",
")  c #535F81",
"_  c #4C5294",
"`  c #4E579D",
"'  c #50579E",
"]  c #50589F",
"[  c #546185",
"{  c #5E6A83",
"}  c #5C6B93",
"|  c #5D6E99",
" . c #566397",
".. c #5F709D",
"X. c #787D88",
"o. c #687697",
"O. c #6A7A9D",
"+. c #6E7B97",
"@. c #707E9B",
"#. c #4357A5",
"$. c #4259A7",
"%. c #4C59A6",
"&. c #4E5CA8",
"*. c #515AA5",
"=. c #535CA8",
"-. c #4360AB",
";. c #5C6DA3",
":. c #5662AB",
">. c #5965AD",
",. c #5B68AD",
"<. c #426DB4",
"1. c #506DB3",
"2. c #5D6CB2",
"3. c #4973B7",
"4. c #4C75B9",
"5. c #5F70B5",
"6. c #5D7DBE",
"7. c #5576B9",
"8. c #6174A4",
"9. c #677AA9",
"0. c #606DB2",
"q. c #6172B6",
"w. c #6376B8",
"e. c #677CBC",
"r. c #6B7EBD",
"t. c #707CBB",
"y. c #7D828B",
"u. c #71809D",
"i. c #6981B6",
"p. c #6B83BC",
"a. c #7182BF",
"s. c #778DB9",
"d. c #6282C1",
"f. c #6C85C2",
"g. c #6E8AC5",
"h. c #718CC7",
"j. c #7C8DC6",
"k. c #738EC8",
"l. c #7284C0",
"z. c #6E91C9",
"x. c #7691C9",
"c. c #7A94CC",
"v. c #7D9ACE",
"b. c #7A91C1",
"n. c #7F9FD1",
"m. c #80858D",
"M. c #8296BA",
"N. c #889FC5",
"B. c #849CCE",
"V. c #899BCD",
"C. c #8499CA",
"Z. c #839DD1",
"A. c #889FD1",
"S. c #8EA6CF",
"D. c #85A1D3",
"F. c #8BA4D4",
"G. c #8EA8D7",
"H. c #8FA9D8",
"J. c #92AAD7",
"K. c #95AFDB",
"L. c #96B0DB",
"P. c #9BB4DD",
"I. c #A0B8DF",
"U. c #A4BCE1",
"Y. c #AABFE2",
"T. c #ACC2E4",
"R. c #B3C9E7",
"E. c #B5CBE9",
"W. c #B8CAE8",
"Q. c #BDD2EC",
"!. c #C2D6EE",
"~. c #C6D9EF",
"^. c #C6D9F0",
"/. c #CADDF2",
"(. c #CEE1F4",
"). c #D3E5F6",
/* pixels */
"                                                                                            . . X X                             ",
"                                                                                      X X X . . X X X .                         ",
"                                                                                  X X X X - x } [ : X . X                       ",
"                                                                                X X O s 9.x.x.h.h.g.f X X                       ",
"                                                                                X o | V.L.K.H.Z.h.h.f.- X X                     ",
"                                                                              . X a L.Q.).R.K.J.x.h.z.x X X                     ",
"                                                                              . X +.P.^.).Q.L.K.c.h.h.x X X                     ",
"                                                                              X $ M.I./.).^.L.L.B.h.h.d X X                     ",
"                                                                              X > S.P./.).^.L.K.Z.h.i.% X                       ",
"                                                                            X X a S.P./.).^.P.K.D.h.{ o X                       ",
"                                                                            X X b K.P./.).Q.L.L.D.h.f X X X X X .               ",
"                                                                            X X @.K.K.!.).W.K.K.J.h.f X X X X X X X . X         ",
"                                                                            X O S.K.K.T.).T.K.K.K.D.b.o.9.s.s.9.) 2 X . . .     ",
"                                                                          X X b K.L.K.L.U.K.K.K.K.K.K.K.K.K.L.L.K.G.o.5 o X     ",
"                                                      X X X X X X X X . X X o @.K.L.L.L.L.K.L.K.K.L.K.L.K.L.L.K.K.K.K.N.d X X   ",
"                                                  . X X X X X X X X X X X X X X Z v.K.K.K.K.K.G.0.>.J.K.K.K.K.K.K.K.L.J.h.% X X ",
"                                              X . . $ 4 x ..i.h.h.h.h.e.| z 5 # n m Q v.K.K.Z.2.=.>.J.K.K.L.K.L.K.K.F.x.h.[ X X ",
"                                            . . . 8 8.a.h.h.c.x.c.h.h.h.p.w.>.%.F m m D h.a.:.=.>.A.K.K.K.K.K.K.J.n.h.h.h.;.X X ",
"                                          . X %  .h.k.Z.G.K.K.K.K.D.a.>.=.=.=.=.*.U m m m Y =.2.A.K.K.K.L.K.H.A.h.h.h.h.g.u X X ",
"                                        . X 2 8.k.A.H.K.L.L.K.F.a.,.=.=.=.0.5.q.w.w.1.F m m 1.H.K.K.K.K.H.A.x.h.h.h.h.h.v o X   ",
"                                      . X 2 g.x.H.P.P.K.K.K.C.>.=.*.=.j.K.K.c.h.h.h.h.q.n M m n.K.K.K.A.h.h.h.h.h.h.h.i.$ X X   ",
"                                    . . ; 9.x.K.Q.).^.K.G.j.=.=.2.j.K.K.K.K.K.c.h.h.h.h.1.D m I D.F.c.h.h.h.h.h.h.h.h.z X X     ",
"                                  . . o ;.k.J.Q.).).^.K.t.=.=.w.F.K.K.K.K.K.K.K.h.h.h.h.f.Y M m 3.k.h.h.h.h.h.h.g.e.,.$ X       ",
"                                  X o l h.A.T.).).).Q.a.=.=.a.H.K.K.K.K.K.K.K.K.Z.h.h.h.h.5.J n e g.h.g.g.e.0.>.=.=.k X .       ",
"                                . X ; e.c.K./.).).(.V.=.=.a.H.K.K.K.K.L.K.K.K.K.G.k.h.h.h.e.&.< . j q.,._ _ _ _ _ ' 8 X X       ",
"                                . X j h.n.U.).).).R.>.=.a.H.K.K.L.K.K.K.K.K.K.K.K.x.h.h.h.g.=.t X o $ @ o o o o o o o X         ",
"                                X o ;.h.H.E.).).^.t.=.2.H.U.U.K.K.K.K.L.K.K.K.K.K.c.h.h.h.h.>.( + X X X X X X X X X X X         ",
"                                X & p.h.K.U./.Q.C.=.=.Z.R././.U.K.L.L.K.K.K.K.K.K.B.h.h.h.h.5.*.* . X                           ",
"                              X X 9 g.x.K.K.L.D.%.=.h.K.^.).).Q.K.K.K.P.K.K.K.K.K.v.h.h.h.h.w.=.1 . X                           ",
"                              . X ~ k.x.L.K.K.4.M -.H.K.E.)./.Y.K.K.K.K.K.K.K.P.K.v.h.h.h.k.w.=.r . X                           ",
"                              X X  .h.c.K.L.G.I n 4.K.K.K.U.U.K.K.K.K.K.K.K.K.K.K.c.h.z.h.h.w.=.h X X                           ",
"                              X X 2.h.k.K.K.z.n m D.K.K.K.K.K.K.K.K.K.K.K.K.K.K.G.k.h.h.h.h.2.=.h X X                           ",
"                              X X *.h.h.H.K.P m ! K.K.K.K.K.K.P.K.K.L.K.L.L.K.K.D.k.k.h.h.h.:.=.h . .                           ",
"                              . X / h.h.A.H.m m n.K.K.K.K.K.K.K.P.K.L.L.K.K.K.K.c.h.h.h.h.f.=.=.t o X                           ",
"                              o X t f.h.c.z.m D H.K.K.P.K.K.K.K.K.K.K.K.K.L.K.F.h.h.h.h.h.e.&.=.6 X .                           ",
"                              . . 1 e.h.k.! m R K.K.K.K.K.K.K.K.K.K.K.K.K.L.H.k.h.h.h.h.h.2.=.*.* .                             ",
"    X . . . . . X o . X . . . . . o c e.f.P m ! K.K.K.K.K.K.K.K.L.K.K.K.K.J.c.k.h.h.h.h.r.=.=.( % .                             ",
"    X X X X X X X X X X . . . . . X X ~ :.F m 4.K.K.K.K.K.K.K.K.K.K.K.K.H.c.h.h.h.h.h.h.>.=.=.h X .                             ",
"  . X # p ~ ~ ~ ~ r 9 r r r r 6 ; 2 7 ' =.F m Q F.K.K.K.K.K.K.K.K.K.K.A.k.h.h.h.h.h.k.q.=.=.=.& . .                             ",
"  . o n #.2.2.5.2.q.w.e.e.d.f.h.h.h.h.f.w.P m m Q c.Z.H.H.H.K.H.H.A.c.h.h.h.h.h.h.h.e.:.=.=.h X X                               ",
". X , n R g.g.h.h.h.h.z.h.h.h.z.h.h.h.h.h.f.E n m Q h.k.k.x.k.x.k.h.h.k.h.h.h.h.h.e.=.=.*.( @ X X                               ",
"X X Z n m P 4.6.6.d.d.f.h.h.h.h.h.h.h.k.x.v.z.R m D d.k.h.k.h.h.h.h.h.h.h.h.h.h.w.=.=.=.*.3 X X                                 ",
"X X ~ J m m m m m N V I <.f.h.h.h.h.k.F.E.^.F.6.M m 4.h.h.h.h.h.h.h.h.h.h.h.r.2.=.=.=.=.8 o X                                   ",
"X X r *.Y J m m m m m n m K g.h.h.h.I./.).(.k.2.D n Q h.h.h.h.h.h.h.h.h.h.q.=.=.=.=.%.6 X X                                     ",
"  . + _ =.=.=.=.=.%.Y J m m P z.j.I.).)./.K.0.=.T m K q.e.r.f.f.d.e.q.2.=.=.=.=.=.( 1 X . X                                     ",
"  . . 1 %.=.=.=.=.=.=.*.Y m m <.U.).).).Y.q.=.w.Q w A =.=.=.=.:.=.=.=.=.=.=.=.=.9 % X X                                         ",
"    . o + 1 p ' =.=.=.=.&.J n G Q.).(.Y.q.=.0.Y.{ . & ~ ` ` *.*.=.=.=.*.*._ t o . . .                                           ",
"      . . . . + ~ =.=.=.=.$.M M K./.I.q.=.=.A.).y.. . X @ ; 6 9 r r 9 3 & + . . . .                                             ",
"          X X X ; ' =.=.=.*.B n E k.q.=.=.2.!.).m.. . . X X X X X X X X X X X                                                   ",
"              X + _ =.=.=.=.T m N q.=.=.:.f.).).m.o o       . . . . . .                                                         ",
"              . . k *.=.=.=.%.m m %.=.=.2.Z.).).m.. .                                                                           ",
"              . . 1 =.=.=.=.=.F m L =.=.e.H.).).m.. o                                                                           ",
"                . + %.=.=.=.=.J m B =.:.h.H.).).X.. X                                                                           ",
"                . . g =.=.=.=.Y m m #.w.h.G.).(.v . X                                                                           ",
"                . . & _ =.=.=.%.D m J f.h.d.H.D.0 o .                                                                           ",
"                  . . 1 ' =.=.=.K m n R R G N N = o                                                                             ",
"                    X X + h ` *.%.B n m m m n m # X                                                                             ",
"                      X X X + * 8 / U F J U #.#.o X                                                                             ",
"                        X X . X X % k %.&.=.=.%.o .                                                                             ",
"                              X X . + ~ =.=.=./ o .                                                                             ",
"                                  . X o h *.*.h o X                                                                             ",
"                                    . X X 8 h % . .                                                                             ",
"                                      X . . X X X                                                                               ",
"                                          . X X                                                                                 "
};
