/* XPM */
static char *out[] = {
/* columns rows colors chars-per-pixel */
"64 64 214 2 ",
"   c #010101",
".  c #090805",
"X  c #01080C",
"o  c #1F0D05",
"O  c #19180B",
"+  c #020815",
"@  c #04151C",
"#  c #161613",
"$  c #1E1E1E",
"%  c #251409",
"&  c #3A1C05",
"*  c #3A2809",
"=  c #2A2910",
"-  c #3E2614",
";  c #050D26",
":  c #041E2A",
">  c #070837",
",  c #03242C",
"<  c #0A2E3A",
"1  c #2D2C2A",
"2  c #28293D",
"3  c #2E3336",
"4  c #333434",
"5  c #36383B",
"6  c #4E3016",
"7  c #5E0823",
"8  c #4E3534",
"9  c #34473F",
"0  c #4E4904",
"q  c #554B12",
"w  c #655C06",
"e  c #685611",
"r  c #7B7009",
"t  c #6F6816",
"y  c #564F2A",
"u  c #5D6E22",
"i  c #02045C",
"p  c #0F1657",
"a  c #042A45",
"s  c #093A4C",
"d  c #112953",
"f  c #083A58",
"g  c #3A2740",
"h  c #040B63",
"j  c #091868",
"k  c #121362",
"l  c #151C65",
"z  c #0A266D",
"x  c #12286A",
"c  c #0C386A",
"v  c #12366B",
"b  c #0E357B",
"n  c #113875",
"m  c #21286B",
"M  c #353874",
"N  c #0B4557",
"B  c #1D4954",
"V  c #324452",
"C  c #387053",
"Z  c #054B66",
"A  c #11436E",
"S  c #09556B",
"D  c #094E72",
"F  c #114E71",
"G  c #035A74",
"H  c #0D5C75",
"J  c #035A79",
"K  c #0B5E79",
"L  c #115573",
"P  c #115E75",
"I  c #225960",
"U  c #136177",
"Y  c #326A6A",
"T  c #206478",
"R  c #464748",
"E  c #4C4F4B",
"W  c #58585B",
"Q  c #635B58",
"!  c #447259",
"~  c #657D4E",
"^  c #6E6B51",
"/  c #4B7479",
"(  c #53797E",
")  c #686969",
"_  c #7A7D7D",
"`  c #8B082C",
"'  c #941233",
"]  c #85780A",
"[  c #857B14",
"{  c #836F2A",
"}  c #8A7D2E",
"|  c #DB3060",
" . c #EE3A6B",
".. c #F73B70",
"X. c #827862",
"o. c #6A8432",
"O. c #6D874A",
"+. c #968C05",
"@. c #9C9506",
"#. c #8D8D1B",
"$. c #979518",
"%. c #A49B08",
"&. c #A8A006",
"*. c #AAA30B",
"=. c #AFA713",
"-. c #898E2C",
";. c #928D26",
":. c #928331",
">. c #9C9439",
",. c #A89E37",
"<. c #B9B128",
"1. c #C1BA35",
"2. c #879951",
"3. c #B3AA43",
"4. c #B9B346",
"5. c #968B71",
"6. c #CCC449",
"7. c #D3CC4D",
"8. c #DBD453",
"9. c #E2D950",
"0. c #0A3D85",
"q. c #113E82",
"w. c #184B8B",
"e. c #0B5C87",
"r. c #0D4F93",
"t. c #115695",
"y. c #105D9D",
"u. c #0C6997",
"i. c #116994",
"p. c #167299",
"a. c #2E7190",
"s. c #115FA1",
"d. c #0C6BA4",
"f. c #1064A5",
"g. c #106BAC",
"h. c #0D76AA",
"j. c #1475A8",
"k. c #1074B5",
"l. c #107DB5",
"z. c #147CBA",
"x. c #495184",
"c. c #505082",
"v. c #4E708D",
"b. c #676B8B",
"n. c #6C7794",
"m. c #767DA5",
"M. c #0F81BE",
"N. c #1083BE",
"B. c #3387AA",
"V. c #2D8BB2",
"C. c #338BB4",
"Z. c #538987",
"A. c #458298",
"S. c #57879A",
"D. c #638589",
"F. c #748F97",
"G. c #7CAD95",
"H. c #5591A6",
"J. c #579CBE",
"K. c #6E91A6",
"L. c #5DA2A7",
"P. c #69A1B6",
"I. c #70A6BA",
"U. c #0E86C6",
"Y. c #0587CC",
"T. c #1083C3",
"R. c #1388C5",
"E. c #1089CA",
"W. c #108ED0",
"Q. c #3091C5",
"!. c #4094C3",
"~. c #878A93",
"^. c #8B9391",
"/. c #939494",
"(. c #9C9C96",
"). c #A39E95",
"_. c #A4A499",
"`. c #8D8FAA",
"'. c #8396AA",
"]. c #9D9FB4",
"[. c #85A6A6",
"{. c #98A3A9",
"}. c #9BA6B6",
"|. c #A4A5A4",
" X c #A9ABAC",
".X c #AEB0B0",
"XX c #ABB7BD",
"oX c #B1B3B4",
"OX c #BBBCBC",
"+X c #F0A9BE",
"@X c #ADBDC2",
"#X c #B6BDC5",
"$X c #AEC1C5",
"%X c #BBC4C7",
"&X c #BFCED4",
"*X c #C9CBCC",
"=X c #CDCCD1",
"-X c #CFD0D0",
";X c #CCD5DB",
":X c #CCD9DD",
">X c #D4D4D5",
",X c #DADBDD",
"<X c #CEDBE0",
"1X c #D9DDE2",
"2X c #DCE4E7",
"3X c #E3E5E6",
"4X c #E8E6E5",
"5X c #E1E7E9",
"6X c #E4EBED",
"7X c #EDEEEE",
"8X c #EBEEF0",
"9X c #EEF1F2",
"0X c #FFFFFF",
"qX c #FFFFFF",
/* pixels */
"0X0X0X0X0X0X0X0X0X0X0X0X0X0X0X0X0X0X0X0X0X0X0X0X0X0X0X0X0X0X0X0X0X0X0X0X0X0X0X0X0X0X0X0X0X0X0X0X0X0X0X0X0X0X0X0X0X0X0X0X0X0X0X0X",
"0X0X0X0X0X0X0X0X0X0X0X0X0X0X0X0X0X0X0X0X0X0X0X0X0X0X0X0X0X0X0X0X0X0X0X0X0X0X0X0X0X0X0X0X0X0X0X0X0X0X0X0X0X0X0X0X0X0X0X0X0X0X0X0X",
"0X0X0X0X0X0X0X0X0X0X0X0X0X0X0X0X0X0X0X0X0X0X0X0X0X0X0X0X0X0X0X0X0X0X0X0X0X0X0X0X0X0X0X0X0X0X0X0X0X0X0X0X0X0X0X0X0X0X0X0X0X0X0X0X",
"0X0X0X0X0X0X0X0X0X0X0X0X0X0X0X0X0X0X0X0X0X0X0X0X0X0X0X0X0X0X0X0X0X0X0X0X0X0X0X0X0X0X0X0X0X0X0X0X0X0X0X0X0X0X0X0X0X0X0X0X0X0X0X0X",
"0X0X0X0X0X0X0X0X0X0X0X0X0X0X0X0X0X0X0X0X0X0X0X0X0X0X0X0X0X0X0X0X0X0X0X0X0X6X0X0X0X0X0X0X0X0X0X0X0X0X0X0X0X0X0X0X0X0X0X0X0X0X0X0X",
"0X0X0X0X0X0X0X0X0X0X0X0X0X0X0X0X0X0X0XM 0X0X0X0X0X0X0X0X0X0X0X0X^.qX0X0X0X,X0X0X0X0X0X0X0X0X0X0X0X0X0X0X0X0X0X0X0X0X0X0X0X0X0X0X",
"0X0X0X0X0X0X0X0X0X0X0X0X0X0X0X0X0X0X0XL 9X0X0X0X0X0X0X0X0X0X0X0XD.  0X0XI 3X0X0X0X0X0X0X0X0X0X0X0X0X0X0X0X0X0X0X0X0X0X0X0X0X0X0X",
"0X0X0X0X0X0X0X0X0X0X0X0X0X0X0XqX0X0X0XL 9X0X0X0X0X0X0X0X0X0X0X0XD.&X0XXX7XR 0X0X0X0X0X0X0X0X0X0X0X0X0X0X0X0X0X0X0X0X0X0X0X0X0X0X",
"0X0X0X0X0X0X0X0X0X0X0X0X0X0X0X0X0X0X0XL 9X0X0X0XqX0X0X0X0X0X0X0X2X8X7X$X.X4 0X0X0X0X0X0X0X0X0X0X0X0X0X0X0X0X0X0X0X0X0X0X0X0X0X0X",
"0X0X0X0X0X0X0X0X0X0X0X0X0X0X0X0X0X0X;XL 7X0X0X0XqX0X0X0X0X0X0X:X2X4Xn.6X.X0X0X0X0X0X0X0X0X0X0X0X0X0X0X0X0X0X0X0X0X0X0X0X0X0X0X0X",
"0X0X0X0X0X0X0X0X0X0X0X0X0X0X0X0X0X0X].P 8X0X0X9Xp h i h 7X0XH > 6X2X2X*X.XqX0X0X0X0X0X0X0X0X0X0X0X0X0X0X0X0X0X0X0X0X0X0X0X0X0X0X",
"0X0X0X0X0X0X0X0X0X0X0X0X0XqX#X0X0X0X].P 9XqX%XS.U.t.e.f.r.S.I.) .Xy.x.{..X.X.X.X0X0X0X0X0X0X0X0X0X0X0X0X0X0X0X0X0X0X0X0X0X0X0X0X",
"0X0X0X0X0X0X0X0X0X0X0X0X0X0Xz 1X0X0X}.H 0XU P.Q.E.P F N.l j I.M.z.U.U.w..X|.|.) qX0X0X0X0X0X0X0X0X0X0X0X0X0X0X0X0X0X0X0X0X0X0X0X",
"0X0X0X0X0X0X0X0X0X0X0X0X0XqXm.c 0X0Xn.H u.I.J.k.v s E.R.E.i.U.E.E.E.E.U.~.#XO.OXqX.X0X0X0X0X0X0X0X0X0X0X0X0X0X0X0X0X0X0X0X0X0X0X",
"0X0X0X0X0X0X0X0X0X0X0X0X0X0X5XL c.0Xc P T.Q.E.l K T.E.E., p E.E.U.E.E.E.k.g 3X0X'.$ 0X0X0X0X0X0X0X0X0X0X0X0X0X0X0X0X0X0X0X0X0X0X",
"0X0X0X0X0X0X0X0X0X0X0X0X0X0X0X) P x.A K g.k.x H < E.g.b N H P T.h.a E.E.l.;X0X6X;XW 0X0X0X0X0X0X0X0X0X0X0X0X0X0X0X0X0X0X0X0X0X0X",
"0X0X0X0X0X0X0X0X0X0X0X0X0X0X0X0Xi P A P x G U , U.E.E.T.N.P , A l.X R.i.P G M /.8X0X0X0X0X0X0X0X0X0X0X0X0X0XqX0X0X0X0X0X0X0X0X0X",
"0X0X0X0X0X0X0X0XqX0X0X0X0X0X0X0XX P c U k P U u.U.E.E.E.E.P l f.j U P P P G E./.F.0X0XqX1   R 0X0X0X0X0X0X0X0X0X0X0X0X0X0X0X0X0X",
"0X0X0X0X0X0X0X0X0X0X0X0X0X0X0Xc.0XL P x U H V u.E.E.g.Z S x j.K.6XU P P N.U.j %X>X3 v.%X2X1 ,X0X0X0X0X0X0X0X0X0X0X0X0X0X0X0X0X0X",
"0X0X0X0X0X0X0X0X0X0X0X0X0X0X0XM m 2 P v U S 6Xu.E.R.< L z T.b.5X4 U H j.N.@ H %X6X4X4X|.1 qX0X0X0X0X0X0X0X0X0X0X0X0X0X0X0X0X0X0X",
"0X0X0X0X0X0X0X0X0X0X0X0X0X0X0Xv.c b.D H U ' +Xh.E.M.F y.r.].6X6X4 P A @ N P P b.*XoXE (.0X0X0X0X0X0X0X0X0X0X0X0X0X0X0X0X0X0X0X0X",
"0X0X0X0X0X0X0X0X0X0X0X0X0X0X0XqX Xv.y.P @ ` 7 K E.T.r.M.6X2X2X6X9XP P < U P P _ .XoXqXqXqX0X0X0X0X0X0X0X0X0X0X0X0X0X0X0X0X0X0X0X",
"0X0X0X0X0X0X0X0X0X0X0X0X0X0X0XqX.Xz g.y.E.L u.E.E.U.s.d XXoX@X#X*X> f #.~ H U b. X.X|.0X0X0X0X0X0X0X0X0X0X0X0X0X0X0X0X0X0X0X0X0X",
"0X0X0X0X0X0X0X0X0X0X0X0X0X0X0XqX.X& E.E.Y.& M E.E.E.U.a 6X6X6X2X6X  %.%.&.U L   ^..X/.qX0X0X0X0X0X0X0X0X0X0X0X0X0X0X0X0X0X0X0X0X",
"0X0X0X0X0X0X0X0X0X0X0X0X0X0X0X@X.XX.:.:.9.>.@.j.E.h.k.#X6X6X6XOXw %.&.&.&.G 9 `.|./.) ) 0X0X0X0X0X0X0X0X0X0X0X0X0X0X0X0X0X0X0X0X",
"0X0X0X0X0X0X0X0X0X0X0X0X0X0X0X( .X/.= = = ,X0 q E.J s.3 ( 6X6XF.*.&.&.&.&.j %.} 0X0X3X7X0X0X0X0X0X0X0X0X0X0X0X0X0X0X0X0X0X0X0X0X",
"0X0X0X0X0X0X0X0X0X0X0X0X0X0X0X0X_ /.~.o o .   %.a.E.v ;X0X) oX|.%.%.@.] e P -.} 6X0X0X0X0X0X0X0X0X0X0X0X0X0X0X0X0X0X0X0X0X0X0X0X",
"0X0X0X0X0X0X0X0X0X0X0X0X0X0X0X0X8XD..Xo o o o & & M.A 0X0X0X>X6X- 6 e &.%.$.P &.-X0X0X0X0X0X0X0X0X0X0X0X0X0X0X0X0X0X0X0X0X0X0X0X",
"0X0X0X0X0X0X0X0X0X0X0X0X0X0X0X0X0X9 ^.: o o o   %.z.v *X0X0X0X. &.%.&.&.&.%.P ~ -X0X0X0X0X0X0X0X0X0X0X0X0X0X0X0X0X0X0X0X0X0X0X0X",
"0X0X0X0X0X0X0X0X0X0X0X0X0X0X0X0X0X0Xa.:Xo ` ` ` & 2 `.g.qX0XqXr %.&.&.&.&.&.H P ;X0X0X0X0X0X0X0XqX0X0X0X0X0X0X0X0X0X0X0X0X0X0X0X",
"0X0X0X0X0X0X0X0X0X0X0X0X0X0X0X0X0X0Xv.<X$ ' ....- 1 X.z.1X0X0Xr &.&.&.&.&.&.K P -X0X0X0X0X0X0X0X0X0X0X0X0X0X0X0X0X0X0X0X0X0X0X0X",
"0X0X0X0X0X0X0X0X0X0X0X0X0X0X0X0X0X>Xv.qX# ......3.a.n.n.; 0X0X5.&.&.&.&.&.%.P D 7X0X0X0X0X0X0X0X0X0X0X0X0X0X0X0X0X0X0X0X0X0X0X0X",
"0X0X0X0X0X0X0X0X0X0X0X0X0X0X0X0X0X:Xv.5X# ..|  .6.j.qXb.X 0X0X(.@.%.&.&.&.$.G B 0X0X0X0X0X0X0X0X0X0X0X0X0X0X0X0X0X0X0X0X0X0X0X0X",
"0X0X0X0X0X0X0X0X0X0X0X0X0X0X0X0X0X6Xp.5 $ ..R 6 % .XqXv.X 0X6X+.] e %.&.&.A E /.0X0X0X0X0X0X0X0X0X0X0X0X0X0X0X0X0X0X0X0X0X0X0X0X",
"0X0X0X0X0X0X0X0X0X0X0X0X0X0X0X0X0X0Xt.; * ..Q ] . qX0Xk.qX0Xq %.&.%.6 6 i T &./.F.7X0X0X0X0X0X0X0X0X0X0X0X0X0X0X0X0X0X0X0X0X0X0X",
"0X0X0X0X0X0X0X0X0X0X0X0X0X0X0X0X0X0XK.d } >.:.r 0X0X:Xt.{.0X3.<.%.%.%.%.o.U $..X,X7X0X0X0X0X0X0X0X0X0X0X0X0X0X0X0X0X0X0X0X0X0X0X",
"0X0X0X0X0X0X0X0X0X0X0X0X0X0X0X0X0X0X`.b 9XO O .X0X0X@Xa / $ 8.8.&.&.&.&.&.P +.5X'.0X0X0X0X0X0X0X0X0X0X0X0X0X0X0X0X0X0X0X0X0X0X0X",
"0X0X0X0X0X0X0X0X0X0X0X0X0X0X0X0X9XqXqXU.9X0X0X0X0X0X0.>X/ ).6.8.*.&.&.*.%.K N 6X^.0X0X0X0X0X0X0X0X0X0X0X0X0X0X0X0X0X0X0X0X0X0X0X",
"0X0X0X0X0X0X0X0XqX0X0X0X0X0X0X0X+ A.qXT.7X0X0X0X0X0X0.>X( 9.&.8.=.&.&.&.J P c.7X*X0X0X0X0X0X0X0X0X0X0X0X0X0X0X0X0X0X0X0X0X0X0X0X",
"0X0X0X0X0X0X0X0X0X0X0X0X<X:X5X0X3 v.`.s 0X0X0X0X0X0XXXs y 3.8.7.8.&.&.%.K P R |.=X0X0X0X0X0X0X0X0X0X0X0X0X0X0X0X0X0X0X0X0X0X0X0X",
"0X0X0X0X0X0X0X0X0X0X0X0XL I.a.Z Z W.E.,X0X0X0X0X0XqX%XU.  W.8.8.%.9.&.! P S W.i W.. qX0X0X0X0X0X0X0X0X0X0X0X0X0X0X0X0X0X0X0X0X0X",
"0X0X0X0X0X0X0X0X0X0X0X0XqXA.B.P.P.3 3 0X0X0X0X0X4XU a.5 M.0 8.8.8.6 #.S H a C.Q.N.n d 4X0X0X0X0X0X0X0X0X0X0X0X0X0X0X0X0X0X0X0X0X",
"0X0X0X0X0X0X0X0X0X0X0X0X0XD.<X=Xe.a.L.2X0X0XqXa.H.I.J.,.4.8.8.8.8.8.d.u + U.&.=.g.R.E.s 0X0X0X0X0X0X0X0X0X0X0X0X0X0X0X0X0X0X0X0X",
"0X0X0X0X0X0X0X0X0X0X0X0XqX:X6X6X6X;XV.a.;X2XT H.[.E.E.<.8.8.8.8.8.8.Y.O.  C.V.^ E.R.R.l.XX0X0X0X0X0X0X0X0X0X0X0X0X0X0X0X0X0X0X0X",
"0X0X0X0X0X0X0X0X0X0X0X0XqX&X5X6X2XS.F.I.M.H.O.Q.&.2.2.,.8.8.8.8.8.8.Y.z.i %.T.S.C.U.N.Z.a 0X0X0X0X0X0X0X0X0X0X0X0X0X0X0X0X0X0X0X",
"0X0X0X0X0X0X0X0X0X0X0X0X0XG G G E.P.!.E.U.I.-.E.U.l ] *.8.8.8.8.8.8.Y.T.%.h X X X N.&.&.U qXqX0X0X0X0X0X0X0X0X0X0X0X0X0X0X0X0X0X",
"0X0X0X0X0X0X0X0X0X0X0XqXqXq.f N Z w.U.u.E.A 2.8 0 #X} 8.1.8.8.8.8.8.E.f.F v U U P N 0 &.P qX0X0X0X0X0X0X0X0X0X0X0X0X0X0X0X0X0X0X",
"0X0X0X0X0X0X0X0X0X0X0XqXqXY 2X2X2X9XG U.j 0X. 0X9X0X{ 8.8.*.8.8.8.U.E.f P P x H G U H o.$.qX0X0X0X0X0X0X0X0X0X0X0X0X0X0X0X0X0X0X",
"0X0X0X0X0X0X0X0X0X0X0X0X}.6X6Xm.m.r.g.'.9X0XqX0X0X7X4.8.8.8.1.<.G.R.e.N K U S ! &.o.U d %.qX0X0X0X0X0X0X0X0X0X0X0X0X0X0X0X0X0X0X",
"0X0X0X0X0X0X0X0X0X0X0XqXl k k E.T.  }.0X0X0X0X0X0X4X8.8.8.8.8.8.+   E.s G U U e &.&.U c d qX0X0X0X0X0X0X0X0X0X0X0X0X0X0X0X0X0X0X",
"0X0X0X0X0X0X0X0X0X0X0X`.e.e.i.W Q qX0X0X0X0X0X0X0X4X8.8.8.8.8.8.R.E.U.r &.C P E &.U U w E 0X0X0X0X0X0X0X0X0X0X0X0X0X0X0X0X0X0X0X",
"0X0X0X0X0X0X0X0X0X0X0XqXqXqXqX0X0X0X0X0X0X0X0X0X0X4X8.8.8.8.8.8.E.E.g.&.*.%.P N G P &.w 0X0X0X0X0X0X0X0X0X0X0X0X0X0X0X0X0X0X0X0X",
"0X0X0X0X0X0X0X0X0X0X0X0X0X0X0X0X0X0X0X0X0X0X0X0X0X0X{ 8.8.8.8.9.R.E.d.%.;.G P N P Y &.} 0X0X0X0X0X0X0X0X0X0X0X0X0X0X0X0X0X0X0X0X",
"0X0X0X0X0X0X0X0X0X0X0X0X0X0X0X0X0X0X0X0X0X0X0X0X0X0X_.8.8.8.8.8.C.E.z I K U G t $.&.&.) 0X0X0X0X0X0X0X0X0X0X0X0X0X0X0X0X0X0X0X0X",
"0X0X0X0X0X0X0X0X0X0X0X0X0X0X0X0X0X0X0X0X0X0X0X0X0X0X#X7.8.8.8.8.8.L.s P ! ! &.t *.%.[ qX0X0X0X0X0X0X0X0X0X0X0X0X0X0X0X0X0X0X0X0X",
"0X0X0X0X0X0X0X0X0X0X0X0X0X0X0X0X0X0X0X0X0X0X0X0X0X0X0X^ 8.8.8.8.9.q -.-.&.&.&.t &.0 *X0X0X0X0X0X0X0X0X0X0X0X0X0X0X0X0X0X0X0X0X0X",
"0X0X0X0X0X0X0X0X0X0X0X0X0X0X0X0X0X0X0X0X0X0X0X0X0X0X0XqX8 6.8.6.E *.%.%.*.&.;.+.y 0XqX0X0X0X0X0X0X0X0X0X0X0X0X0X0X0X0X0X0X0X0X0X",
"0X0X0X0X0X0X0X0X0X0X0X0X0X0X0X0X0X0X0X0X0X0X0X0X0X0X0X0X0X,Xy (.R *.%.*.&.&.^ *X7X0X0X0X0X0X0X0X0X0X0X0X0X0X0X0X0X0X0X0X0X0X0X0X",
"0X0X0X0X0X0X0X0X0X0X0X0X0X0X0X0X0X0X0X0X0X0X0X0X0X0X0X0X0X0X0X0X0Xi %.&.i # qX0X0X0X0X0X0X0X0X0X0X0X0X0X0X0X0X0X0X0X0X0X0X0X0X0X",
"0X0X0X0X0X0X0X0X0X0X0X0X0X0X0X0X0X0X0X0X0X0X0X0X0X0X0X0X0X0X0X0X0X0XOXOX0X0X0X0X0X0X0X0X0X0X0X0X0X0X0X0X0X0X0X0X0X0X0X0X0X0X0X0X",
"0X0X0X0X0X0X0X0X0X0X0X0X0X0X0X0X0X0X0X0X0X0X0X0X0X0X0X0X0X0X0X0X0X0X0X0X0X0X0X0X0X0X0X0X0X0X0X0X0X0X0X0X0X0X0X0X0X0X0X0X0X0X0X0X",
"0X0X0X0X0X0X0X0X0X0X0X0X0X0X0X0X0X0X0X0X0X0X0X0X0X0X0X0X0X0X0X0X0X0X0X0X0X0X0X0X0X0X0X0X0X0X0X0X0X0X0X0X0X0X0X0X0X0X0X0X0X0X0X0X",
"0X0X0X0XqX0X0X0X0X0X0X0X0X0X0X0X0X0X0X0X0X0X0X0X0X0X0X0X0X0X0X0X0X0X0X0X0X0X0X0X0X0X0X0X0X0X0X0X0X0X0X0X0X0X0X0X0X0X0X0X0X0X0X0X",
"0X0X0X0X0X0X0X0X0X0X0X0X0X0X0X0X0X0X0X0X0X0X0X0X0X0X0X0X0X0X0X0X0X0X0X0X0X0X0X0X0X0X0X0X0X0X0X0X0X0X0X0X0X0X0X0X0X0X0X0X0X0X0X0X"
};
