/* XPM */
static char *out[] = {
/* columns rows colors chars-per-pixel */
"64 64 218 2 ",
"   c #157C3D",
".  c #1D7C3E",
"X  c #2D542B",
"o  c #237C3E",
"O  c #306234",
"+  c #1B7E41",
"@  c #277A44",
"#  c #357C4B",
"$  c #0F8C3C",
"%  c #16843C",
"&  c #15893D",
"*  c #188637",
"=  c #1A853D",
"-  c #1A8A3E",
";  c #13923E",
":  c #14983D",
">  c #0FA33E",
",  c #11AA3C",
"<  c #22833D",
"1  c #23883D",
"2  c #0CC93D",
"3  c #0BD63C",
"4  c #0DDB3D",
"5  c #0F9155",
"6  c #148541",
"7  c #148B42",
"8  c #1B8541",
"9  c #1A8A41",
"0  c #188B4B",
"q  c #179544",
"w  c #0EBF41",
"e  c #1AA448",
"r  c #17B645",
"t  c #12AB6B",
"y  c #268645",
"u  c #238B44",
"i  c #2A8E4B",
"p  c #23924A",
"a  c #2C9453",
"s  c #32884E",
"d  c #378C54",
"f  c #359857",
"g  c #2CAC53",
"h  c #2AB65A",
"j  c #259C61",
"k  c #35A66A",
"l  c #0FDB42",
"z  c #15C846",
"x  c #11DC43",
"c  c #13D947",
"v  c #1DD952",
"b  c #11E247",
"n  c #14E54A",
"m  c #16E94D",
"M  c #19E44C",
"N  c #19EB4D",
"B  c #17F14B",
"V  c #1AE453",
"C  c #1BED5B",
"Z  c #1EEE5A",
"A  c #1DF25D",
"S  c #1DF35B",
"D  c #17D86D",
"F  c #1DE766",
"G  c #1FF461",
"H  c #2AC75C",
"J  c #26D859",
"K  c #22F556",
"L  c #22F55D",
"P  c #23F95D",
"I  c #2DC967",
"U  c #36DC6B",
"Y  c #35CF73",
"T  c #2EED69",
"R  c #24F45F",
"E  c #25FB63",
"W  c #27FA69",
"Q  c #2AFB66",
"!  c #2CF66A",
"~  c #2CFC6C",
"^  c #2EFD71",
"/  c #29F47C",
"(  c #31FD6E",
")  c #3EF56E",
"_  c #33FD73",
"`  c #36FD79",
"'  c #39F576",
"]  c #39FD75",
"[  c #39FD7C",
"{  c #965C43",
"}  c #8B624D",
"|  c #9C664B",
" . c #8D6E5E",
".. c #9A6858",
"X. c #A46748",
"o. c #AD6C4F",
"O. c #A9755B",
"+. c #957363",
"@. c #A97D67",
"#. c #B07364",
"$. c #E77A47",
"%. c #F67E43",
"&. c #F2882E",
"*. c #E8992A",
"=. c #FC833B",
"-. c #F4A133",
";. c #F1B03D",
":. c #FCC43D",
">. c #AA816C",
",. c #B6866C",
"<. c #A68475",
"1. c #B98675",
"2. c #D3944F",
"3. c #E8824A",
"4. c #F78344",
"5. c #FB8646",
"6. c #EC8051",
"7. c #FA8A56",
"8. c #D9AE5D",
"9. c #FBB946",
"0. c #F8A858",
"q. c #F2B153",
"w. c #C88A73",
"e. c #EF8F6C",
"r. c #F7986C",
"t. c #FA9D76",
"y. c #DFB265",
"u. c #ECB46C",
"i. c #FCBB6A",
"p. c #FCA179",
"a. c #F9CA48",
"s. c #F3CB53",
"d. c #F9D156",
"f. c #F7CE64",
"g. c #F9D568",
"h. c #FBC77C",
"j. c #FCD97A",
"k. c #FEE37F",
"l. c #AC948A",
"z. c #B69687",
"x. c #B7A49B",
"c. c #BBAFA6",
"v. c #C99781",
"b. c #D79E8A",
"n. c #CDA38E",
"m. c #D1A897",
"M. c #D7B099",
"N. c #ECA487",
"B. c #FBAD88",
"V. c #E7AA93",
"C. c #FAAB95",
"Z. c #F6AA9B",
"A. c #FAAB9B",
"S. c #E1B499",
"D. c #FBB09E",
"F. c #C3ABA1",
"G. c #D9B6A6",
"H. c #D1BEB7",
"J. c #E7B6A5",
"K. c #F4B7A6",
"L. c #FBB2A2",
"P. c #F0B7AB",
"I. c #FCBAAC",
"U. c #FCBEB3",
"Y. c #FCDA87",
"T. c #FDDF84",
"R. c #FDE385",
"E. c #FDE38B",
"W. c #FFE88E",
"Q. c #FDE591",
"!. c #FEE995",
"~. c #FCE898",
"^. c #D9C3B7",
"/. c #FBC2A8",
"(. c #E7C8BA",
"). c #FEC1B6",
"_. c #FDC1BB",
"`. c #EFD2BF",
"'. c #FBE9A3",
"]. c #FAE4BD",
"[. c #B9BFC0",
"{. c #C5C5C4",
"}. c #D2CBC9",
"|. c #D0CFD3",
" X c #D5D3D3",
".X c #DAD6D8",
"XX c #DDDCDC",
"oX c #E5CBC3",
"OX c #E7D4C8",
"+X c #F7DAC6",
"@X c #E6DDD7",
"#X c #E3DEDC",
"$X c #F8E2C9",
"%X c #E5E1DE",
"&X c #ECE2DD",
"*X c #F5E1D6",
"=X c #F4E5DC",
"-X c #FCEBDA",
";X c #DEDBE2",
":X c #E2DCE1",
">X c #E4E4E4",
",X c #EAE4E4",
"<X c #EAE6EA",
"1X c #E6EAE9",
"2X c #EBEAEA",
"3X c #F4ECE2",
"4X c #FAECE3",
"5X c #F5EFEB",
"6X c #FDF1E5",
"7X c #F5F2EF",
"8X c #FBF5EB",
"9X c #FBF4EE",
"0X c #F1EDF0",
"qX c #F4F4F4",
"wX c #FAF6F3",
"eX c #FCFBF5",
"rX c #F8F9FA",
"tX c #FFFFFF",
/* pixels */
"tXtXtXtXtXtXtXtXtXtXtXtXtXtXtXtXtXtXtXtXtXtXtXtXtXtXtXtXtXtXtXx.<.eXtXtXtXtXtXtXtXtXtXtXtXtXtXtXtXtXtXtXtXtXtXtXtXtXtXtXtXtXtXtX",
"tXtXtXtXtXtXtXtXtXtXtXtXtXtXtXtXtXtXtXtXtXtXtXtXtXtXtXtXtXtXc.- * u eXtXtXtXtXtXtXtXtXtXtXtXtXtXtXtXtXtXtXtXtXtXtXtXtXtXtXtXtXtX",
"tXtXtXtXtXtXtXtXtXtXtXtXtXtXtXtXtXtXtXtXtXtXtXtXtXtXtXtXtXeX .* L * 1.eXtXtXtXtXtXtXtXtXtXtXtXtXtXtXtXtXtXtXtXtXtXtXtXtXtXtXtXtX",
"tXtXtXtXtXtXtXtXtXtXtXtXtXtXtXtXtXtXtXtXtXtXtXtXtXtXtXtXtXeXF.* ^ 8 o *XtXtXtXtXtXtXtXtXtXtXtXtXtXtXtXtXtXtXtXtXtXtXtXtXtXtXtXtX",
"tXtXtXtXtXtXtXtXtXtXtXtXtXtXtXtXtXtXtXtXtXtXtXtXtXtXtXtXtXtXtX= X./ % y eXtXtXtXtXtXtXtXtXtXtXtXtXtXtXtXtXtXtXtXtXtXtXtXtXtXtXtX",
"tXtXtXtXtXtXtXtXtXtXtXtXtXtXtXtXtXtXtXtXtXtXtXtXtXtXtXtXtXtXrXs t G.^ % ,.tXtXtXtXtXtXtXtXtXtXtXtXtXtXtXtXtXtXtXtXtXtXtXtXtXtXtX",
"tXtXtXtXtXtXtXtXtXtXtXtXtXtXtXtXtXtXtXtXtXtXtXtXtXtXtXtXtXtXtX<.- :X2.9 = =XtXtXtXtXtXtXtXtXtXtXtXtXtXtXtXtXtXtXtXtXtXtXtXtXtXtX",
"tXtXtXtXtXtXtXtXtXtXtXtXtXtXtXtXtXtXtXtXtXtXtXtXtXtXtXtXtXtXtX*X= -X;X^ - = eXtXtXtXtXtXtXtXtXtXtXtXtXtXtXtXtXtXtXtXtXtXtXtXtXtX",
"tXtXtXtXtXtXtXtXtXtXtXtXtXtXtXtXtXtXtXtXtXtXtXtXtXtXtXtXtXtXtXtXr w.1XJ.Y 5 ..tXtXtXtXtXtXtXtXtXtXtXtXtXtXtXtXtXtXtXtXtXtXtXtXtX",
"tXtXtXtXtXtXtXtXtXtXtXtXtXtXtXtXtXtXtXtXtXtXtXtXtXtXtXtXtXtXtXeX. X.>X:X4.8 3 `.tXtXtXtXtXtXtXtXtXtXtXtXtXtXtXtXtXtXtXtXtXtXtXtX",
"tXtXtXtXtXtXtXtXtXtXtXtXtXtXtXtXtXtXtXtXtXtXtXtXtXtXtXtXtXtXtXtX[ 5 rXqXOX) 4 * wXtXtXtXtXtXtXtXtXtXtXtXtXtXtXtXtXtXtXtXtXtXtXtX",
"tXtXtXtXtXtXtXtXtXtXtXtXtXtXtXtXtXtXtXtXtXtXtXtXtXtXtXtXtXtXtXrXz.5 rXXX,XN.H = ..tXtXtXtXtXtXtXtXtXtXtXtXtXtXtXtXtXtXtXtXtXtXtX",
"tXtXtXtXtXtXtXtXtXtXtXtXtXtXtXtXtXtXtXtXtXtXtXtXtXtXtXtXtXtXtXtX+X= eXtX:XXX6.9 4 oXtXtXtXtXtXtXtXtXtXtXtXtXtXtXtXtXtXtXtXtXtXtX",
"tXtXtXtXtXtXtXtXtXtXtXtXtXtXtXtXtXtXtXtXtXtXtXtXtXtXtXtXtXtXtXtXz.6 eXtXtX>X@X^ * 6 8XtXtXtXtXtXtXtXtXtXtXtXtXtXtXtXtXtXtXtXtXtX",
"tXtXtXtXtXtXtXtXtXtXtXtXtXtXtXtXtXtXtXtXtXtXtXtXtXtXtXtXtXtXtXrX, 5 tXeXtX1X;XJ.Y ; | rXrXeXtXtXtXtXtXtXtXtXtXtXtXtXtXtXtXtXtXtX",
"tXtXtXtXtXtXtXtXtXtXtXtXtXtXtXtXtXtXtXtXtXtXtXtXtXtXtXtXs = r f = b.rXtXtXeX.XXX$.: & , r s 8XtXtXtXtXtXtXtXtXtXtXtXtXtXtXtXtXtX",
"tXtXtXtXtXtXtXtXtXtXtXtXtXtXtXtXtXtXtXtXtXtXtXtXtXtXtXOX& z i 6 = 9X XtXtXtXeXXX@XJ & = a & | wXtXtXtXtXtXtXtXtXtXtXtXtXtXtXtXtX",
"tXtXtXtXtXtXtXtXtXtXtXtXtXtXtXtXtXtXtXtXtXtXtXtXtXtXtXG.4 2.R.R.u.tXtX2X<XtXtXqXXXt.n 0.e *   4 d +XeXtXtXtXtXtXtXtXtXtXtXtXtXtX",
"tXtXtXtXtXtXtXtXtXtXtXtXtXtXtXtXtXtXtXtXtXtXtXtXtX2Xd 5 & P ] _ `.rXtXtXtX.XtXrX{.@X/ $.4./.3.0 ; = y @.7XtXtXtXtXtXtXtXtXtXtXtX",
"tXtXtXtXtXtXtXtXtXtXtXtXtXtXtXtXtXtXtXtXtXtXtXtXl.= 5 x 5.! ` T r.wXtXtXtXrX XtXwX:XW j ] _ =._ %.k = = 5 G.tXtXtXtXtXtXtXtXtXtX",
"tXtXtXtXtXtXtXeXtXtXtXtXtXtXtXtXtXtXtXtXtXtXqXr 5 4 7.] ] ] _ ` ) ] 5.-XtXtXtX|.rX{.%.: _ _ ] _ 3XtXtX7Xy , M.tXtXtXtXtXtXtXtXtX",
"tXtXtXtXtXtXz.z.eXtXtXtXtXtXtXtXtXtXtXtXeXOX  . I 5._ _ _ ) _ _ T T T E 5.qXeXtX:X#Xe.m ] ) ` 7.eXtXeX@ eX+ = wXtXtXtXtXtXtXtXtX",
"tXtXtXtXtX+.* - - >.7XtXtXeXtXtXtXeXeXtXx.= , 5.] _ _ _ ) ] S _ _ =._ ^ ] ) 7.9XqXXXH.Y 3._ ] ] >X0XtX2XtXeXr r eXqXtXtXtXtXtXtX",
"tXtXtXtXrXO i 4.7 = . t +.^.8XeXtXeXwX[ # 7 %.] ) _ _ ` _ ` ` ] ] _ _ F Q ) ! ) C.#XH.T j ` _ ] $XwXrXtXtXeXw.* d eXtXtXtXtXtXtX",
"tXtXtXtXtX[ O K.5.5.8 3 5 * 3 ; = 6 & - x ^ _ _ ] _ ' _ ) Q ! A S E ) W ) ) ) Q ) ' V.! ) ] _ ] ] -X0X2XeXrXN.L 6 1.tXtXtXtXtXtX",
"tXtXtXtXtX .* &X@X(.7.5.5.4.P h i 7 h ( ] _ / _ Q Q ) Q / E / ) ! _ ) Q Q ! ) ) ) ! ) ) ] ] ] ] ] %./.0X2X,X( _ 0 4 4XtXtXtXtXtX",
"tXtXtXtXtXO { tXtXeXeX2X@XK.t.5.) _ ] ! S Q _ ! ! Q ) ) / ) W ) ! ! ) / ! ! Q ) ) / ) _ _ ] ] _ ) ] ] =.] _ ] ] ] & p tXtXtXtXtX",
"tXtXtXtXeX- J.>X#X|.<XrXrXtXwXXX{.[.' ! D ) ) ! ) Q ) / / Q J F T Q ) ) ! Q ) E / Q ] _ ] ] ] i.R.j.j.9.` ] ] ) ) n = 4XtXtXtXtX",
"tXtXtXtX7X& S.tXtXtXtXtXtXtXtXeX;Xb.) ) T / ! ! ! ) ! ! Q F ) ) ! Q J ! ) Q _ R R Q _ _ _ ` T.g.a.-.&.~ ) ] ` _ ' ) 3 n.rXtXtXtX",
"tXtXtXtX} - -XtXtXtXtXtXtXrX2Xc.$._ Q R F J J E Q ! ! Q ! E ! ) ! _ E Q ) ! ! Q Q Q _ Q _ 0.f.*.] ) ] ] ) _ ] _ _ Q ; t wXtXtXtX",
"tXtXtXc.= y  X|. X.X|. X%XM.` Q E F R R K R K K R F E Q ! T W ! ! _ Z ) ! ! ) ! Q ! ! ! Q Y.a.Q _ ] ] ] _ _ ] p.)._.Z.= u eXtXtX",
"tXtX[ & 5 X.eXeX4XoX7.' R E R R R C V V N B D R R K K R R ! F T Q Q R ) ! ) ! ! ) ) ! ! ! j.:.! Q ! ) Q _ Q r._._.L.I.b.. ^.tXtX",
"tXtX, g ~ E ! E K E R J F C C c 0 ; ; C v V B N R K K K R R Q _ / F J ) E ! ! ! Q ) ! ) Q T.;.! ! Q ! ! _ ` C.I.U.D.L.U., p rXtX",
"tXtX+ & 9 c 0 c m 9 : $ 5 - , = , i - 6 n N B V B H Q.!.!.h.' T Q ) ) ! B S Q _ ) ! ) W 0.g._ ) _ Q ! ! ! r.C.).J.X Z.L.{ - tXtX",
"tXtXwXr ; 3 o 5 = - , = t o.m.6XrXtX5X5 5 8 M V h.~.!.!.!.!.!.!.( W ` W Q ) ! ! S F F ! W.a._ ! Q Q _ Q R p.A.U.b.X Z.A.{ = tXtX",
"tXtXtXtX8X4X=X3XeXeXeXtXtXtXtXtXrXtXtXtXu 6 h ~.~.E.E.W.!.!.~.~.!.h.F ! ! ! ! ! _ ! ) Y.g.&._ ! Q ! _ ! Q t.A.I.v.X A.Z.t p eXtX",
"tXtXtXtXtXtXtXtXtXtXtXtXtXtXtXtXtXtXtXtX}.f.s.s.a.a.j.R.R.E.R.T.W.Q.-.H R Q Q ! ! _ R.s.;.T ! ! ! ) ! ! ! p.A.U...1.A.I.t v.tXtX",
"tXtXtXtXtXtXtXtXtXtXtXtXtXtXtXtXtXtXrXr = -   = & U Q.R.R.E.k.R.R.R.R.m F R K T i.g.a.*._ F ! ! ! ! ! ! ! p.C.I.@.D.K.X.- 6XeXtX",
"tXtXtXtXtXtXtXtXtXtXtXtXtXtXtXtXtXtX}.6 I Q ~ ) =.B.R.R.E.d.a.E.E.Q.Y.G ( 0.d.:.9.G K R R B K R R E J R R C.D.I.Z.P.O.= #.tXtXtX",
"tXtXtXtXtXtXtXtXtXtXtXtXtXtXtXtXtXtXqXr * % # +.(.6X~.d.g.oX:X~.g.g.h.d.G H A M R W K K F Z R K K E K R J 7.A.D.f , 6 d rXtXtXtX",
"tXtXtXtXtXtXtXtXtXtXtXtXtXtXtXtXtXtXtX*X| | 6 = t - 5 >.4XeXeX6XE.f.3XW.b 1 < C N N V C V v C V B C C N V M $ 5 - O.=XrXtXtXtXtX",
"tXtXtXtXtXtXtXtXtXtXtXtXtXtXtXtXtXtXtXtXtXtXtXeX(.o.t 6 6 = *XeX'.].;X2X'.4XN.M N C 1 < < 1 < 1 M M c > % * t | -XrXtXtXtXtXtXtX",
"tXtXtXtXtXtXtXtXtXtXtXtXtXtXtXtXtXtXtXtXtXtXtXtXtXeXrXtXn.o o *XXX7XtXtXtXwXd = = = = , 4 4 U a.g.l - = u (.eXtXrXtXtXtXtXtXtXtX",
"tXtXtXtXtXtXtXtXtXtXtXtXtXtXtXtXtXtXtXtXtXtX0X>X>XXX1X>X>XXXo o 3XtXtXtXH.- * O.O.p = - h a.g.y.2 5 O.tXrXrXtXeXtXtXtXtXtXtXtXtX",
"tXtXtXtXtXtXtXtXtXtXtXtXtXtXeXrX2X2X1X>X;X>X>X>X>X>X#X>X>X>X%X6 - wXqX[ , , OX:X:X@X= f f.8.4 = 6 m.>XrXeXtXtXtXtXtXtXtXtXtXtXtX",
"tXtXtXtXtXtXtXtXtXtXtXrX2X>X>X>X%X>X%X>X>X>X>X%X>X>X>X>X>X>X>XXX= = r 6 ,.,X>X>X>X{ & d.z = 5 G.>X>X%X>X>X>X1XrXtXtXtXtXtXtXtXtX",
"tXtXtXtXtXtXtXtXtX0X>X>X>X>X>X>X>X>X>X>X>X>X>X>X>X>X>X>X>X>X>X>X^.t y (.%X>X>X>X>Xo a j.5 X.>X%X>X>X>X>X>X>X>X>X>XqXtXtXtXtXtXtX",
"tXtXtXtXtXtXtXtX>X;X>X>X>X>X>X>X>X>X>X>X>X1X>X>X>X>X>X>X>X>X>X>X>X,X>X>X>X>X>X>X,X, 2.q 3 &X>X>X>X>X>X>X>X>X>X>X>X>X>XtXtXtXtXtX",
"tXtXtXtXtXtXtX%X>X>X>X>X>X>X>X>X>X>X>X>X>X>X>X>X>X>X>X>X>X>X>X>X>X>X>X>X>X>X>X>X.X= q.3 p >X>X>X>X>X>X>X>X>X>X>X>X>X>X>XtXtXtXtX",
"tXtXtXtXtXtXtX>X>X>X>X>X>X>X:X>X>X>X>X>X>X>X>X>X>X>X>X>X>X>X>X>X>X1X>X>X>X>X>X>X%X& q.6 p %X>X>X>X>X>X>X>X>X>X>X>X>X>X>XrXtXtXtX",
"tXtXtXtXtXtXtX2X:X>X>X>X>X>X1X>X>X>X>X>X>X>X>X>X>X>X>X>X>X>X>X>X>X>X>X>X>X>X>X>X>X6 w w t ,X;X>X>X>X>X>X>X>X>X>X>X>X1XqXtXtXtXtX",
"tXtXtXtXtXtXtXtXeX>X>X>X>X>X>X>X>X>X>X>X>X1X>X>X>X>X>X>X>X>X>X>X>X>X>X>X>X1X1X>X>Xd 5 2 r &X>X#X>X>X>X>X>X>X>X>X>X>XtXtXtXtXtXtX",
"tXtXtXtXtXtXtXtXtXtXrX>X>X>X>X>X>X>X>X>X>X>X>X>X>X>X>X>X>X>X>X>X>X>X>X>X>X>X>X>X1X,Xd 6 (.#X>X>X>X>X>X1X>X:X>X1XtXtXtXtXtXtXtXtX",
"tXtXtXtXtXtXtXtXtXtXtXtXtXqX1X%X>X>X>X>X>X>X>X>X>X>X>X>X>X>X1X>X>X>X>X>X>X>X>X>X>X>X>X>X>X>X>X>X1X>X>X:X1XtXtXtXrXtXtXtXtXtXtXtX",
"tXtXtXtXtXtXtXtXtXtXtXtXtXtXtXtXtXtX0X2X>X>X>X>X1X>X>X>X>X>X>X>X>X>X>X>X>X>X>X>X>X>X>X>X>X>X>X2XqXtXtXtXtXtXtXtXtXtXtXtXtXtXtXtX",
"tXtXtXtXtXtXtXtXtXtXtXtXtXtXtXtXtXtXtXtXtXtXtXtXtXtXrXtXrX2X2X0X2X2X2X2X2X2XrXrXqXtXrXtXtXtXtXtXtXtXtXrXtXtXtXtXtXtXtXtXtXtXtXtX",
"tXtXtXtXtXtXtXtXtXtXtXtXtXtXtXtXtXtXtXtXtXtXtXtXtXtXtXtXtXtXtXtXtXtXtXrXtXtXtXtXtXtXtXtXtXtXtXtXtXtXtXtXtXtXtXtXtXtXtXtXtXtXtXtX",
"tXtXtXtXtXtXtXtXtXtXtXtXtXtXtXtXrXtXtXtXtXtXtXtXtXtXtXtXtXrXtXtXtXtXtXtXtXtXtXtXtXtXtXtXtXtXtXtXtXtXtXtXrXtXtXtXtXtXtXtXtXtXtXtX",
"tXtXtXtXtXtXtXtXtXtXtXtXtXtXtXtXtXtXtXtXtXtXtXtXtXtXtXtXtXtXtXtXtXtXtXtXtXtXtXtXtXtXtXtXtXtXtXtXtXtXtXrXtXtXtXtXtXtXtXtXtXtXtXtX",
"tXtXrXtXtXtXtXtXtXtXeXtXtXtXtXtXtXtXtXtXtXtXtXtXtXtXtXtXtXtXtXtXtXtXtXtXtXtXtXtXtXtXtXtXtXtXtXtXtXtXtXtXtXtXtXtXtXtXtXtXtXtXtXtX",
"tXtXtXtXtXtXtXtXtXtXtXtXtXtXtXtXtXtXtXtXtXtXtXtXtXtXtXtXtXtXtXtXtXtXtXtXtXtXtXtXtXtXtXtXtXtXtXtXtXtXtXtXtXtXtXtXtXtXtXtXtXtXtXtX",
"tXtXtXtXtXtXtXtXtXtXtXtXtXtXtXtXtXtXtXtXtXtXtXtXtXtXtXtXtXtXtXtXtXrXtXtXtXtXtXtXtXtXtXtXtXtXtXtXtXtXtXtXtXtXtXtXtXtXtXtXtXtXtXtX",
"tXtXtXtXtXtXtXtXtXtXtXtXtXtXtXtXtXtXtXtXtXtXtXtXtXtXtXtXtXtXtXtXtXtXtXtXtXtXtXrXtXtXtXtXtXtXtXtXtXtXtXtXtXtXtXtXtXtXtXtXtXtXtXtX",
"tXtXtXtXrXtXtXtXtXtXtXtXtXtXtXtXrXtXtXtXtXtXtXtXtXtXtXtXtXtXtXtXtXtXtXtXtXtXtXtXtXtXtXtXtXrXtXtXrXtXtXtXtXtXtXtXtXtXtXtXtXtXtXtX"
};
