/* XPM */
static char *out[] = {
/* columns rows colors chars-per-pixel */
"64 64 222 2 ",
"   c #7F3D1E",
".  c #552A2B",
"X  c #7A3C20",
"o  c #613732",
"O  c #7D401A",
"+  c #7C4223",
"@  c #7B462A",
"#  c #7E4D39",
"$  c #724842",
"%  c #7C5B48",
"&  c #933D0E",
"*  c #853D15",
"=  c #8A3D15",
"-  c #853619",
";  c #843D1A",
":  c #893D1A",
">  c #933C13",
",  c #9C3C12",
"<  c #B43F10",
"1  c #873F25",
"2  c #DB3C0C",
"3  c #854117",
"4  c #8B4312",
"5  c #84411B",
"6  c #8A421C",
"7  c #9B4212",
"8  c #93461D",
"9  c #9B591A",
"0  c #B0410F",
"q  c #A74518",
"w  c #B54317",
"e  c #864423",
"r  c #894727",
"t  c #8D4A2B",
"y  c #954A26",
"u  c #884E35",
"i  c #924F32",
"p  c #88543B",
"a  c #9A5838",
"s  c #A24D23",
"d  c #AD552B",
"f  c #B95E32",
"g  c #AA6F34",
"h  c #B96237",
"j  c #C64312",
"k  c #CA4717",
"l  c #D74B14",
"z  c #E24613",
"x  c #E44A14",
"c  c #E94C15",
"v  c #E54E19",
"b  c #EB4F1B",
"n  c #F04E17",
"m  c #EC511A",
"M  c #EA5619",
"N  c #ED5A1C",
"B  c #F1551B",
"V  c #F35B1E",
"C  c #FC5E1F",
"Z  c #CD651A",
"A  c #E36617",
"S  c #F8621D",
"D  c #DB5723",
"F  c #E15723",
"G  c #F45C21",
"H  c #FA5E23",
"J  c #F55F2B",
"K  c #D4692E",
"L  c #C96C38",
"P  c #D76B38",
"I  c #EC6425",
"U  c #F56324",
"Y  c #FA6325",
"T  c #F86926",
"R  c #F56529",
"E  c #FB6529",
"W  c #F66A2B",
"Q  c #FC6C2D",
"!  c #FE712F",
"~  c #F6782E",
"^  c #FE6E31",
"/  c #F76F3A",
"(  c #EE703A",
")  c #FE7332",
"_  c #F47935",
"`  c #FD7A36",
"'  c #F37739",
"]  c #FD753A",
"[  c #FD7C3A",
"{  c #865844",
"}  c #985D45",
"|  c #996347",
" . c #8C6454",
".. c #956A55",
"X. c #A4674A",
"o. c #AA6E54",
"O. c #A97357",
"+. c #B1725E",
"@. c #9B7868",
"#. c #A17966",
"$. c #B97E64",
"%. c #D77D4C",
"&. c #EA7A47",
"*. c #EF7949",
"=. c #F2892C",
"-. c #F3992E",
";. c #F88537",
":. c #FE803C",
">. c #F7943D",
",. c #DCA539",
"<. c #EEA835",
"1. c #F7B63B",
"2. c #B8826A",
"3. c #A78676",
"4. c #B88978",
"5. c #BB917A",
"6. c #CB8845",
"7. c #D8915C",
"8. c #FC8543",
"9. c #FE854A",
"0. c #F78A48",
"q. c #FD884A",
"w. c #E98557",
"e. c #F78955",
"r. c #F69258",
"t. c #F3B443",
"y. c #F6A458",
"u. c #CE876A",
"i. c #C2937A",
"p. c #F38C62",
"a. c #FE9A78",
"s. c #F4A96E",
"d. c #FDB968",
"f. c #FAB674",
"g. c #FBC444",
"h. c #FDC945",
"j. c #F6C548",
"k. c #F9C956",
"l. c #F7C66B",
"z. c #FBD76A",
"x. c #FBC47B",
"c. c #F9D770",
"v. c #FCDB74",
"b. c #FCDD7A",
"n. c #FCE279",
"m. c #B99887",
"M. c #AFA199",
"N. c #BBA398",
"B. c #CD9B86",
"V. c #DEAA8D",
"C. c #C8A493",
"Z. c #DAAB9A",
"A. c #DBB39D",
"S. c #FAA786",
"D. c #FBB889",
"F. c #EEA991",
"G. c #F9AC97",
"H. c #FBAC9C",
"J. c #CCB5AA",
"K. c #D8B3A5",
"L. c #CBB7B1",
"P. c #CCBDB5",
"I. c #D6BEB6",
"U. c #F0AFA1",
"Y. c #E4BCA9",
"T. c #FCB3A4",
"R. c #F8B7AA",
"E. c #FCBDB2",
"W. c #F6DB83",
"Q. c #FDDD84",
"!. c #FCDE8C",
"~. c #EFC994",
"^. c #FDE385",
"/. c #F6E489",
"(. c #FDE48C",
"). c #FDE592",
"_. c #FCEA95",
"`. c #FCEA9A",
"'. c #CCC3B8",
"]. c #D8C3B6",
"[. c #E4C1AE",
"{. c #FEDFAE",
"}. c #E7C8B7",
"|. c #F0C6B3",
" X c #FDC1B9",
".X c #F9D4BC",
"XX c #F9E9A8",
"oX c #D5CCCB",
"OX c #D5CFCC",
"+X c #D6D5D7",
"@X c #DAD4D4",
"#X c #DBD8D8",
"$X c #DCDBDD",
"%X c #E3CDC2",
"&X c #ECCBC4",
"*X c #E7D5CC",
"=X c #F6D7C8",
"-X c #E5DCD5",
";X c #E2DDDC",
":X c #E9DCDC",
">X c #F5DCD4",
",X c #E6E0D3",
"<X c #E4E2DE",
"1X c #E9E3DC",
"2X c #F7E8DA",
"3X c #DEDEE0",
"4X c #E5DEE1",
"5X c #E4E3E3",
"6X c #EBE5E4",
"7X c #E8E7E9",
"8X c #EDECEC",
"9X c #F6EAE3",
"0X c #F0EDEC",
"qX c #F1EEED",
"wX c #F3F4EE",
"eX c #FCF4ED",
"rX c #FDF8E9",
"tX c #F4F4F4",
"yX c #FAF5F3",
"uX c #FBFBF6",
"iX c #F6FBF8",
"pX c #FFFFFF",
/* pixels */
"pXpXpXpXpXpXpXpXpXpXpXpXpXpXpXpXpXpXpXpXpXpXpXpXpXpXpXpXpXpXpXpXpXpXpXpXpXpXN.} 9XpXpXpXpXpXpXpXpXpXpXpXpXpXpXpXpXpXpXpXpXpXpXpX",
"pXpXpXpXpXpXpXpXpXpXpXpXpXpXpXpXpXpXpXpXpXpXpXpXpXpXpXpXpXpXpXpXpXpXpXpXpX8X  * ; uXpXpXpXpXpXpXpXpXpXpXpXpXpXpXpXpXpXpXpXpXpXpX",
"pXpXpXpXpXpXpXpXpXpXpXpXpXpXpXpXpXpXpXpXpXpXpXpXpXpXpXpXpXpXpXpXpXpXpXpXpXM.* P * eXpXpXpXpXpXpXpXpXpXpXpXpXpXpXpXpXpXpXpXpXpXpX",
"pXpXpXpXpXpXpXpXpXpXpXpXpXpXpXpXpXpXpXpXpXpXpXpXpXpXpXpXpXpXpXpXpXpXpXpXpX'.3 ! ; .XpXpXpXpXpXpXpXpXpXpXpXpXpXpXpXpXpXpXpXpXpXpX",
"pXpXpXpXpXpXpXpXpXpXpXpXpXpXpXpXpXpXpXpXpXpXpXpXpXpXpXpXpXpXpXpXpXpXpXpXpXM.= ! * O.pXpXpXpXpXpXpXpXpXpXpXpXpXpXpXpXpXpXpXpXpXpX",
"pXpXpXpXpXpXpXpXpXpXpXpXpXpXpXpXpXpXpXpXpXpXpXpXpXpXpXpXpXpXpXpXpXpXpXpXpX@.e r., e iXpXpXpXpXpXpXpXpXpXpXpXpXpXpXpXpXpXpXpXpXpX",
"pXpXpXpXpXpXpXpXpXpXpXpXpXpXpXpXpXpXpXpXpXpXpXpXpXpXpXpXpXpXpXpXpXpXpXpXpX# t [.k = pXpXpXpXpXpXpXpXpXpXpXpXpXpXpXpXpXpXpXpXpXpX",
"pXpXpXpXpXpXpXpXpXpXpXpXpXpXpXpXpXpXpXpXpXpXpXpXpXpXpXpXpXpXpXpXpXpXpXpXpX  2.>XN = eXpXpXpXpXpXpXpXpXpXpXpXpXpXpXpXpXpXpXpXpXpX",
"pXpXpXpXpXpXpXpXpXpXpXpXpXpXpXpXpXpXpXpXpXpXpXpXpXpXpXpXpXpXpXpXpXpXpXpXiX5 Z.$X) = &XpXpXpXpXpXpXpXpXpXpXpXpXpXpXpXpXpXpXpXpXpX",
"pXpXpXpXpXpXpXpXpXpXpXpXpXpXpXpXpXpXpXpXpXpXpXpXpXpXpXpXpXpXpXpXpXpXpXpXpX; [.3X' > ..pXpXpXpXpXpXpXpXpXpXpXpXpXpXpXpXpXpXpXpXpX",
"pXpXpXpXpXpXpXpXpXpXpXpXpXpXpXpXpXpXpXpXpXpXpXpXpXpXpXpXpXpXpXpXpXpXpXpX9X- 2X5X7., 3 pXpXpXpXpXpXpXpXpXpXpXpXpXpXpXpXpXpXpXpXpX",
"pXpXpXpXpXpXpXpXpXpXpXpXpXpXpXpXpXpXpXpXpXpXpXpXpXpXpXpXpXpXpXpXpXpXpXpXN.; iXtXZ.0 * pXpXpXpXpXpXpXpXpXpXpXpXpXpXpXpXpXpXpXpXpX",
"pXpXpXpXpXpXpXpXpXpXpXpXpXpXpXpXpXpXpXpXpXpXpXpXpXpXpXpXpXpXpXpXpXpXpXiX@ r pXqX@XD 5 yXpXpXpXpXpXpXpXpXpXpXpXpXpXpXpXpXpXpXpXpX",
"pXpXpXpXpXpXpXpXpXpXpXpXpXpXpXpXpXpXpXpXpXpXpXpXpXpXpXpXpXpXpXpXpXpXpX*X1 Y.pX+X$XW ; }.pXpXpXpXpXpXpXpXpXpXpXpXpXpXpXpXpXpXpXpX",
"pXpXpXpXpXpXpXpXpXpXpXpXpXpXpXpXpXpXpXpXpXpXpXpXpXpXpXpXpXpXpXpXpXpXpXO = pXpX+X3X( ; $.pXpXpXpXpXpXpXpXpXpXpXpXpXpXpXpXpXpXpXpX",
"pXpXpXpXpXpXpXpXpXpXpXpXpXpXpXpXpXpXpXpXpXpXpXpXpXpXpXpXpXpXpXpXpXpXe ; rXuXpXpX4Xw.* r pXpXpXpXpXpXpXpXpXpXpXpXpXpXpXpXpXpXpXpX",
"pXpXpXpXpXpXpXpXpXpXpXpXpXpXpXpXpXpXpXpXpXpXpXpXpXpXpXpXpXpXpXpXpX .= [.7XpXpXpX;XV.7 5 pXpXpXpXpXpXpXpXpXpXpXpXpXpXpXpXpXpXpXpX",
"pXpXpXpXpXpXpXpXpXpXpXpXpXpXpXpXpXpXpXpXpXpXpXpXpXpXpXpXpXpXpXpXJ.= i.uX8XiXpXpX#X[.D ; eXpXpXpXpXpXpXpXpXpXpXpXpXpXpXpXpXpXpXpX",
"pXpXpXpXpXpXpXpXpXpXpXpXpXpXpXpXpXpXpXpXpXpXpXpXpXpXpXpXP.-XyXiX{ 3 pXpXpX#XpXpX#X*XQ - =XpXpXpXpXpXpXpXpXpXpXpXpXpXpXpXpXpXpXpX",
"pXpXpXpXpXpXpXpXpXpXpXpXpXpXpXpXpXpXpXpXpXpXpXpXpXpXiX; ;   = 6 1 g 2XuXpXpXpXpX7X$XE = i.pXpXpXpXpXpXpXpXpXpXpXpXpXpXpXpXpXpXpX",
"pXpXpXpXpXpXpXpXpXpXpXpXpXpXpXpXpXpXpXpXpXpXpXpXpXpXeX; s.7.a : 6 `.^.rXpXpX$XpXpX;X' > X.pXpXpXpXpXpXpXpXpXpXpXpXpXpXpXpXpXpXpX",
"pXpXpXpXpXpXpXpXpXpXpXpXpXpXpXpXpXpXpXpXpXpXpXpXpXpXtX; 9 z.(.d.q.) W ( uXuXuXpXpX$X' & ; } 9XpXpXpXpXpXpXpXpXpXpXpXpXpXpXpXpXpX",
"pXpXpXpXpXpXpXpXpXpXpXpXpXpXpXpXpXpXpXpXpXpXpXpXpX'.X e y <.` _ R ] ! ` a.pXpX#XpX#X&.h a = - 5.pXpXpXpXpXpXpXpXpXpXpXpXpXpXpXpX",
"pXpXpXpXpXpXpXpXpXpXpXpXpXpXpXpXpXpXpXpXpXpXpXpX#.; 5 &.[ [ ] ` I Q E I Q .XpX#XpX@XT h _ 9.7 * + yXuXpXpXpXpXpXpXpXpXpXpXpXpXpX",
"pXpXpXpXpXpXpXpXpXpXpXpXpXpXpXpXpXpXpXpXpXpXpX% = y 8.` ) ` ` ) ` ) _ _ b I eXpXiX+XJ %.] ) ` P ; = ..pXpXpXpXpXpXpXpXpXpXpXpXpX",
"pXpXpXpXpXpXpXpXpXpXpXpXpXpXpXpXpXpXpXpXpXpX .6 f [ ` [ :.` ` Q ` ] ) ) U Y / pX4XP.^ ( [ ) ` ~.=X} = t uXpXpXpXpXpXpXpXpXpXpXpX",
"pXpXpXpXpXpXpXpXpXpXpXpXpXpXpXpXpXpXpXpXpXm.6 f :.[ ` [ ` ] T ] ` ` ` I Q Y R =XoXJ.R _ ` ` D.wXpXpXL.: X.pXpXpXpXpXpXpXpXpXpXpX",
"pXpXpXpXpXpXpXpXpXpXpXpXpXpXpXpXpXpXpXpXyX; 8 [ ` ` [ [ [ ] ~ ` ` ` ` ) ) Y E Y oXi.F [ ` [ .XeXuXtX4Xm.; 2XpXpXpXpXpXpXpXpXpXpX",
"pXpXpXpXpXpXpXpXpXpXpXpXpXpXpXpXpXpXpXpX% ; q.` ` [ ` ` [ ] ) ] ) :.N E ^ Y Q U e.&.k [ ` [ f.qXpXpXqXuX+ i pXpXpXpXpXpXpXpXpXpX",
"pXpXpXpXpXpXpXpXpXpXpXpXpXpXpXpXpXpXpX6X; L ` ` :.[ ` ) ) V U ^ ) ) R ) T E E R ) ) ` ` ` [ ] eXyXpXpXuX4.; ].uXpXpXpXpXpXpXpXpX",
"pXpXpXpXpXpXpXpXpXpXpXpXpXpXpXpXpXpXpX{ ; [ [ ` [ ) ) Q G Q ) ^ ^ Q ) Q ! T E Q ` ` [ ` ` ] [ s.8X0XpXpXJ., 5 pXpXpXpXpXpXpXpXpX",
"pXpXpXpXpXpXpXpXpXpXpXpXpXpXpXpXpXpXuX; s ` ` ] Q ) Q ) Q W Q Q Q ) ) ! Q E E Q ` ` [ ` ` ` ` ` S.8X8XuXw._ = B.pXpXpXpXpXpXpXpX",
"pXpXpXpXpXpXpXpXpXpXpXpXpXpXpXpXpXpXN.- K ` ` ) Q ! Q Q Q U G M G V ) ) Y E Q ` ` ` _ ` ` ` [ [ [ [ r.e.[ [ 7 : pXpXpXpXpXpXpXpX",
"pXpXpXpXpXpXpXpXpXpXpXpXpXpXpXpXpXuX1 y E ) ! ! ) Q ^ Q G ) ] Q ) N ) Q Q Y ) ! ) [ ] ` :.d.b.^.n.;.` ;.` [ ' 6 =XpXpXpXpXpXpXpX",
"pXpXpXpXpXpXpXpXpXpXpXpXpXpXpXpXpXL.* &.Q ! ! ) ^ ! ! ) Q ! ) ) ) Q ) ! Q ! ) Q ! Q Q ^ (.z.g.-.=.] ` :.` [ ) = O.pXpXpXpXpXpXpX",
"pXpXpXpXpXpXpXpXpXpXpXpXpXpXpXpX3.: = [ E Q Q ) ^ ! Q ) N ) ! ) ! R ! ! ! ! ! ! ! ) ) d.z.=.T ) [ :.` ` ` ) ] < e pXpXpXpXpXpXpX",
"pXpXpXpXpXpXpXpXpXpXpXpXpXpXN.5 ; 8 q.` V ) ! ! ! ! Q ! ! ! S R ) ^ ` ) ) ! ! ! ) ! ! Q.j.) ) ! ! ` [ ` ] ] ` l * uXpXpXpXpXpXpX",
"pXpXpXpXpXpXpXpXpXpXpX1X@.; ; = L 8.) ) V ! ) Y Y E Y Q Y Q ) ) ! V ) ) ) ! ! ! ! ! ! ^.g.! ! ! Q ! ) [ e.E.E.F.: a pXpXpXpXpXpX",
"pXpXpXpXpXpXyX..u t ; ; : 5 L 9.[ S.U.) Q Q Y Y V U Q :.W Y S ! ) ) E Y ) ) ! Q ! ! ! ^.1.^ ! ! ) ) ! q.T. XR. Xu.; 9XpXpXpXpXpX",
"pXpXpXpXpXpXX ; ; ; e d 0.:.e.=X;XOXw.! V V Y V B r.`.`.`.`.x.Y E Q Q ! N Q ) ! ! ! ` ^.>.! ) ! ! ! ! G. X XT.G.E.1 B.pXpXpXpXpX",
"pXpXpXpXpXuX  %.:.[ ` 0.G.,XiX7XqX@X! Y Y x c v y.`.`.`.`._._.`.' S ~ ) ) ! Q Y ^ ! q.b.=.` ! ) ^ ^ *.H.E.E.o H.R.  X.iXpXpXpXpX",
"pXpXpXpXpXpXX = =X:X-X8XpXpX+XuXuX%.) S c m z f._./.(.(.(.(.(.`._.N Y Y ! ) ) ! ) E Q.j.A V U V B H p.H.E.Z.. H.R.e a pXpXpXpXpX",
"pXpXpXpXpXpX:X; Y.pXpXtX#XtXpXuXC.) E V x < l.v.z.k.n.(.^.(.^.(.^.t.Y V Y Y ! ] ) y.(.1.! ! ! ) ^ Q S.H.E.4.. H.T.; $.pXpXpXpXpX",
"pXpXpXpXpXpXuX@ o.3X3XtXpXpXpX&X! V m j * ; 9 9 9 6.(.(.(.v.^.(.^.v.m E E H Y H 8.^.1.~ ! ) ) ! ) ) S.T.E.$ 4.H.R.: &XpXpXpXpXpX",
"pXpXpXpXpXpXpXu r pXpXuXpXpX@X/ Q B 0 3 t %X4.r * a ).!.z.<.^./.b.n.Z c H H C ] b.h.c S T ) Q Q Q U S.T.R.{ H.T.} = uXpXpXpXpXpX",
"pXpXpXpXpXpXpXN.; uXpXpX8X6X%.H n 0 5 } @X#.+ : = e !.h.Z D f.b.z._.z.v z J Q.g.-.U z T Y V E E C Y G.H.E.H.E.Z.= 5.pXpXpXpXpXpX",
"pXpXpXpXpXpXpXuX; }.pX#XiX*.Y c > = 2.@ - ; 5 8 k W _ S.*X1X;X).W.wXXXy.t.t.Z z m x z M Y H Y E E G S.H.T.X.t * r pXpXpXpXpXpXpX",
"pXpXpXpXpXpXpX6X5 }.tXiX' Y c & = B. .3 d D I e.|.-X7X8X<X#XXXW.c.!.{.-X4X>Xp.c z 2 z z x x b c v c k s : = = a -XpXpXpXpXpXpXpX",
"pXpXpXpXpXpXpX$X  u yX&.H l & ; A.4Xp ; q y ..3.I.'.#XyXpXuXpXpXpXpX+XuXpXuX{ = ; > 7 q w 0 ;.d.4 4 ; 3 3 B.;X5X5XpXpXpXpXpXpXpX",
"pXpXpXpXpXpXpX# : d T N 2   3 &X1X<X*X+ 3 * : : : = : : u &XpXpXtX5XpXpXiX{ e a e ; : * 6 6 h.l.5 | K.3X<X7X5X5X5XpXpXpXpXpXpXpX",
"pXpXpXpXpXpXpXO L Y c , 3 t <X5X5X5X<X3X<X5X5X-XI.m.{ : = = #.<XtXpXpXiX1   B.5X5X1X6X  3 h.b.5   1X5X5X5X5X5X$XtXpXpXpXpXpXpXpX",
"pXpXpXpXpXpXpX  * > 4 = 5.5X5X5X5X5X5X5X5X<X<X5X#X5X6X5X5Xp 6 +.pXpXpX@ = V.4X5X5X5Xp 5 j./.3 3 -X5X3X5X7X5X8XpXpXpXpXpXpXpXpXpX",
"pXpXpXpXpXpXpXJ.; - } 9XyX3X5X5X5X5X5X5X5X5X5X5X5X5X5X5X5X4X..6 o.iXe - C.6X5X5X5X4X* 6.z.4 * &X<X5X5X5XyXpXpXpXpXpXpXpXpXpXpXpX",
"pXpXpXpXpXpXpXpXpXpXpXpXpXpXpXiX7X<X5X<X5X<X5X5X5X5X5X5X5X5X3X@.*   : A.3X5X5X6X5X@.* k.g ; Y.<X8XiXpXpXpXpXpXpXpXpXpXpXpXpXpXpX",
"pXpXpXpXpXpXpXpXpXpXpXpXpXpXpXpXpXpXpXpXpXtXqX5X5X5X5X5X5X5X7X5X@.t K.5X5X5X5X5X8X@ 9 z.: $.pXiXpXpXpXiXpXpXpXpXpXpXpXpXpXpXpXpX",
"pXpXpXpXpXpXpXpXpXpXpXpXpXpXpXpXpXpXpXpXpXpXpXpXpXpXpXuXpXpXpXpXpXpXpXpXpXpXpXuXpXr ,.g * tXpXpXpXpXpXpXpXpXpXpXpXpXpXpXpXpXpXpX",
"pXpXpXpXpXpXpXpXpXpXpXpXpXpXpXpXpXpXpXpXpXpXpXpXpXpXpXpXpXpXpXpXpXiXpXpXpXpXpXpXiX; k.6 } pXpXpXpXpXpXpXpXpXpXpXpXpXpXpXpXpXpXpX",
"pXpXpXpXpXpXpXpXpXpXpXpXpXpXpXpXpXpXpXpXpXpXpXpXpXpXpXpXpXpXpXpXpXpXpXpXpXpXpXpXtX- k.3 5.pXpXpXpXpXpXpXpXpXpXpXpXpXpXpXpXpXpXpX",
"pXpXpXpXpXpXpXpXpXpXpXpXpXpXpXpXpXpXpXpXpXpXpXpXpXpXpXpXpXpXpXpXpXpXpXpXpXpXpXpXtX* k.* V.pXpXpXpXpXpXpXpXpXpXpXpXpXpXpXpXpXpXpX",
"pXpXpXpXpXpXpXpXpXpXpXpXpXpXpXpXpXpXpXpXpXpXpXpXpXpXpXpXpXpXpXpXpXpXpXpXpXpXpXpXtX3 j.  2.pXpXpXpXpXpXpXpXpXpXpXpXpXpXpXpXpXpXpX",
"pXpXpXpXpXpXpXpXpXpXpXpXpXpXpXpXpXpXpXpXpXpXpXpXpXpXpXpXpXpXpXpXpXpXpXpXpXpXpXpXiX  <.9 r pXpXpXpXpXpXpXpXpXpXpXpXpXpXpXpXpXpXpX",
"pXpXpXpXpXpXpXpXpXpXpXpXpXpXpXpXpXpXpXpXpXpXpXpXpXpXpXpXpXpXpXpXpXpXpXpXpXpXpXpXpX@ 3 ,.- pXpXpXpXpXpXpXpXpXpXpXpXpXpXpXpXpXpXpX",
"pXpXpXpXpXpXpXpXpXpXpXpXpXpXpXpXpXpXpXpXpXpXpXpXpXpXpXpXpXpXpXpXpXpXpXpXpXpXpXpXpX*X= 6 - pXpXpXpXpXpXpXpXpXpXpXpXpXpXpXpXpXpXpX",
"pXpXpXpXpXpXpXpXpXpXpXpXpXpXpXpXpXpXpXpXpXpXpXpXpXpXpXpXpXpXpXpXpXpXpXpXpXpXpXpXpXuXm.e |.pXpXpXpXpXpXpXpXpXpXpXpXpXpXpXpXpXpXpX"
};
