/* XPM */
static char *out[] = {
/* columns rows colors chars-per-pixel */
"64 64 224 2 ",
"   c #153D7C",
".  c #1D3E7C",
"X  c #2D2B54",
"o  c #233E7C",
"O  c #303462",
"+  c #1B417E",
"@  c #27447A",
"#  c #354B7C",
"$  c #0F3C8C",
"%  c #163C84",
"&  c #153D89",
"*  c #183786",
"=  c #1A3D85",
"-  c #1A3E8A",
";  c #133E92",
":  c #143D98",
">  c #0F3EA3",
",  c #113CAA",
"<  c #223D83",
"1  c #233D88",
"2  c #0C3DC9",
"3  c #0B3CD6",
"4  c #0D3DDB",
"5  c #0F5591",
"6  c #144185",
"7  c #14428B",
"8  c #1B4185",
"9  c #1A418A",
"0  c #184B8B",
"q  c #174495",
"w  c #0E41BF",
"e  c #1A48A4",
"r  c #1745B6",
"t  c #126BAB",
"y  c #264586",
"u  c #23448B",
"i  c #2A4B8E",
"p  c #234A92",
"a  c #2C5394",
"s  c #324E88",
"d  c #37548C",
"f  c #355798",
"g  c #2C53AC",
"h  c #2A5AB6",
"j  c #25619C",
"k  c #356AA6",
"l  c #0F42DB",
"z  c #1546C8",
"x  c #1143DC",
"c  c #1347D9",
"v  c #1D52D9",
"b  c #1147E2",
"n  c #144AE5",
"m  c #164DE9",
"M  c #194CE4",
"N  c #194DEB",
"B  c #174BF1",
"V  c #1A53E4",
"C  c #1B53ED",
"Z  c #1E5AEE",
"A  c #1D55F2",
"S  c #1D5BF3",
"D  c #176DD8",
"F  c #1D66E7",
"G  c #1F61F4",
"H  c #2A5CC7",
"J  c #2659D8",
"K  c #2256F5",
"L  c #225DF5",
"P  c #235DF9",
"I  c #2D67C9",
"U  c #366BDC",
"Y  c #3573CF",
"T  c #2E69ED",
"R  c #245FF4",
"E  c #2563FB",
"W  c #2769FA",
"Q  c #2A66FB",
"!  c #2C6AF6",
"~  c #2C6CFC",
"^  c #2E71FD",
"/  c #297CF4",
"(  c #316EFD",
")  c #3E6EF5",
"_  c #3373FD",
"`  c #3679FD",
"'  c #3976F5",
"]  c #3975FD",
"[  c #397CFD",
"{  c #885B46",
"}  c #955B42",
"|  c #9E6545",
" . c #896758",
".. c #986B55",
"X. c #9C7059",
"o. c #A66747",
"O. c #A76B54",
"+. c #A97456",
"@. c #B5755A",
"#. c #9D7E68",
"$. c #967D76",
"%. c #A6796A",
"&. c #B57B68",
"*. c #D97F4A",
"=. c #E87B47",
"-. c #F47B45",
";. c #FD7D43",
":. c #C8941A",
">. c #C78E36",
",. c #EF8124",
"<. c #EE9A2A",
"1. c #FC823E",
"2. c #DCA82D",
"3. c #F2B037",
"4. c #F9C63F",
"5. c #B3804D",
"6. c #B3846F",
"7. c #BA937F",
"8. c #D59159",
"9. c #EC8F4B",
"0. c #FD8441",
"q. c #FC8B44",
"w. c #F8854A",
"e. c #FE8A49",
"r. c #F88752",
"t. c #FD9A53",
"y. c #D8AE57",
"u. c #F4B747",
"i. c #F1A950",
"p. c #CF8F70",
"a. c #EF956A",
"s. c #FA9669",
"d. c #E59B77",
"f. c #D8A670",
"g. c #FDAE64",
"h. c #FBB96D",
"j. c #FCA47B",
"k. c #FDCA46",
"l. c #F9C748",
"z. c #F9CE58",
"x. c #FBD359",
"c. c #F3C868",
"v. c #F9D567",
"b. c #FBCC76",
"n. c #FED777",
"m. c #FCDC73",
"M. c #FDDC7B",
"N. c #B99B8E",
"B. c #BEA88F",
"V. c #AFAAA8",
"C. c #C79A89",
"Z. c #D49A8B",
"A. c #C7A799",
"S. c #DAA590",
"D. c #D5B49E",
"F. c #E4A48C",
"G. c #F8AB88",
"H. c #E8AA94",
"J. c #F2AF93",
"K. c #FCAB94",
"L. c #F5AD9D",
"P. c #F9AD9D",
"I. c #EEB49B",
"U. c #D2B9AF",
"Y. c #E1B8A5",
"T. c #FAB7AB",
"R. c #F4BDB1",
"E. c #FBBEB4",
"W. c #FDDB87",
"Q. c #FAD795",
"!. c #FDE286",
"~. c #FDE48B",
"^. c #FFEA8C",
"/. c #FDE592",
"(. c #FDE994",
"). c #FDEA9A",
"_. c #D9C4BA",
"`. c #F9C6A5",
"'. c #E7C8BA",
"]. c #FBC2B8",
"[. c #FDC1B9",
"{. c #FBD2BA",
"}. c #FBE5A4",
"|. c #C9C9C9",
" X c #D7CCC6",
".X c #D7D5CE",
"XX c #D1D0D3",
"oX c #DADAD5",
"OX c #D9D7D9",
"+X c #DDDCDC",
"@X c #E5CFC4",
"#X c #EBD4C4",
"$X c #E6D4C9",
"%X c #EBD5CB",
"&X c #FBDAC8",
"*X c #E8D7D4",
"=X c #E2DDDD",
"-X c #FFE4CF",
";X c #E3E2DE",
":X c #EAE6DD",
">X c #F8E5D6",
",X c #FBEBDD",
"<X c #DDDDE1",
"1X c #E3DDE1",
"2X c #EADBE2",
"3X c #DFE3E2",
"4X c #E4E3E3",
"5X c #E9E4E2",
"6X c #E6E9E5",
"7X c #ECECEC",
"8X c #F4ECE6",
"9X c #FAECE5",
"0X c #F2EEEE",
"qX c #FEF4E6",
"wX c #F4F2ED",
"eX c #FBF5ED",
"rX c #EAEEF0",
"tX c #F3EFF1",
"yX c #EFF1F1",
"uX c #F4F4F4",
"iX c #FCF6F3",
"pX c #FCFAF6",
"aX c #F7F8F9",
"sX c #FFFFFF",
/* pixels */
"sXsXsXsXsXsXsXsXsXsXsXsXsXsXsXsXsXsXsXsXsXsXsXsXsXsXsXsXsXsXsXsXsXsXsXsXsXsXsXsXsXsXsXsXsXsXsXsXsXsXsXsXsXsXsXsXsXsXsXsXsXsXsXsX",
"sXsXsXsXsXsXsXsXsXsXsXsXsXsXsXsXsXsXsXsXsXsXsXsXsXsXsXsXsXsXsXsXsXsXsXsXsXsXsXsXsXsXsXsXsXsXsXsXsXsXsXsXsXsXsXsXsXsXsXsXsXsXsXsX",
"sXsXsXsXsXsXsXsXsXsXsXsXsXsXsXsXsXsXsXsXsXsXsXsXsXsXsXsXsXsXsXsXsXsXsXsXsXsXsXsXsXsXsXsXsXsXsXsXsXsXsXsXsXsXsXsXsXsXsXsXsXsXsXsX",
"sXsXsXsXsXsXsXsXsXsXsXsXsXsXsXsXsXsXsXsXsXsXsXsXsXsXsXsXsXsXsXsXsXsXsXsXsXsXsXsXsXsXsXsXsXsXsXsXsXsXsXsXsXsXsXsXsXsXsXsXsXsXsXsX",
"sXsXsXsXsXsXsXsXsXsXsXsXsXsXsXsXsXsXsXsXsXsXsXsXsXsXsXsXsXsXsXsXsXsXsXsXsXsXsXsXsXsXsXsXsXsXsXsXsXsXsXsXsXsXsXsXsXsXsXsXsXsXsXsX",
"sXsXsXsXsXsXsXsXsXsXsXsXsXsXsXsXsXsXsXsXsXsXsXsXsXsXsXsXsXsXsXsXsXsXsXsXsXsXsXsXsXsXsXsXsXsXsXsXsXsXsXsXsXsXsXsXsXsXsXsXsXsXsXsX",
"sXsXsXsXsXsXsXsXsXsXsXsXsXsXsXsXsXsXsXsXsXsXsXsXsXsXsXsXsXsXsXsXsXsXsXsXsXsXsXsXsXsXsXsXsXsXsXsXsXsXsXsXsXsXsXsXsXsXsXsXsXsXsXsX",
"sXsXsXsXsXsXsXsXsXsXsXsXsXsXsXsXsXsXsXsXsXsXsXsXsXsXsXsXsXsXsXsXsXsXsXsXsXsXsXsXsXsXsXsXsXsXsXsXsXsXsXsXsXsXsXsXsXsXsXsXsXsXsXsX",
"sXsXsXsXsXsXsXsXsXsXsXsXsXsXsXsXsXsXsXsXsXsXsXsXsXpXsXsXsXsXsXsXsXsXsXsXsXsXsXsXsXsXsXsXsXsXsXsXsXsXsXsXsXsXsXsXsXsXsXsXsXsXsXsX",
"sXsXsXsXsXsXsXsXsXsXsXsXsXsXsXsXsXsXsXsXsXsXsXsXN.A.sXsXsXsXsXsXsXsXsXsXsXsXsXsXsXsXsXsXsXsXsXsXsXsXsXsXsXsXsXsXsXsXsXsXsXsXsXsX",
"sXsXsXsXsXsXsXsXsXsXsXsXsXsXsXsXsXsXsXsXsXsXsX..o % f aXsXsXsXsXsXsXsXsXsXsXsXsXsXsXsXsXsXsXsXsXsXsXsXsXsXsXsXsXsXsXsXsXsXsXsXsX",
"sXsXsXsXsXsXsXsXsXsXsXsXsXsXsXsXsXsXsXsXsXsXsX  e T 6 o.aXsXsXsXsXsXsXsXsXsXsXsXsXsXsXsXsXsXsXsXsXsXsXsXsXsXsXsXsXsXsXsXsXsXsXsX",
"sXsXsXsXsXsXsXsXsXsXsXsXsXsXsXsXsXsXsXsXsXsXsX..= ( J   6.sXsXsXsXsXsXsXsXsXsXsXsXsXsXsXsXsXsXsXsXsXsXsXsXsXsXsXsXsXsXsXsXsXsXsX",
"sXsXsXsXsXsXsXsXsXsXsXsXsXsXsXsXsXsXsXsXsXsXsXaX< R.^ e + S.pXsXsXsXsXsXsXsXsXsXsXsXsXsXsXsXsXsXsXsXsXsXsXsXsXsXsXsXsXsXsXsXsXsX",
"sXsXsXsXsXsXsXsXsXsXsXsXsXsXsXsXsXsXsXsXsXsXsXaX@ O..X_ > = $XsXsXsXsXsXsXsXsXsXsXsXsXsXsXsXsXsXsXsXsXsXsXsXsXsXsXsXsXsXsXsXsXsX",
"sXsXsXsXsXsXsXsXsXsXsXsXsXsXsXsXsXsXsXsXsXsXsXaX .- ;XI.^ ; % 9XpXsXsXsXsXsXsXsXsXsXsXsXsXsXsXsXsXsXsXsXsXsXsXsXsXsXsXsXsXsXsXsX",
"sXsXsXsXsXsXsXsXsXsXsXsXsXsXsX5X@ 8 sXsXsXsXsXsX X% pX;Xa.' 8 8 eXsXsXsXsXsXsXsXsXsXsXsXsXsXsXsXsXsXsXsXsXsXsXsXsXsXsXsXsXsXsXsX",
"sXsXsXsXsXsXsXsXsXsXsXsXsXsXsXo 8 ; d sXsXsXsXsXiX& $XaX+X8.T - @ pXsXsXsXsXsXsXsXsXsXsXsXsXsXsXsXsXsXsXsXsXsXsXsXsXsXsXsXsXsXsX",
"sXsXsXsXsXsXsXsXsXsXsXsXsXsXsX  =.U * pXsXsXsXsXsX- '.OX7X;X[ v 8 | sXsXsXsXsXpXsXsXsXsXsXsXsXsXsXsXsXsXsXsXsXsXsXsXsXsXsXsXsXsX",
"sXsXsXsXsXsXsXsXsXsXsXsXsXsX8X% F.[ & >XsXsXsXsXsX9 @.sX;X6X;X] r * &.sXpXpX$.< 9 '.sXsXsXsXsXsXsXsXsXsXsXsXsXsXsXsXsXsXsXsXsXsX",
"sXsXsXsXsXsXsXsXsXsXsXsXsXpXo . .X_ $ p.sXsXsXsXsXy a sXsXrX3X*X` e % u qX< 8 k 9 p sXsXsXsXsXsXsXsXsXsXsXsXsXsXsXsXsXsXsXsXsXsX",
"sXsXsXsXsXsXsXsXsXsXsXsXsX@ 9 eX+X=.; = sXsXsXsXsX  O.sXsXsX7XoXJ.] ; = + 8 Q.v.0 } sXsXsXsXsXsXsXsXsXsXsXsXsXsXsXsXsXsXsXsXsXsX",
"sXsXsXsXsXsXsXsXsXsXsXsX# 6 eXsX=Xp.U - pXsXsXsXU.$ ,XsXsXsXaX7XoXd._ k j }.W.l.- '.sXsXsXsXsXsXsXsXsXsXsXsXsXsXsXsXsXsXsXsXsXsX",
"sXsXsXsXsXsXsXsXsXsXsXN.6 >XaXsX1X'.;.& 9XsXsXpXo o.sXaXsXsXsXuX6X<Xr.R 8.!.b.:.& y a X.A.8XpXaXsXsXsXsXsXsXsXsXsXsXsXsXsXsXsXsX",
"sXsXsXsXsXsXsXsXsXsXsX< @.1XsXsXuX=X_ ; 7.sXsX{ = 7X+XsXsXsXsXsXrX+X;X_ V ) ;.q.Y - 1 9 9 & 9 } $XsXsXsXsXsXsXsXsXsXsXsXsXsXsXsX",
"sXsXsXsXsXsXsXsXsXsXsX& -X4XsXsXsX+X( , = sX_.= #XsXsXyX1XsXsXsXsX4X+X=X~ 0 ~ ` [ j.].e.e.=.e &   = _.sXpXsXsXsXsXsXsXsXsXsXsXsX",
"sXsXsXsXsXsXsXsXsXsXiX6 eXsX+XsXsX+X;.` * pX. o.sXsXsXsXaXrXoXsXsXsX|.+XF.L 9.[ ` 1.`.>X{.j.[ e.-.$ 6 f pXsXsXsXsXsXsXsXsXsXsXsX",
"sXsXsXsXsXsXsXsXsXsXpX% iXsXuXpXsX+XJ.0.& #X@ C.pXsXsXaXsXsXsXoXaXsXsXOX_.E h ] G.sXpX+XsXsXqX` _ q.U % < eXsXsXsXsXsXsXsXsXsXsX",
"sXsXsXsXsXsXsXsXsXsXwX= qXsXsXOXsX7X*X( & o.#.* = i `.sXsXsXsXsXyXpXsX|.*X( : e.uXsXsXV.uXsXsXS.[ ` 1.w.7 8 eXsXsXsXsXsXsXsXsXsX",
"sXsXsXsXsXsXsXsXsX*X% 7 pXsXsXpX7XaX1X) H % sXs * r.' [ ;.{.sXsXsXtXuX+XoX] J s.aXsXaXsXsXsXsX'.0.' ` ` e.- * 9XsXsXsXaXsXsXsXsX",
"sXsXsXsXsXsXsXsXeX6 p pXsXsXsXsXuXpX2X8.0.= +.& *.] _ Q ~ ` S r.,XaX7XOX|.( E -.rXaXeXsXsXpXsX1.` 1.` ` 0.r.q - C.sXsXsXsXsXsXsX",
"sXsXsXsXsXsXsXsX# y uXsXsXsXsXsXsX7X1XD.~ e - h ` ` ( ] _ _ ' ~ ~ ) &X1XOX;.Q h ;.,XwXuXwX7Xw.[ ` ` ` K.[.E.E.O.  ,XsXpXsXsXsXsX",
"sXsXsXsXsXsXsXyX- @XsXsXsXpXsXsXsXsXXX X( 0.I ~ [ ` [ ~ ( ( A ( R ~ ~ _ I.] _ ! ` _ 0.w.' ] ` 1._ ` K.[.F.P.P.E.1 i sXsXsXsXsXsX",
"aXsXsXsXsXsXsX{ - sX+XuXaXuXaXsXsXsX+XXXQ _ ^ _ _ _ _ ` ( ( ! ( ~ ~ ~ ~ _ ( ] ` ` [ ` [ [ t.q.' ` [ E.R.X X C.P.H.= iXsXpXsXsXsX",
"sXsXsXsXsXsXsX8 O.sXsXaX4XaXsXsXpXsX=XXX^ ~ ( ~ ~ ^ ^ _ E Z _ _ A ~ ~ _ ` ` [ ` ` ` ` 1.^.v.3.` ` 1.].].X X X P.E.* 9XaXsXsXaXsX",
"sXsXsXsXU.. $ 7 eXsXsXsXsXpX+XoX7X7X3Xp._ ^ R _ _ _ ^ _ ! E _ _ Z E ~ ^ ` ` [ [ ` ` q.W.l./ ] [ ` [ T.E.E.X X P.T.. 2XsXaXsXsXsX",
"sXsXsXsXo q h eXsXsXpXsXsXsXsXsX0XOX X] ^ ^ E _ ^ ^ ` ~ Q ~ Z K L ` ^ _ _ ` ` ` [ ` !.k.` ` ` ` ` ` L.E.E.Z.X P.T.8 eXsXsXsXpXaX",
"sXsXsXsXo q C S ^ ;.r.s.j.J.J.a.w.( ~ ' ^ _ R ^ _ ^ _ R ~ E L ~ E ^ ^ ^ ` ` ` 1.` q.!.<.] ` ` ` _ ~ j.P.E.E.O P.@.* sXaXuXsXsXsX",
"sXsXsXsX_.8 - r M N n C E ~ Q R [ ~ ~ ~ _ ~ S ~ ^ ^ ~ W ~ C _ _ _ ~ ^ _ ` ` ` ` ] g.v./ [ ` ` ` ~ S ( K.E.E.T.P.& f sXsXsXpXaXsX",
"sXsXsXaXsX%X@ 8 - 9 : > z V N K m C Q Q Q _ E ` ^ _ ~ ~ ( ~ E W _ ` ^ ^ ^ ^ 1.1.] c.v./ ( ` ` Q R P n w.K.E.E.E.* -XsXaXsXsXsXsX",
"sXsXsXsXsXaXsXpX_...u * = 9 0 - > w c N Q ~ ~ ~ ` ^ ^ ^ ^ ` E _ _ ~ _ _ ^ _ _ _ _ h.v.,.^ ^ W ~ E m S Q G.K.T.Z.= iXsXsXaXsXsXsX",
"sXsXsXsXsXsXsXsXpXsXsXsXaX$X6.s = 8 - & Z E ~ ~ ^ W ~ ^ ~ ^ R ( _ E ~ ^ ` _ ~ _ _ h.v./ ^ S S Z S E E V N K.P.8 i sXsXuXsXsXaXsX",
"sXsXsXsXsXsXsXsXsXsXsXaXsXsXsXpXsXpX$X= r C L L W ~ ^ ^ ~ R _ _ _ E _ _ ` _ ^ ^ _ g.v.F Q P n E E A m N N 3 e - >XaXsXsXsXsXsXsX",
"pXsXsXsXsXsXsXsXsXsXsXsXsXsXsXsXsXsXsX#.= M m m S Q G E ( ( S ^ ( Q ` ^ ~ _ ^ ~ R t.x.F K ~ m E P b n N 3 m - Y.aXaXsXsXpXsXsXaX",
"sXsXsXsXsXsXsXsXsXsXsXsXsXsXsXsXsXsXsXpXy 1 v N L A G E E S E C m K S A A P A A N g.k.E E E E L S n n 3 n q - aXsXpXpXsXsXsXsXsX",
"sXsXsXsXsXsXpXsXpXsXsXsXsXsXsXsXpX4X4X1X1Xy - M 4 C E Q Q R K R R S n Q E E P S R b.4.P Q K N x N m 4 n ; - 9XpXsXsXsXsXsXsXsXsX",
"sXsXsXsXsXsXsXsXsXsXsXsXsXyX+X4X4X4X4X4X;X=Xo - z B B Q.b.h.t.` ` ~ P K E E Q P E !.<.B N n m b l l N 7   #XsXsXsXsXsXsXsXsXsXsX",
"sXsXsXsXsXaXsXsXsXsXsX4X4X;X4X4X4X<X4X=X5X4X=X. = g )././.(./.(.~.(.(.u.P K A n S z.n b A m l 4 n w 9 * $X3X+X7XsXaXsXsXsXsXsXsX",
"sXsXsXsXsXsXsXsXsXsX4X4X4X4X4X4X4X4X6X4X4X4X3X%.8 ).(.(.).(.(.~./.~./.~.D m n n W.k.M n x x m 2 & 8 f :X4X4X4X4X4XpXsXsXsXsXsXsX",
"sXsXsXsXsXsXsXsXsX4X4X4X;X4X4X4X4X4X4X4X4X3X .6 5.).).!.!.!.!.!.!.!.!.!.m.2 c c n.D m n z l.a 6 i @X4X;X4X4X4X4X6X7XsXsXsXsXsXsX",
"sXsXsXsXsXsXsXsXsX4X4X4X4X4X4X4X4X4X4X4XU.o * g }.~.M.m.!.~.~.~.m.~.~.!.W.u.e W.k.; & = i.m.% D.4X4X4X4X4X4X4X4X5X7XsXsXsXsXsXsX",
"sXsXsXsXsXsXsXsXsXsX1X4X4X4X4X4X4X4X4X5X= u ' !.x.k.l.!.!.!.~.k././.!.!.~.W.y.z.5 % d = l.>.= 4X4X4X4X4X4X4X4X4X4XsXsXsXsXsXsXsX",
"sXsXsXsXsXsXsXsXsXsXsX6X4X4X4X4X4X4X4X4X8 I 9.3.t 7 * }.W.!.l./.pX(.^.x.aXf.n.D 9 Y. .= k.y d ;X4X4X4X4X4X4X3XuXsXsXsXsXsXsXsXsX",
"sXsXsXsXsXsXsXsXsXsXsXsXsXsX4X4X4X4X4X4X{ 6 8 9 8 u   Q./.l.0 = %.pX(.m.B.v.>.7 O.:Xd p z.6 7.6X;X4X;X4X7XsXsXsXsXsXsXsXsXsXsXsX",
"sXsXsXsXsXsXsXsXsXsXsXsXsXsXsXsXpXyX4X4X:X3X X_.4X4X# i c.6 - | * f qX!.l.j 8 | ;X4Xd p x.% D.4X7X7XsXsXsXsXsXsXsXsXsXsXsXsXsXsX",
"sXsXsXsXsXsXsXsXsXsXsXsXsXsXsXsXsXsXsXsXsXsXaXaX7XwX X8   = 6.+ & p v.2.6 6 C.6X4XwXX.& z.y Y.sXsXsXsXsXsXsXsXsXsXsXsXsXsXsXsXsX",
"sXsXsXsXsXsXsXsXsXsXsXsXsXsXsXsXsXsXsXsXsXsXsXsXsXsXsX8X#X#.*   i.2.6 9 y 8XsXsXsXsX.X  l.0 f sXsXsXsXsXsXsXsXsXsXsXsXsXsXsXsXsX",
"sXsXsXsXsXsXsXsXsXsXsXsXsXsXsXsXsXsXsXsXsXsXsXsXsXsXsXsXpX{ 7 $ - % 8 #XpXsXaXsXsXsXsX< % t & sXsXsXsXsXsXsXsXsXsXsXsXsXsXsXsXsX",
"sXsXsXsXsXsXsXsXsXsXsXsXsXsXsXsXsXsXsXsXsXsXsXsXsXsXsXsXsXoX% = f >XsXaXsXsXsXsXsXsXsXyX* = +.sXsXpXsXsXsXsXsXsXsXsXsXsXsXsXsXsX",
"sXsXsXsXsXsXsXsXsXsXsXsXsXsXsXsXsXsXsXsXsXsXsXsXsXsXsXsXsXsXsXsXsXsXsXsXsXsXsXsXsXsXsXsXpX*XsXsXsXsXsXsXsXsXsXsXsXsXsXsXsXsXsXsX",
"sXsXsXsXsXsXsXsXsXsXsXsXsXsXsXsXsXsXsXsXsXsXsXsXsXsXsXsXsXsXsXsXsXsXsXsXsXsXsXsXsXsXsXsXsXsXsXsXsXsXsXsXsXsXsXsXsXsXsXsXsXsXsXsX",
"sXsXsXsXsXsXsXsXsXsXsXsXsXsXsXsXsXsXsXsXsXsXsXsXsXsXsXsXsXsXsXsXsXsXsXsXsXsXsXsXsXsXsXsXsXsXsXsXsXsXsXsXsXsXsXsXsXsXsXsXsXsXsXsX",
"sXsXsXsXsXsXsXsXsXsXsXsXsXsXsXsXsXsXsXsXsXsXsXsXsXsXsXsXsXsXsXsXsXsXsXsXsXsXsXsXsXsXsXsXsXsXsXsXsXsXsXsXsXsXsXsXsXsXsXsXsXsXsXsX",
"sXsXsXsXsXsXsXsXsXsXsXsXsXsXsXsXsXsXsXsXsXsXsXsXsXsXsXsXsXsXsXsXsXsXsXsXsXsXsXsXsXsXsXsXsXsXsXsXsXsXsXsXsXsXsXsXsXsXsXsXsXsXsXsX"
};
