/* XPM */
static char *out[] = {
/* columns rows colors chars-per-pixel */
"64 64 200 2 ",
"   c #0C2D4C",
".  c #043156",
"X  c #01335C",
"o  c #0A375E",
"O  c #103152",
"+  c #163857",
"@  c #273C55",
"#  c #003662",
"$  c #013965",
"%  c #0A3865",
"&  c #003C6A",
"*  c #003E71",
"=  c #3F4F5D",
"-  c #00406F",
";  c #0D426A",
":  c #014274",
">  c #0C4977",
",  c #00457A",
"<  c #01497E",
"1  c #104976",
"2  c #214561",
"3  c #35506A",
"4  c gray28",
"5  c #4F5D6E",
"6  c #455870",
"7  c #566678",
"8  c #6E676A",
"9  c #766665",
"0  c #786664",
"q  c #766866",
"w  c #7A6967",
"e  c #766768",
"r  c #796668",
"t  c #756A69",
"y  c #7A6C6B",
"u  c #7E716F",
"i  c #6A6D77",
"p  c #67707F",
"a  c #777374",
"s  c #806F6E",
"d  c #837574",
"f  c #817578",
"g  c #83787B",
"h  c #897D7D",
"j  c #004B84",
"k  c #0A4E83",
"l  c #004E8A",
"z  c #0C5287",
"x  c #02538E",
"c  c #005693",
"v  c #045894",
"b  c #0B5C95",
"n  c #00579A",
"m  c #00599C",
"M  c #0E5E99",
"N  c #255B87",
"B  c #0E609B",
"V  c #11619C",
"C  c #005DA3",
"Z  c #005FA9",
"A  c #0161A6",
"S  c #0C64A6",
"D  c #0162AC",
"F  c #0B67AC",
"G  c #0E69AB",
"H  c #1465A7",
"J  c #0166B3",
"K  c #016AB6",
"L  c #0F6FB5",
"P  c #006CBC",
"I  c #0C6EB9",
"U  c #116DB2",
"Y  c #0871BD",
"T  c #1673B7",
"R  c #3175A4",
"E  c #737986",
"W  c #006EC1",
"Q  c #0271C4",
"!  c #0B76C4",
"~  c #0075CC",
"^  c #0779C9",
"/  c #0C7ACC",
"(  c #147CC7",
")  c #0077D2",
"_  c #017BD4",
"`  c #017EDA",
"'  c #827C84",
"]  c #4B87B0",
"[  c #7F98AD",
"{  c #7098B8",
"}  c #7EA1BD",
"|  c #0D81D6",
" . c #0381DB",
".. c #0F84DB",
"X. c #1285D9",
"o. c #2D8DCF",
"O. c #328ECB",
"+. c #0285E3",
"@. c #078AE7",
"#. c #0187EA",
"$. c #0189EE",
"%. c #0B8EEC",
"&. c #118DE5",
"*. c #1993E6",
"=. c #018DF2",
"-. c #098FF0",
";. c #0593F5",
":. c #0C93F4",
">. c #0394FC",
",. c #0C96FB",
"<. c #0B99FB",
"1. c #1898F5",
"2. c #149BFD",
"3. c #199CFD",
"4. c #2A9BEA",
"5. c #1EA0FC",
"6. c #21A1FD",
"7. c #2CA5FA",
"8. c #36A9FC",
"9. c #3DACFB",
"0. c #48ACF4",
"q. c #46AFFD",
"w. c #43B1FE",
"e. c #4AB3FE",
"r. c #56B7FD",
"t. c #77B8E3",
"y. c #66BEFE",
"u. c #6CC3FD",
"i. c #76C6FF",
"p. c #7CC8FD",
"a. c #8D8181",
"s. c #89878D",
"d. c #928585",
"f. c #948B8B",
"g. c #9A8E8E",
"h. c #8D8F98",
"j. c #9E9393",
"k. c #999799",
"l. c #A09595",
"z. c #A49997",
"x. c #A49B9B",
"c. c #A99E9E",
"v. c #A9A09F",
"b. c #ACA5A3",
"n. c #AEACAE",
"m. c #B5ABAB",
"M. c #B4ACAB",
"N. c #B8B0AE",
"B. c #B5AEB0",
"V. c #BDB5B4",
"C. c #B8B6B8",
"Z. c #C4BCBC",
"A. c #95BCCF",
"S. c #97BCD5",
"D. c #9AC1D9",
"F. c #8CCBF1",
"G. c #8ED1FD",
"H. c #95D2FD",
"J. c #BDDCEC",
"K. c #A6DBFE",
"L. c #B3DFFA",
"P. c #BAE5FC",
"I. c #C7C1C1",
"U. c #CBC5C4",
"Y. c #CDCACA",
"T. c #D2CDCD",
"R. c #D5D1CF",
"E. c #CFCED5",
"W. c #D7D3D3",
"Q. c #DAD6D5",
"!. c #DEDCDB",
"~. c #E1DDDC",
"^. c #E2E1DF",
"/. c #C6DEEE",
"(. c #D8DFE6",
"). c #DBE2E8",
"_. c #C4E5F7",
"`. c #CCEBFF",
"'. c #D2EFFC",
"]. c #CEF0FF",
"[. c #D5F4FD",
"{. c #DEF9FE",
"}. c #E5E4E4",
"|. c #ECE6E5",
" X c #EAE7E8",
".X c #EBEBEC",
"XX c #F1EEEF",
"oX c #F2F0EF",
"OX c #E4EEF2",
"+X c #F4EEF2",
"@X c #EFF0F1",
"#X c #E3F4FF",
"$X c #E4FEFF",
"%X c #EAFEFF",
"&X c #F5F5F5",
"*X c #F7F9F5",
"=X c #FDFAF6",
"-X c #FAF7F8",
";X c #F3FDFE",
":X c #FEFEFE",
/* pixels */
":X:X-X-X:X:X:X:X:X:X:X:X:X:X:X-X:X:X:X:X:X:X:X:X-X*X:X:X:X:X:X:X:X:X:X-X:X:X:X:X:X:X:X:X:X:X-X:X:X:X:X:X:X:X:X:X:X-X-X:X:X:X:X:X",
":X-X:X:X:X:X:X:X:X:X:X:X:X:X:X:X:X:X:X:X:X:X:X:X:X:X:X:X:X:X:X:X:X:X:X:X:X:X:X:X:X:X:X:X:X:X:X:X:X:X:X:X:X:X:X:X:X:X:X:X:X:X:X:X",
"-X:X:X:X:X:X:X:X:X:X:X:X:X:X:X:X:X:X:X:X:X:X-X:X:X:X:X:X:X:X:X:X:X:X:X:X:X:X:X:X:X:X:X:X&X:X:X:X:X:X:X:X:X:X:X:X-X:X:X:X:X:X:X:X",
":X:X:X:X:X:X:X:X:X:X:X:X:X:X:X:X:X:X:X:X:X:X-X:X:X:X:X:X:X:X:X:X:X:X:X:X:X:X:X:X:X:X:X:X:X:X:X:X:X:X:X:X:X:X:X:X:X:X:X:X:X:X:X:X",
":X:X:X:X:X:X:X:X:X:X*X:X:X:X:X:X:X:X:X:X:X:X:X:X:X:X:X:X:X:X:X:X:X:X:X:X:X:X:X:X:X:X:X:X:X:X:X:X:X:X:X:X:X:X:X:X:X:X:X:X:X:X:X:X",
":X:X:X:X:X:X:X:X-X:X:Xt.=.D :X:X:X:X:X:X:X'.7.2.;..X:X:X:X:X*X:X:X:X:X:X:X:X:X:Xt.-X:X:X:X:X:X:X:X:X:X:X=X:X:X:X:X:X:X:X:X:X:X:X",
":X:X:X:X:X:X:X:X&X:X:XK.e.D : :X:X:X:X:X=.`.y.=.~ Q } -X:X-X:X:X:X:X:X:X:X:X%Xe.r.=.v &X:X:X:X:X:X:X:X:X*X:X:X:X:X:X:X:X:X:X:X:X",
":X:X:X:X:X:X:X-X-X:XO.r.5.Z & :X:X-X:X:X,.P.) D C Z J k.:X&X:X:X:X:X:X:X:X:X$.[.7.W j f.:X:X:X:X:XX.2.1.6.6.5.5.3.,.F.:X:X:X:X:X",
":X:X:X:X:X:X-X:X:X:X:X>._ j X :X-X-X:X:X>.*.P m n n C c V.:X:X:X:X:X:X:X:X:X-.r.#.n & y  X:X:X=.3.L.`.y.7.&.` `  .+.=.,.E.:X:X:X",
":X:X:X:X:X&X:X:X:X:X:X_.x $ :X-X:X:X:X:X:X@.P m n n c c p XX:X:X:X:X:X:X:X:X..=.K , # w |.:X;.w.0.&./ W D Z Z Z D K W / ,.n.:X:X",
":X:X:X:X:X:X:X:X:X:X:X:X:X:X:X-X:X:X:X:X:XO.~ C n n V n & B.:X:X:X:X;X$.` ] *Xc & X i d.:X3.1.%.Q P C C n n n n c m C Z Q ` U.:X",
":X:X:X-X:X:X:X:X:X:X:X:X:X*X:X:X:X:X:X:X:X:X| P C H n n : h *X:X:X:X,._.-.~ s.&Xz.h l.oX%.) K I C n n c n n c c n v V m Z P h :X",
":X:X:X:X:X:X:X:X:X:X:X:X-X:X:X:X:X:X:X:X:X:X:XQ P C n n j 6 Q.:X:X:X9.4.S C 1 Z.:X-X:X[.Y C m m n n c c c n c c M v c c m D y .X",
":X:X:X:X:X:X:X:X:X:X:X-X:X:X:X:X:X:X:X:X:X:X:X:XQ C n n x . V.:X:X%X..J n : p N.:X:X:XQ C C n c c c c c c n c x M n c n n Z w }.",
":X:X:X:X:X:X:X:X:X:X:X:X:X:X:X:X:X:X:XF.:.P .X:X:XD n c c # b.:X:X&XW m j # w !.:X:X$XA m m n n c n c c c c M M c n c c m c y  X",
":X:X:X:X:X:X:X:X:X:X:X:X:X:X:X:X:X:X:Xq.0.F * ~.:XD n n c x & &X=X:XW n & 5 j.:X:X:XK m m c c l j j j l x c M c x c c c n < d &X",
":X:X:X:X:X:X:X:X:X:X:X:X:X:X:X=.P (.:XM &.A j N K A v c c c c B P K n c & 9 ~.:X:XH Z n l : & & $ & * * , , j j j x j < : 2 l.:X",
":X:X:X:X:X:X:X:X:X:X:X:X:X:X6.i.K c v.&X) m c c B c c c c c c c c c c c l c Z G U S x * X X . . X X X X X $ & & & & - $ $ r W.:X",
":X:X:X:X:X:X:X-X:X:X:X:X:X:X9.9.P n A U.$.c c c v c x c B B c c c c c c c n m G m x j . q a.v.M.b.j.d.6 X X X X X $ $ $ 9 N.:X:X",
":X:X:X:X:X-X*X:X:X:X:X:X:X:X^  ./ S P ~ D c c c c c v b c c c c c c c c c c x x c x * = c.:X:X:X:X:X:X+X XT.b.f.a g d f.Y.:X:X:X",
":X:X:X:X:X:X:X:X:X:X:X:X:X:X=X{ x m v c c c c c c c x B c c c c c c c c c x v c c c , X U.:X:X$X:X:X:X:X:X:X:X:X&X&X&X:X:X:X:X:X",
":X:X:X:X-X:X:X:X:X:X:X:X:X:X:X:X^.3 D c c c c c c B x c c c c v x c c c b b x c c c x l z.:XP.u.L k.:X:X:X:X:X:X:X:X:X-X:X:X:X:X",
":X:X-X:X:X:X:X:X:X:X:X:X:X:XQ $.Q #XP c c c c c x B c c x v c c c c c c V c c c c c n D K ). .L & r ~.:X:X:X:X:X:X*X:X:X:X:X:X:X",
":X:X:X:X:X:X:X:X:X:X:X:X:X'.[.>.P c x c c c c B B c c c c v c c c c c c c c c c x c n A Q ..B + y ' &X:X:X:X:X:X:X*X:X:X:X:X:X:X",
":X-X:X:X:X:X:X:X:X:X:X:X:XU G._ c c c c c c b B c c c x c v c v c c c c c c c c c c c c x B A j /.F ~ #.>.2.u.1.}.:X:X:X:X:X:X:X",
":X:X:X:X:X:X:X:X:X:X-X:X:X;X) K c c c c c c x c c c c c c c c x c c c c c c c x c c c c x c A Y ` _ ~ Q _ ` -.P.8.Z.:X:X:X:X:X:X",
":X:X:X:X:X:X:X:X:X*X-X{.%X:Xm Q c c c c c c c c c c v c c c x B v c c c v c c c c c c c c c x < & $ , c n B D P 2.V ~.:X:X:X:X:X",
":X:X:X( =. .{ -X:X:XH.H.;.K P A c c c c c c c c c c c c v x B B c c c c c c c c c c c c c c j ; t + X $ > : x C J l m.:X:X:X:X:X",
":X:X=.#Xe.=.D : }.! e.,.) J C c c c B c c c c c c v c c c x b x v c x c c c c c c c c c c c Z P ` $.I k.1 $ & : : e V.:X:X:X:X:X",
":X:X+.3.;.P , o d.;Xc j & X $ C c B B c c c c c x c v x b x c c c c v c c c v B v c c c c n c m D Q [.X.}.n.o + r h &X:X:X:X:X:X",
":X:Xz : & # . + d.=X|.s.u h v.N A v c c c c c c v c c b x c v c c c c c c x B x c c c c c c c & X # c C a.:X&X~.}.-X:X:X:X:X:X:X",
":X:X:XI.+ @ w a. X:X:X:X@X-X:X;X^ c c c c c x c c c B b v c c c c c v c c b B x c c c c x c c , s h.X . d &X:X:X:X:X-X:X:X:X:X:X",
":X:X:X:X&X~. X-X:X:X:X:X:X:X:XG  .c c c c c c c x B B c c c c c c c c c B x c v c c c c c c x / ' -X|.x.T.:X:X:X:X:X-X:X:X:X:X:X",
":X:X:X:X:X:X:X:X:X:X:X:X:X&X:X%.-.B c c c c c c v c c c c c c c v c c x B c c c c c c c c c x K.A Z.:X:X:X:X:X:X:X:X:X:X:X:X:X:X",
":X:X:X:X:X:X:X:X:X:X:X:X:X:X:X=.Q c c c c c c c c c x c c c c c x c B B v c c c c c c c c c c A < d.:X:X:X:X:X-X-X:X:X:X:X:X:X:X",
":X:X:X:X:X:X:X:X:X_ +.Z ; :X:Xl < c v x c v c c c c c c c c c c v b B c x c c c c c c c c x , & @ g.:X:X:X:X:X:X:X:X:X:X:X:X:X:X",
":X:X:X:X:X:X:X;X9.H.<.D # :X:X:Xo m c c c x c c v c c c c c c c v v c c v c c c x c c c l # X e f }.:X:X:X:X:X-X:X:X:X:X:X:X:X:X",
":X:X:X:X:X:X:X=.#X1.K : X :X:X:X:XQ B c x b c c c c v x c c c x c x c c c c v c c c V b & . s W.&X:X:X:X:X:X:X:X:X:X:X:X:X:X:X:X",
":X:X:X:X:X:X:X_ @.n & # ;X:X:X:X:XQ n B B c c c c c c v c c c c c c c c c c c c c M M j # e U.:X:X:X:X:X:X:X:X:X:X:X:X:X:X:X:X:X",
":X:X:X:X:X:X:X-XA.. {.:X:X:X:X:XQ D x v v x v c c c c c c B c c c c v c c c v x x M n , X d &X:X:X:X:X:X:X:X:X:X:X:X:X:X:X:X:X-X",
":X:X:X:X:X:X:X=X:X:X:X:X:X:X] ) K v b j x c c n c c c c B B c c c v x v c c c B c c c , X d.:X:X:X:X:X-X2.=.m :X:X:X:X:X:X:X-X:X",
":X:X:X:X:X:X:X:X:X:X:X:X:X_ ` m x < & $ & , x c c c x x x c c c c c c c c x B x x x c j # f.:X:X:X:X&X<.[.$.n [ :X:X:X:X:X-X:X:X",
":X:X:X:X-X:X:X:X:X:X:X:X| ) C x b $ X # $ $ - x c c b M c c c c c c c c x B B c x $ $ j , f &X:X:X-X:X=.9.) , o :X:X:X:X:X:X:X:X",
":X:X:X:X:X:X:X:X:X:X:XT ` D n b j . 9 g.Q.Q.7 : x M x c c c c c c v c c v M c n j X u , x $ B.:X:X:X:XR J j & :X:X:X:X-X:X:X:X:X",
":X:X-X:X:X:X:X:X:X:X:X#.P n n c - . d.-X:X:X:X~.j M n n c n c c c x c c < & $ c D $ f S.m j X ~.:X:X:X:X:X:X:X:X:X-X:X:X:X:X:X:X",
":X:X-X:X:X:X:X:X:X:X+.+.D n c x $ 8 I.:X:X:X:X:X+XW # X & : j j < < c j X X 0 h J , O }.D b >   oX:X:X:X:X:X:X:X:X:X:X:X:X:X:X:X",
":X:X:X:X:X:X:X:X:X:X;.) Z c c l $ t Q.:X:X:X:X:X%Xc e f E . X .   - Y x X y ~.:Xo.Q X b.! M c * g.=X:X:X:X:X:X:X:X:X:X:X:X:X:X:X",
":X:X:X:X:X:X:X:X:X:X,.! C n n l $ w  X:X:X:X:X[.,.X h &X-X|.Q.W.Q.^.F  .$ j.:X:XY l 3 b.Q c n x $ C.:X:X:X:X:X:X:X:X:X:X:X:X:X:X",
":X:X:X:X:X:X:X:X:XT 3.Q D n n j # y @X:X:X:X:Xp.*.X l.:X:X:X:X-X:X:X;X9.& f.:X:X:XV.d (.W n n c l o }.:X:X:X:X:X:X:X:X:X:X:X:X:X",
":X:X:X:X:X:X:X:X:X/ 7.~ A c c x $ d &X:X:X:X:XZ & 0 M.:X:X:X:X:X:X:X;Xi.j u XX:X:X:X-X%XW c c c n & f.-X:X:X:X:X:X:X:X:X:X:X:X:X",
":X:X:X:X:X:X:X-X:X~ e.~ A n n j $ d &X=X:X:X:X-Xj.g.&X:X:X-X:X:X:X:XA.`.C + T.:X:X:X:X{.~ n n c c j X T.:X:X:X:X:X:X:X:X:X:X:X:X",
":X:X:X:X:X:X:X-X:X` p. .D n c x $ d.-X:X:X:X:X:X:X:X:X:X:X:X:X:X:X:XJ.q.j + V.:X:X:X:X'.` C c c c c ; f.:X:X:X:X:X:X:X:X:X&X:X:X",
":X:X:X:X:X-X-X:X:X) K.#.P n n j o g.:X:X:X:X:X:X:X:X:X:X&X:X:X:X:X:X:XJ & 0 I.-X:X:X:X[.` Z c c c M & i  X:X:X:X:X:X:X-X:X-X:X:X",
":X:X:X:X-X:X:X:X:XQ -X@.P C n z % g.:X:X:X:X:X:X:X:XD.:X:X:X:X:X:X:X:X-XM.M.=X:X:X:X:X;X#.Z c n C V * % Z.:X:X:X:X:X:X:X-X:X:X:X",
":X:X:X:X:X:X:X:X:XS :X7.P C V k . c.:X:X:X:X:X:X:X7.^ + :X:X:X:X:X:X:X:X:X-X:X:X:X:X:X:X$.P c c b c * X l.:X:X:X:X:X-X:X:X:X:X:X",
":X:X:X:X:X:X:X:X:X;Xe.0.W C G & 7 V.:X:X:X:X:X:X:XH.~ & :X:X:X:X:X:X:X&X:X:X:X:X:X:X:X:X=.) v c c c * % d.:X:X:X:X-X:X:X:X:X:X:X",
":X:X:X:X:X:X:X:X:X:X_ 3.@.Z Z # q Q.:X:X:X:X:X:X:X$., $ :X:X:X:X:X:X:X:X:X:X:X:X:X:X:X:X .p.Z c c c & # h -X:X:X&X:X:X:X:X:X:X:X",
":X:X:X:X:X:X:X:X:X:X*X~ ~ D n # y &X:X:X:X:X:X:X:X< $ :X:X:X:X:X:X:X:X:X:X:X:X:X:X:X:X:XT ].@.C c c $ & a.:X:X:X:X:X:X:X:X:X:X:X",
":X:X:X:X:X:X:X:X:X:X:X@X: - $ 0 c.:X:X:X:X:X:X:X:X:X:X:X:X:X:X:X:X:X:X:X:X:X:X:X:X:X:X:X:X+.9.P n * $ t M.:X:X:X:X:X:X:X:X:X:X:X",
":X:X:X:X:X:X:X:X:X:X:X:X*XU.b.Z.*X:X:X:X&X:X:X:X:X:X:X:X:X:X:X:X:X:X:X:X:X:X:X:X:X:X&X:X:XOXD l & # t f.-X:X:X:X:X:X:X:X:X:X:X:X",
":X:X:X:X:X:X:X:X:X-X:X:X:X:X:X:X:X:X:X:X-X:X:X:X:X:X:X:X:X-X:X:X:X:X:X:X:X:X:X:X-X:X:X:X:X:X Xb.l.z.R.&X:X:X:X:X:X:X:X:X:X:X:X-X",
":X:X:X:X:X:X:X:X-X:X:X:X:X:X:X:X:X:X-X:X:X:X:X:X:X:X:X:X:X:X-X:X:X:X:X:X:X:X:X:X:X:X:X:X:X:X:X:X:X:X:X:X:X:X:X:X:X:X:X:X:X:X*X:X",
":X:X:X:X:X:X:X-X:X:X:X:X:X:X:X:X:X:X:X:X:X:X:X:X:X:X:X:X:X:X:X:X:X:X:X:X:X:X:X:X:X:X:X:X:X:X:X:X:X:X:X:X:X:X:X:X:X:X:X:X:X:X:X:X",
":X:X:X:X:X:X-X:X:X:X:X:X:X:X:X:X:X&X:X:X:X:X:X:X:X:X:X-X:X:X:X:X:X:X:X:X:X:X:X&X:X:X:X:X:X:X:X:X:X&X-X:X:X:X:X:X:X:X:X:X:X-X:X:X"
};
