/* XPM */
static char *out[] = {
/* columns rows colors chars-per-pixel */
"64 64 167 2 ",
"   c #B42022",
".  c #C50101",
"X  c #CC0101",
"o  c #C70709",
"O  c #CC020A",
"+  c #CA090D",
"@  c #D40101",
"#  c #DC0101",
"$  c #DC0802",
"%  c #D20308",
"&  c #DD000B",
"*  c #D20C0B",
"=  c #C60916",
"-  c #DD0D14",
";  c #C71211",
":  c #CC1315",
">  c #CB191B",
",  c #D31216",
"<  c #D3151B",
"1  c #DE161E",
"2  c #E40101",
"3  c #EB0101",
"4  c #EC0803",
"5  c #E4030B",
"6  c #E40B0B",
"7  c #E9090A",
"8  c #F40100",
"9  c #F80000",
"0  c #F40B02",
"q  c #FB0A07",
"w  c #F1040A",
"e  c #FB050B",
"r  c #F30A0C",
"t  c #FC090C",
"y  c #E81507",
"u  c #F70F11",
"i  c #F90D10",
"p  c #F61314",
"a  c #FA1114",
"s  c #F61A17",
"d  c #F81118",
"f  c #F21D1B",
"g  c #FD1A19",
"h  c #D71C21",
"j  c #D41B28",
"k  c #E41B24",
"l  c #EE1D21",
"z  c #C82A2C",
"x  c #DC2125",
"c  c #D3212B",
"v  c #CE3636",
"b  c #C8393A",
"n  c #F22122",
"m  c #FD2122",
"M  c #F5292B",
"N  c #FB2C2C",
"B  c #FC3024",
"V  c #E52F36",
"C  c #EB2E33",
"Z  c #F42938",
"A  c #EC3434",
"S  c #E8373E",
"D  c #F13236",
"F  c #FD3433",
"G  c #FD3B37",
"H  c #FB3A3D",
"J  c #E2423F",
"K  c #EB4338",
"L  c #D83543",
"P  c #E93C47",
"I  c #D14346",
"U  c #D9414C",
"Y  c #D64B54",
"T  c #DF5457",
"R  c #EF4543",
"E  c #F24547",
"W  c #FC4647",
"Q  c #F2474E",
"!  c #FB4E4A",
"~  c #EC4C53",
"^  c #E4565A",
"/  c #EF5E5E",
"(  c #FB5357",
")  c #F05358",
"_  c #F75D5F",
"`  c #E1605F",
"'  c #E85966",
"]  c #E05C68",
"[  c #FE5E62",
"{  c #DA717C",
"}  c #E16C6F",
"|  c #FE6564",
" . c #F2626D",
".. c #FC676F",
"X. c #FE6B6B",
"o. c #F16E72",
"O. c #FA6D73",
"+. c #E17374",
"@. c #E7767D",
"#. c #EA7778",
"$. c #E57C78",
"%. c #FD7473",
"&. c #FB7E77",
"*. c #FE7C85",
"=. c #DE8885",
"-. c #E78A84",
";. c #EF898E",
":. c #F88381",
">. c #FE8887",
",. c #E99E8A",
"<. c #FF9188",
"1. c #E89898",
"2. c #FC9493",
"3. c #F39890",
"4. c #FD9994",
"5. c #F5969C",
"6. c #F3989B",
"7. c #FC9D9D",
"8. c #F7A49D",
"9. c #FC9FA5",
"0. c #E7A4A2",
"q. c #FBA6A4",
"w. c #FDB1A8",
"e. c #EFBCB6",
"r. c #EBBBB8",
"t. c #F3B2B6",
"y. c #F9B4B3",
"u. c #FABCB6",
"i. c #FAB9B8",
"p. c #F4C2BB",
"a. c #FDC4BC",
"s. c #FEBEC1",
"d. c #EBCCC5",
"f. c #EFCEC8",
"g. c #F3C5C3",
"h. c #FCC0C5",
"j. c #F5CAC6",
"k. c #FACFC2",
"l. c #FACDCB",
"z. c #FDD4CE",
"x. c #F7D9CF",
"c. c #EFD4D4",
"v. c #FBD3D4",
"b. c #F5D8D4",
"n. c #FFD8D6",
"m. c #FEDCDA",
"M. c #F3E2D1",
"N. c #F0E4D9",
"B. c #F9E5DC",
"V. c #FBE4E2",
"C. c #F3E9E6",
"Z. c #FEEBEB",
"A. c #FCF4E6",
"S. c #F3F4EB",
"D. c #F8F3ED",
"F. c #FDEEF2",
"G. c #EBF5F2",
"H. c #E5FEF9",
"J. c #EDFDFD",
"K. c #F7F5F5",
"L. c #FDF5F4",
"P. c #F5FCF3",
"I. c #FCFBF5",
"U. c #F7F7FB",
"Y. c #FCF6FC",
"T. c #F5FCFC",
"R. c #FFFFFF",
/* pixels */
"R.R.R.R.R.R.R.R.R.R.R.R.R.R.R.R.R.R.R.R.R.R.R.R.R.R.R.R.R.R.R.R.R.R.R.R.R.R.R.R.R.R.R.R.R.R.R.R.R.R.R.R.R.R.R.R.R.R.R.R.R.R.R.R.",
"R.R.R.R.R.R.R.R.R.R.R.R.R.R.R.R.R.R.R.R.R.R.R.R.R.R.R.R.R.R.R.R.R.R.R.R.R.R.R.R.R.R.R.R.R.R.R.R.R.R.R.R.R.R.R.R.R.R.R.R.R.R.R.R.",
"R.R.R.R.R.R.R.R.R.R.R.R.R.R.R.R.R.R.R.R.R.R.R.R.R.R.R.R.R.R.R.R.R.R.R.R.R.R.R.R.R.R.R.R.R.R.R.R.R.R.R.R.R.R.R.R.R.R.R.R.R.R.R.R.",
"R.R.R.R.R.R.R.R.R.R.R.R.R.R.R.R.R.R.R.R.R.R.R.R.R.R.R.R.R.R.R.R.R.R.R.R.R.R.R.R.R.R.R.R.R.R.R.R.R.R.R.R.R.R.R.R.R.R.R.R.R.R.R.R.",
"R.R.R.R.R.R.R.R.R.R.R.R.R.R.R.R.R.R.R.R.R.R.R.R.R.R.R.R.R.R.R.R.R.R.R.R.R.R.R.R.R.R.R.R.R.R.R.R.R.R.R.R.R.R.R.R.R.R.R.R.R.R.R.R.",
"R.R.R.R.R.R.R.R.R.R.R.R.R.R.R.R.R.R.R.R.R.R.R.R.R.R.R.R.R.R.R.R.R.R.R.R.R.R.R.R.R.R.R.R.R.R.R.R.R.R.R.R.R.R.R.R.R.R.R.R.R.R.R.R.",
"R.R.R.R.R.R.R.R.R.R.R.R.R.R.R.R.R.R.R.R.R.R.R.R.R.@ 2 5 3 I.R.R.R.R.R.R.R.R.R.T.I.R.R.R.R.R.R.R.R.R.R.R.R.R.R.R.R.R.R.R.R.R.R.R.",
"R.R.R.R.R.R.R.R.R.R.R.R.R.R.R.R.R.R.R.R.R.R.R.R.L.X # 8 8 p.R.R.R.R.R.R.R.R.T.2 8 R.R.R.R.R.R.R.R.R.R.R.R.R.R.R.R.R.R.R.R.R.R.R.",
"R.R.R.R.R.R.R.R.R.R.R.R.R.R.R.R.R.R.R.R.R.R.R.R.Y X # 9 8 w T.R.R.R.R.R.R.R.# 8 9 R.R.R.R.R.R.R.R.R.R.R.R.R.R.R.R.R.R.R.R.R.R.R.",
"R.R.R.R.R.R.R.R.R.R.R.R.R.R.R.R.R.R.R.R.R.R.R.R.g.X @ q A 8 T.R.R.R.R.R.R.0.# K 9 R.R.R.R.R.R.R.R.R.R.R.R.R.R.R.R.R.R.R.R.R.R.R.",
"R.R.R.R.R.R.R.R.R.R.R.R.R.R.R.R.R.R.R.R.R.R.R.R.Y.X X 2 2.8 R.R.R.R.R.R.Y.. 8 W 4 Y.R.R.R.R.R.R.R.R.R.R.R.R.R.R.R.R.R.R.R.R.R.R.",
"R.R.R.R.R.R.R.R.R.R.R.R.R.R.R.R.R.R.R.R.R.R.R.R.R.{ @ @ 8 q b.R.R.R.R.R.x.@ 8 2 p.R.R.T.Y.R.R.R.R.R.R.R.R.R.R.R.R.R.R.R.R.R.R.R.",
"R.R.R.R.R.R.R.R.R.R.R.R.R.R.R.R.R.R.R.R.R.R.R.R.R.T.  X 8 [ M R.R.R.R.R.X 2 3 4 R.R.R.v.T.R.R.R.R.R.R.R.R.R.R.R.R.R.R.R.R.R.R.R.",
"R.R.R.R.R.R.R.R.R.R.R.R.R.R.R.R.R.R.R.R.R.R.R.R.R.R.R., 3 Z.8 R.R.R.R.T.% 8 2 R.R.T.2 3 0 R.R.R.R.R.R.R.R.R.R.R.R.R.R.R.R.R.R.R.",
"R.R.R.R.R.R.Y.T.< M.R.R.R.R.R.L.R.R.R.R.R.R.6.2 Y.R.R.L.7 w.9 T.R.R.R.= 3 3 L.R.R.+.# 8 9 R.R.P.T.I.R.R.R.R.R.R.R.R.R.R.R.R.R.R.",
"R.R.R.R.R.R.T.X 2 3 3 Y.R.R.Y.o.8 T.R.R.R.Y.% # 4 t.R.U.4 d t  .R.R.R.2 9 D Y.R.R.@ 2 N 9 R.Y.A x R.R.R.R.R.R.R.R.R.R.R.R.R.R.R.",
"R.R.R.R.R.R.C.X # 8 8 8 B.R.I.3 8 <.R.R.R.R.X # 3 8 2 2 8 8 %.3 I.Y.2 0 a U.R.R.Y.. 3 V...R.F.2 2  .R.R.R.R.R.R.R.R.R.R.R.R.R.R.",
"R.R.R.R.R.R.L.O X 2 l s.3 Y.R.8 ! *.R.R.R.T.f.# 3 8 8 3 8 9 q.9 3 2 8 z.8 R.R.T.b @ 8 Z.L.J.3 2 3 3 r 2 4 I.R.R.R.R.R.R.R.R.R.R.",
"R.R.R.R.R.R.R.p.O @ % 3 >.5.Y.k.:.u.Y.R.R.R.T.# 3 8 9 8 8 9 s g 9 8 t n.r R.R.U.X # 8 y.Q / 2 3 8 9 8 9 8 8 R.R.R.R.R.R.R.R.R.R.",
"R.R.R.R.R.R.R.T.T.I @ @ 2 3 0 P.p F R.T.X X $ 2 3 8 9 9 9 9 9 9 9 9 z.v.9 R.R.+ @ 2 9 G t 8 8 9 9 X.V.( 8 3 T.R.R.R.R.R.R.R.R.R.",
"R.R.R.R.R.R.R.R.R.R.R.U.-.@ 2 ^ T.4 Z , # # 2 8 8 8 9 9 9 9 9 9 9 9 q.Z.9 I.k # # 3 9 9 9 9 9 9 9 9 8 3 2 i.I.R.R.R.R.R.R.R.R.R.",
"R.R.R.R.R.R.R.R.R.R.R.R.R.Y.* # ' g.2 2 3 8 8 8 8 9 9 9 9 9 8 9 9 9 9 s.H 9 3 3 3 8 9 9 9 9 9 9 9 9 4 2 ;.R.R.R.R.R.R.R.R.R.R.R.",
"R.R.R.R.R.R.R.R.R.R.R.R.R.R.R.R 2 2 2 3 8 8 8 9 9 9 9 8 9 9 9 9 9 9 9 9 9 9 8 8 8 9 9 9 9 9 9 9 q 9 a.T.R.R.R.R.R.R.R.R.R.R.R.R.",
"R.R.R.R.R.R.R.R.R.R.R.R.R.R.R.T.^ X 2 8 9 9 9 9 9 9 9 9 9 9 9 9 9 9 9 9 9 9 9 9 9 9 9 9 9 9 9 9 W 9 T.R.R.R.R.R.R.R.R.R.R.R.R.R.",
"R.R.R.R.R.R.R.R.R.R.R.Y.R.T.Y.T.R.# 2 8 9 9 9 9 8 9 9 9 9 8 9 9 9 9 9 9 9 9 9 8 9 8 9 9 9 9 9 9 t 9 8 R.Y.R.R.R.R.R.R.R.R.R.R.R.",
"R.R.R.R.R.R.R.R.R.R.R.L.# 3 6 $.@ # 3 8 9 9 9 9 9 9 9 9 9 9 9 9 9 9 9 9 9 9 9 9 9 9 9 9 9 9 9 9 9 8 9 8 a T.R.R.R.R.R.R.R.R.R.R.",
"R.R.R.R.R.R.R.R.R.R.R.} @ # # 2 2 3 3 8 8 9 9 9 9 9 9 9 9 9 9 8 9 9 9 9 9 9 9 9 9 9 9 8 9 9 9 9 9 9 3 8 j.R.R.R.R.R.R.R.R.R.R.R.",
"R.R.R.R.R.R.R.R.R.R.R.I.* * @ 2 2 8 8 9 9 9 9 9 9 9 9 8 9 9 9 9 9 9 9 9 8 9 9 9 9 9 9 9 8 9 9 g 9 k.R.R.R.R.R.R.R.R.R.R.R.R.R.R.",
"R.R.R.R.R.R.R.R.R.R.R.R.R.R.S.# 3 8 9 9 9 9 9 9 9 9 9 9 9 9 9 9 9 9 9 9 9 9 9 9 9 9 9 9 9 9 9 4.4.U.Y.R.R.R.R.R.R.R.R.R.R.R.R.R.",
"R.R.R.R.R.R.R.R.R.R.R.R.R.I.2 2 3 9 9 9 9 8 9 8 9 9 8 9 9 9 9 9 9 9 9 9 9 9 9 9 9 9 9 9 9 9 9 4.Z.r <.T.R.R.R.R.R.R.R.R.R.R.R.R.",
"R.R.R.R.R.R.X @ & 3 8 8 2 # @ 2 3 8 9 9 9 9 9 9 8 9 9 9 9 8 9 9 8 9 9 8 9 9 9 8 9 9 9 9 8 8 3 9 a.X.8 8 y Y.R.R.R.R.R.R.R.R.R.R.",
"R.R.R.R.R.C.X 2 9 b.>.9 2 @ # 2 8 8 9 9 9 9 9 9 9 9 9 9 9 9 9 9 9 9 9 9 9 9 9 9 9 9 9 8 8 2 2 3 8 s 9 8 8 8 I.R.R.R.R.R.R.R.R.R.",
"R.R.R.R.R.> X 2 8 3 2 S I.T.@ # 3 8 9 9 9 8 9 9 9 9 9 9 8 9 9 9 9 9 9 9 8 9 9 9 9 9 9 9 8 # # X # 2 9 7.9 8 Y.R.R.R.R.R.R.R.R.R.",
"R.R.R.R.R.c X @ @ r.R.R.R.Y.X @ 3 8 8 9 9 9 9 9 9 9 9 9 9 9 9 9 9 9 9 9 9 9 9 9 9 9 9 9 3 V ,.% O X # 9 8 8 Y.R.R.R.R.R.R.R.R.R.",
"R.R.R.R.R.I.X X e.R.R.R.T.X X X 2 3 8 8 9 9 9 9 9 8 9 8 9 9 9 9 9 9 9 9 9 9 9 9 9 9 m 9 E R.R.R.{ % X 2 3 3 J.R.R.R.R.R.R.R.R.R.",
"R.R.R.R.R.T.R.R.T.T.R.R.R., X X # 3 8 9 9 9 9 9 9 9 9 9 9 9 9 8 9 8 9 9 9 9 9 8 9 9 >.F 8.R.R.R.R.d.. @ # 2 T.R.R.R.R.R.R.R.R.R.",
"R.R.R.R.R.R.R.R.R.R.R.R.R.T.Y.R.$ 3 8 8 9 9 9 9 9 9 9 9 9 9 9 9 9 9 9 9 9 9 8 9 9 9 7.n.8 T.R.R.R.I.] @ & Y.T.R.R.R.R.R.R.R.R.R.",
"R.R.R.R.R.R.R.R.R.R.R.T.R.R.Y.I.2 2 3 8 8 8 9 8 8 8 8 8 9 8 9 9 9 8 9 9 9 9 9 9 9 9 N F.9 8 K.R.R.R.R.T.R.Y.R.R.R.R.R.R.R.R.R.R.",
"R.R.R.R.R.R.R.R.I.T.z.# # # 2 2 2 2 2 3 8 8 9 8 3 2 2 3 8 8 8 9 9 9 9 9 8 9 9 9 9 9 9 7.&.q 8 3 Y.R.T.R.R.R.R.R.R.R.R.R.R.R.R.R.",
"R.R.R.R.R.R.R.R.Y.o @ # 3 8 9 8 2 @ # 2 3 8 8 3 2 # # # 2 8 9 9 9 9 9 9 9 9 9 9 9 9 9 9 | u 9 8 3 f I.R.R.R.R.R.R.R.R.R.R.R.R.R.",
"R.R.R.R.R.R.R.R.B.X @ 3 8 9 8 3 # 1 @ @ 2 8 8 2 @ o h @ # 3 8 9 9 9 9 9 9 9 9 9 8 9 9 9 9 i t 8 8 8 3 3 8 M L.R.R.R.R.R.R.R.R.R.",
"R.R.R.R.R.R.R.R.0.X @ 2 3 3 2 2 D.R.R.. 2 3 2 $ A.R.T.@ @ 2 9 9 8 9 9 9 9 9 9 9 9 9 9 9 8 9 9 q 9 9 8 8 3 3 3 3 R.R.R.R.R.R.R.R.",
"R.R.R.R.R.R.R.R.T.X X @ @ # 2 I.R.R.T.@ 2 3 2 D.R.R.R.X @ 2 8 8 8 9 8 9 8 9 9 9 9 9 9 9 9 8 3 3 8 8 9 9 9 8 9 3 2 R.R.R.R.R.R.R.",
"R.R.R.R.R.R.R.R.R.K.X O , T.R.Y.R.R.N.# 8 8 J R.R.R.T.X @ 2 2 2 3 3 8 9 9 9 9 9 9 9 9 9 9 3 2 $ @ # 3 9 9 9 q 9 8 e R.R.R.R.R.R.",
"R.R.R.R.R.R.R.R.R.R.R.R.R.R.I.T.R.E # 8 8 2 U.R.R.R.Y.X # 2 # # # 2 3 9 9 9 9 9 9 9 9 9 8 r ) L X X @ 3 8 9 a m.9 8 R.R.R.R.R.R.",
"R.R.R.R.R.R.R.R.R.R.R.R.R.x.# # # 2 8 9 3 q.R.R.R.R.1.# 2 @ @ , @ # 2 8 8 9 8 8 9 9 8 8 8 r R.Y.Y.X X @ 3 8 8 v.i 8 R.R.R.R.R.R.",
"R.R.R.R.R.R.R.R.R.R.R.R.U.X @ # 3 9 9 3 2 R.R.R.R.R.@ 3 3 P P.R.T @ 2 8 8 8 8 8 8 9 8 3 3 4 R.R.R.I.X X @ 2 8 9 8 8 Y.R.R.R.R.R.",
"R.R.R.R.R.R.R.R.R.R.R.R.I.X X # 8 3 2 # G.R.R.R.R.- 2 9 C T.R.R.J.@ 2 8 3 3 2 3 8 9 8 $ 3 3 7.R.R.R.' X @ @ 2 2 3 5 R.R.R.R.R.R.",
"R.R.R.R.R.R.R.R.R.R.R.R.R.O X X @ # @ b.R.R.R.T.@.2 8 q R.R.U.R.v # 2 3 2 # # # 8 9 4 Y.R.w q c.T.R.R.o @ X @ # # $ R.R.R.R.R.R.",
"R.R.R.R.R.R.R.R.R.R.R.R.R.J.j X X X K.R.R.R.R.j @ 8 q.Y.Y.I.p.# X @ 3 3 # U.. @ 2 9 3 R.R.C.8 e n Y.R.I.L . X X % Y.R.R.R.R.R.R.",
"R.R.R.R.R.R.R.R.R.R.R.R.R.R.T.R.T.I.R.R.R.R.: @ 3 O.( Y.( 9 8 $ @ @ # 2 U.R.T.X # 3 3 Y.R.R.@ 8 l.B U.R.T.T.R.I.R.R.R.R.R.R.R.R.",
"R.R.R.R.R.R.R.R.R.R.R.R.R.R.R.R.R.R.R.R.Y.=.X # 9 v.h.f 9 8 7 R.R.; X # R.R.T.. X 2 2 R.R.T.. @ 8 9 K.R.R.R.R.R.R.R.R.R.R.R.R.R.",
"R.R.R.R.R.R.R.R.R.R.R.R.R.R.R.R.R.R.R.R.H.. @ 2 m.a 9.l.3 2 U.R.R.I.O # T.R.Y.j.X @ X I.R.T.K.@ 2 3 F.R.R.R.R.R.R.R.R.R.R.R.R.R.",
"R.R.R.R.R.R.R.R.R.R.R.R.R.R.R.R.R.R.R.R.Y.X X 2 _ 8 4 T.T.T.T.R.R.T.3.t.R.R.R.T.b.#.U.R.R.R.R.K.@ 7 R.R.R.R.R.R.R.R.R.R.R.R.R.R.",
"R.R.R.R.R.R.R.R.R.R.R.R.R.R.R.R.R.R.R.R.R.X X 2 8 3 8 R.R.R.R.R.R.R.R.R.R.R.R.R.R.R.R.R.R.R.R.R.R.R.R.R.R.R.R.R.R.R.R.R.R.R.R.R.",
"R.R.R.R.R.R.R.R.R.R.R.R.R.R.R.R.R.R.R.R.I.@ @ @ 2 3 ~ R.R.R.R.R.R.R.R.R.R.R.R.R.R.R.R.R.R.R.R.R.R.R.R.R.R.R.R.R.R.R.R.R.R.R.R.R.",
"R.R.R.R.R.R.R.R.R.R.R.R.R.R.R.R.R.R.R.R.R.z X X @ # I.R.R.R.R.R.R.R.R.R.R.R.R.R.R.R.R.R.R.R.R.R.R.R.R.R.R.R.R.R.R.R.R.R.R.R.R.R.",
"R.R.R.R.R.R.R.R.R.R.R.R.R.R.R.R.R.R.R.R.R.Y.` X U I.R.R.R.R.R.R.R.R.R.R.R.R.R.R.R.R.R.R.R.R.R.R.R.R.R.R.R.R.R.R.R.R.R.R.R.R.R.R.",
"R.R.R.R.R.R.R.R.R.R.R.R.R.R.R.R.R.R.R.R.R.R.R.R.R.R.R.R.R.R.R.R.R.R.R.R.R.R.R.R.R.R.R.R.R.R.R.R.R.R.R.R.R.R.R.R.R.R.R.R.R.R.R.R.",
"R.R.R.R.R.R.R.R.R.R.R.R.R.R.R.R.R.R.R.R.R.R.R.R.R.R.R.R.R.R.R.R.R.R.R.R.R.R.R.R.R.R.R.R.R.R.R.R.R.R.R.R.R.R.R.R.R.R.R.R.R.R.R.R.",
"R.R.R.R.R.R.R.R.R.R.R.R.R.R.R.R.R.R.R.R.R.R.R.R.R.R.R.R.R.R.R.R.R.R.R.R.R.R.R.R.R.R.R.R.R.R.R.R.R.R.R.R.R.R.R.R.R.R.R.R.R.R.R.R.",
"R.R.R.R.R.R.R.R.R.R.R.R.R.R.R.R.R.R.R.R.R.R.R.R.R.R.R.R.R.R.R.R.R.R.R.R.R.R.R.R.R.R.R.R.R.R.R.R.R.R.R.R.R.R.R.R.R.R.R.R.R.R.R.R.",
"R.R.R.R.R.R.R.R.R.R.R.R.R.R.R.R.R.R.R.R.R.R.R.R.R.R.R.R.R.R.R.R.R.R.R.R.R.R.R.R.R.R.R.R.R.R.R.R.R.R.R.R.R.R.R.R.R.R.R.R.R.R.R.R.",
"R.R.R.R.R.R.R.R.R.R.R.R.R.R.R.R.R.R.R.R.R.R.R.R.R.R.R.R.R.R.R.R.R.R.R.R.R.R.R.R.R.R.R.R.R.R.R.R.R.R.R.R.R.R.R.R.R.R.R.R.R.R.R.R."
};
