/* XPM */
static char *out[] = {
/* columns rows colors chars-per-pixel */
"64 64 124 2 ",
"   c gray34",
".  c #5E5E5E",
"X  c #00C705",
"o  c #01CA0D",
"O  c #02DB05",
"+  c #01D30E",
"@  c #02DF0C",
"#  c #05C712",
"$  c #01CC11",
"%  c #0CCA14",
"&  c #07CA18",
"*  c #08CB19",
"=  c #13CE1E",
"-  c #01D312",
";  c #0FD515",
":  c #00DB13",
">  c #0ED914",
",  c #07D419",
"<  c #0DD31D",
"1  c #05DD19",
"2  c #0CDC1D",
"3  c #15DD1D",
"4  c #02E60D",
"5  c #04EA0B",
"6  c #01F40F",
"7  c #00E413",
"8  c #09E717",
"9  c #01EC15",
"0  c #05E519",
"q  c #0AE31C",
"w  c #04EE19",
"e  c #09EB1C",
"r  c #12E01B",
"t  c #00F515",
"y  c #08F014",
"u  c #01F914",
"i  c #05F319",
"p  c #0AF41D",
"a  c #04FC19",
"s  c #0AFC1D",
"d  c #0FDA20",
"f  c #1DD024",
"g  c #15DE26",
"h  c #20D526",
"j  c #2CD532",
"k  c #3AD53E",
"l  c #0EEA21",
"z  c #14E421",
"x  c #10E823",
"c  c #19ED22",
"v  c #19E528",
"b  c #0EF621",
"n  c #0EFB21",
"m  c #11F423",
"M  c #11FE27",
"N  c #15FE2A",
"B  c #1CFD2F",
"V  c #1FFD32",
"C  c #20E529",
"Z  c #32F43C",
"A  c #2FFA44",
"S  c #33FD45",
"D  c #34FD49",
"F  c #3EFE4D",
"G  c #45D74C",
"H  c #41FD4E",
"J  c #4CE25C",
"K  c #43FC53",
"L  c #46FA58",
"P  c #4EFE5C",
"I  c #59F15A",
"U  c #6BDF73",
"Y  c #55FD62",
"T  c #68E36C",
"R  c #64F56C",
"E  c #66E071",
"W  c #69F373",
"Q  c #68FD74",
"!  c #6CFE7A",
"~  c #70FD7E",
"^  c #79E782",
"/  c #7BFE86",
"(  c #7CFD89",
")  c #858585",
"_  c #8B8B8B",
"`  c #AAAAAA",
"'  c gray69",
"]  c #95EC9D",
"[  c #89FE92",
"{  c #95F59D",
"}  c #94FE9B",
"|  c #97FFA1",
" . c #9CFEA4",
".. c #A6ECAB",
"X. c #A4FEAC",
"o. c #B9EFBB",
"O. c #B3FEBB",
"+. c #C1F5B9",
"@. c #BEF2C2",
"#. c #BEFEC5",
"$. c #C1C1C1",
"%. c #C1F6C7",
"&. c #C2F9C3",
"*. c #CBF5CC",
"=. c #C5FECA",
"-. c #CBFDCF",
";. c #CEFDD3",
":. c #D0FED4",
">. c #D9F6DB",
",. c #D5FCDB",
"<. c #D9FDDB",
"1. c gray89",
"2. c #E9E9E9",
"3. c #E2FEE4",
"4. c #E6FDEB",
"5. c #ECFDED",
"6. c #EFFAF1",
"7. c #F6F6F6",
"8. c #FCF7F6",
"9. c #F5FAF5",
"0. c #FBFBF7",
"q. c #F9F7F9",
"w. c #F6FDF9",
"e. c #FEFEFE",
/* pixels */
"e.e.q.e.e.e.e.e.e.e.e.e.e.q.e.e.e.e.e.e.e.e.e.e.q.7.e.e.e.e.e.e.e.e.e.q.e.e.e.e.e.e.e.e.e.e.q.e.e.e.e.e.e.e.e.e.e.q.q.e.e.e.e.e.",
"e.e.7.q.e.e.e.e.e.e.e.e.e.e.e.e.e.e.e.e.e.e.e.q.e.e.e.e.e.e.e.e.e.e.e.e.e.e.e.e.e.e.e.e.e.q.e.e.e.e.e.e.e.e.e.e.e.7.e.e.e.e.e.e.",
"e.e.e.e.e.e.e.e.e.e.e.e.e.e.e.e.e.e.e.e.e.e.q.e.q.e.e.e.e.e.e.e.e.e.e.e.e.e.e.e.e.e.e.e.q.7.e.e.e.e.e.e.e.e.e.e.e.q.e.e.e.e.e.e.",
"q.q.e.e.e.e.e.e.e.e.e.e.e.e.e.e.e.e.e.e.e.e.e.e.e.e.e.e.e.e.e.e.e.e.e.e.e.e.e.e.e.e.e.e.e.e.e.e.e.e.e.e.e.e.e.e.e.e.e.e.e.e.e.e.",
"e.e.e.e.e.e.e.e.e.e.e.e.e.e.e.e.e.e.e.e.e.e.q.e.e.e.e.e.e.e.e.e.e.e.e.e.e.e.e.e.e.e.e.7.q.e.e.e.e.e.e.e.e.e.e.e.e.e.e.e.e.e.e.e.",
"e.e.e.e.e.e.e.e.e.q.e.e.e.e.e.e.e.e.e.e.e.e.e.e.e.e.e.0.e.e.e.q.e.e.e.e.e.e.e.e.e.e.e.e.e.e.e.e.e.e.e.e.e.e.e.e.e.e.e.e.e.e.e.e.",
"e.e.e.e.e.e.e.e.e.q.e.e.e.e.e.e.e.e.e.e.e.e.e.e.e.+ : 9 y e.q.e.e.e.e.e.e.e.e.e.e.e.e.e.e.e.e.e.e.e.e.e.q.e.e.e.e.e.e.e.e.e.e.e.",
"e.e.e.e.e.e.e.e.q.e.e.e.e.e.e.e.e.e.e.e.e.e.e.e.e.o : y u 5.e.q.e.e.e.e.e.e.e.9 u e.e.e.e.e.e.e.e.e.e.e.e.e.e.e.e.e.e.e.e.e.e.e.",
"e.e.e.e.e.e.e.e.q.e.e.e.e.e.e.e.e.e.q.e.e.e.e.e.f $ : u i b e.e.e.e.e.e.e.e.+ y u e.e.e.e.e.e.e.e.e.e.q.e.e.e.e.e.e.e.e.e.e.e.e.",
"e.e.e.e.e.e.e.q.e.e.e.e.e.e.e.e.e.e.q.e.e.e.e.e.>.$ - u S i e.e.e.e.e.e.e.*.: H u e.e.e.e.e.e.e.e.q.7.q.e.e.e.e.e.e.e.e.e.e.e.e.",
"e.e.e.e.e.q.e.e.e.e.e.e.e.e.e.e.7.e.e.e.e.e.e.e.e.$ $ 7 | u e.e.e.e.e.e.q.$ 7 P y e.e.e.e.e.e.e.e.q.e.e.e.e.e.e.e.e.e.e.e.e.e.e.",
"e.e.e.e.e.7.e.e.e.e.e.e.e.e.e.e.q.e.e.e.e.e.e.e.e.E * * u u 0.e.e.e.e.e.q.d b y 0.e.e.e.e.e.e.e.e.e.e.e.e.e.e.e.e.e.e.e.e.e.e.e.",
"e.e.e.e.e.0.e.e.e.e.e.e.e.e.q.q.e.e.e.e.e.e.e.e.e.q.= $ y Q 6 e.e.e.e.e.# q y 9 e.e.e.w.e.e.e.q.q.e.e.e.e.e.e.e.e.e.e.q.e.e.e.e.",
"e.e.e.e.e.e.e.e.e.e.e.e.e.e.e.e.e.e.e.e.e.e.e.e.e.e.e.$ 9 5.t e.e.e.e.e.$ t 0 e.e.w.7 9 u q.e.e.e.e.e.e.e.e.e.e.e.e.q.e.e.e.e.e.",
"e.e.e.e.e.e.e.e.O w.e.e.e.7.q.e.e.e.e.e.e.e.+.0 e.0.e.e.7 O.u e.e.e.q.# 9 9 0.e.e.J 7 t a e.0.q.e.e.e.e.e.e.e.e.7.q.e.e.e.e.e.e.",
"e.e.e.e.e.e.e.- : 9 9 q.e.q.e.W u e.e.e.e.e.- : 7 5.0.e.9 a u R e.e.0.0 u y e.e.e.$ 7 V a e.0.9 7 e.e.e.e.e.e.7.e.e.e.e.e.e.e.e.",
"e.e.e.e.e.e.0.$ : t u t 7.e.e.9 u O.e.e.e.e.$ : 9 9 9 7 9 a ~ u q.7.q 6 a e.e.e.e.$ 9 4.Q e.e.7 7 I e.e.e.e.e.e.7.e.e.e.e.e.e.e.",
"e.e.e.e.e.e.e.$ - 7 s #.a q.0.y P ( e.e.e.e.e.- 9 t y 9 6 a X.u t 7 u -.u e.e.e.X - t 6.e.e.7 7 9 t 5 w y e.7.e.e.e.e.e.e.e.e.e.",
"e.e.e.e.e.e.e.5.$ o : y  . .e.w.( #.e.e.e.q.0.: 9 t u u u u N B u t u <.a e.e.e.$ - t O.A Z 7 9 t t u u u u e.e.e.e.e.e.e.e.e.e.",
"e.e.e.e.e.e.e.e.0.= o - 7 t 6 e.u D e.e.- : : 7 9 t u u u u u a u u :.;.a e.e.- - : s F a t 9 u u ! 3.Y u y e.e.e.e.e.e.e.e.e.e.",
"e.e.e.e.e.e.e.q.e.e.e.e.^ - 7 c e.i 8 z : 7 7 t t t t t t t u u u u X.5.u 9.7 : : w u u u t t u u u t t 7 &.e.e.e.e.e.e.e.e.q.e.",
"e.e.e.e.e.e.e.7.e.e.e.e.e.e.- : v 0.x 7 9 9 t t t t t t b t t t t u a =.F u t q l y u u u u u u a u 9 : %.e.e.e.e.e.e.e.e.e.e.0.",
"e.e.e.e.e.e.q.q.e.e.e.e.e.e.e.; - d 7 9 t u t t t t t t i t u t u u u u a 6 t y t t u t u u u a a t 0.e.e.e.e.e.e.e.e.e.q.7.e.e.",
"e.e.e.e.e.7.e.e.e.e.e.e.e.e.e.e.h 2 7 9 t u u t t t t b i t t t u u u u u u y m t u t t t t u u K s q.e.e.e.e.e.e.e.e.e.q.e.e.e.",
"e.e.e.e.q.e.e.e.e.e.e.e.e.0.e.e.7.- 7 u u u t t u t i b t t u t y u u t u y i u u t t t t u u t M n t e.e.e.e.e.e.e.e.e.e.e.e.e.",
"e.e.e.q.e.e.e.e.e.e.e.0.: 7 q { - 7 9 y t u t t t b t t t t i u t t t t 9 n t t t t u t t t u p b u y t a e.e.e.e.e.q.e.e.e.e.e.",
"e.e.q.e.e.e.e.e.e.e.e.^ - : : 7 : 9 y t t t t t b b t t u t u i t t t i 9 t t t u t u t t t t t u t t t 9.e.e.e.e.q.e.e.e.e.e.e.",
"e.q.7.e.e.e.e.e.e.e.e.e.- - : 7 9 t t t t t t b 9 t t t t t t u t t u t t t t u t t t t u t t V a 9.e.e.e.e.e.e.e.e.e.e.e.e.e.e.",
"e.e.q.e.e.e.e.e.e.e.e.e.e.e.0.7 9 t u u t t t b 9 t t t u t t t t u u t t u t t t t u t t b u } } e.0.e.e.e.e.e.e.e.e.e.e.e.e.e.",
"e.q.e.e.e.e.e.e.e.e.e.0.e.e.- : 9 t t t t t t i u t t u t t t u t i t t t t u t t t t t 9 i u  .5.a } 9.e.e.e.e.e.e.e.e.e.e.e.e.",
"e.e.e.e.e.e.- : 7 9 y y 7 : - 7 t u t u u t t t t t u t u t u t t u u t t t t t u y u y y t u t =.! u t 9 e.e.e.e.e.e.e.e.e.e.e.",
"e.e.e.e.e.e.$ 7 u ,.{ u 9 - : 7 9 t t t t t u t t t t t t t t m t t t t t a t t u u u y t 9 7 9 y n a t u i e.e.e.e.e.e.e.e.e.e.",
"e.e.e.e.e.o $ 9 y 7 7 4 e.e.- : 9 t u t t t t t t t t t t t t 9 t t u t t i t u t u u u 9 : - - : 9 u X.t m e.e.e.e.e.e.e.e.e.e.",
"e.e.e.e.e.o $ + 2 5.e.e.e.e.$ - 9 t t t u t u t t u t t t t b t t t t t t u t t u u u u 9 > ] $ $ $ : u n 9 e.e.e.e.e.e.e.e.e.e.",
"e.e.e.e.e.e.o < e.e.e.e.e.$ $ - : 9 0 t t t t u u t t t t b t t t u i t t t t M t u V a 9 e.e.e.G $ & : 9 9 e.e.e.e.e.e.e.e.e.e.",
"e.e.e.e.e.e.e.e.e.e.e.e.e.$ $ $ : e t t u t t t t t t t b t t t t t t u u t t 9 t u [ D <.e.e.e.e.0.o & : 7 e.e.e.e.e.e.q.e.e.e.",
"e.e.e.e.e.q.e.e.e.e.e.e.e.e.e.e.- l t t t t u t t t u b i t t t t t t t t t b 9 y u | ,.u e.e.e.e.q.j - - q.e.e.e.e.e.e.e.q.e.e.",
"e.e.e.e.q.e.e.e.e.e.e.e.e.e.e.8.2 7 9 t t t u t t t p w t t t t u t u t t 9 b t u 6 S 5.a t 0.e.q.q.e.e.e.e.e.e.e.e.q.e.e.e.e.e.",
"e.e.e.e.e.q.e.e.e.e.9.+ + 7 : x 7 7 7 9 t t u t 9 e q 9 t t u t t i t t i t t u u u a  ./ t t 0 e.e.e.e.e.e.e.e.e.e.e.e.e.e.e.e.",
"e.e.e.e.e.e.e.e.e.$ - 7 9 9 p t 7 : : 0 9 t t 9 7 2 - : 7 t t t t u t b b t t t u u u a Q a p 9 9 9 0.e.e.e.e.e.e.e.q.e.e.e.e.e.",
"e.e.e.e.e.e.e.e.e.o - 9 u n t 9 : & + + 7 t 9 7 - - $ - : 9 t u t t i 9 t t t t t t u u u n a u y 9 9 9 9 8 0.e.q.7.e.e.e.e.e.e.",
"e.e.e.e.e.e.e.e.>.$ - 7 0 7 7 : e.e.w.- 7 t 7 : 0.e.e.# - 9 t t u t b t t t t u t u t u u u u a a u t t 9 9 9 8 e.q.e.e.e.e.e.e.",
"e.e.e.e.e.e.e.e.e.$ $ $ + : 7 e.e.e.e.+ 9 9 7 e.e.e.e.# - 7 t t t 9 b t t u t t t t u u t t 9 9 y u u u u t t w w e.e.e.e.e.e.e.",
"e.e.e.e.e.e.e.e.0.e.$ $ - e.e.e.e.e.e.: t : O e.e.e.e.$ - 7 7 7 9 t y t t t t t t t u u t t 7 - - @ 9 t u a u t t p e.e.e.e.e.e.",
"e.e.e.e.e.e.e.e.e.e.e.e.e.e.e.e.0.g : u t 1 0.e.e.e.e.$ : 7 : - : 7 t t t t y u u t b u t 9 r ; $ $ - 9 u u a 3.u t e.e.e.e.e.e.",
"e.e.e.e.e.e.e.e.q.e.e.e.e.q.7 : 7 7 y t : @.e.e.e.e.o.: 7 : - - $ : 7 u t t u u u u 9 y t 9 e.e.e.$ o - 9 y u <.a t e.e.e.e.e.q.",
"e.e.e.e.e.e.e.e.e.e.e.e.e.$ - 7 9 u u 0 1 e.e.e.e.e.+ 9 9 3 e.e.k + 7 y u y y y 9 n y 9 9 t e.e.e.e.o - : 9 9 u u t e.e.e.e.e.e.",
"e.e.e.e.e.e.e.q.e.e.e.e.e.$ $ : 9 t 8 2 e.e.e.e.e.+ 9 u y e.0.e.e.- 7 u 9 7 9 9 p i y 7 7 t :.e.e.e.G o o - 7 9 9 7 e.e.e.q.7.q.",
"e.e.e.e.e.e.e.e.e.e.e.e.e.# $ - - 2 d q.e.e.e.e.T : a u 0.e.e.e.o - 9 9 7 : - 2 t u t 0.e.9 a q.e.e.q.$ $ $ - : : : e.e.e.e.q.e.",
"e.e.e.e.e.q.e.e.e.e.e.e.e.e.X o # $ e.e.e.e.e.+ : t X.7.0.e.3.: - : 7 7 : e.* $ 7 t t e.e.e.9 u y 0.q.e.% $ $ - - e.e.e.e.q.e.e.",
"e.e.e.e.e.7.e.e.e.e.e.e.e.e.e.q.0.e.e.e.e.e.$ - 9 ~ L 0.Y a u 7 - - : 7 0.q.e.o - 9 9 0.e.e.$ u *.S e.e.e.e.0.e.e.e.e.q.e.e.e.e.",
"e.e.e.e.q.e.e.e.e.e.e.e.e.e.e.e.e.e.e.e.e...$ : u ;.e.u t t 9 e.e.& - 7 0.q.e.$ - 7 7 e.e.e.$ 1 u u e.e.e.e.e.e.e.e.e.q.e.e.e.e.",
"e.e.e.e.q.e.e.e.e.e.e.e.e.e.e.e.e.e.e.e.e.o $ 7 >.m ;.e.7 7 0.e.e.e.- @ e.q.e.9.$ + 7 e.e.e.e.& : 9 0.e.e.e.e.e.e.e.e.e.e.e.e.e.",
"e.e.e.e.e.e.e.e.e.e.e.e.e.e.e.e.e.e.e.e.e.$ - 9 ! u w e.e.0.e.e.e.e.>.8.e.e.e.e.0.U e.e.e.q.e.q.& 0 e.e.e.e.e.e.e.e.q.e.e.e.e.e.",
"e.e.e.e.e.e.e.e.e.e.e.e.e.e.e.e.e.e.e.e.e.o $ : 9 9 7 e.e.e.e.e.e.e.e.e.e.e.e.e.e.e.e.e.q.7.e.e.e.e.e.e.e.e.e.e.e.e.e.e.e.e.e.e.",
"e.e.e.e.e.e.e.e.e.e.e.e.e.e.e.e.e.e.e.e.e.$ o , 7 7 C e.e.e.e.e.e.e.e.e.e.e.e.e.e.e.e.e.e.e.e.e.e.e.e.e.e.e.e.e.e.e.e.e.e.e.e.e.",
"e.e.e.e.e.e.e.e.e.e.q.e.e.e.e.e.e.e.e.e.e.% o $ - : e.e.e.e.e.e.0.e.e.e.e.e.e.e.e.e.e.e.e.e.e.e.e.e.e.e.e.e.e.e.e.e.e.e.e.e.e.e.",
"e.e.e.e.e.e.e.e.e.e.q.e.e.e.e.e.e.e.e.e.e.e.G $ j e.e.e.e.e.e.e.e.e.e.e.e.e.e.e.e.e.e.e.e.e.e.e.e.e.e.e.e.e.q.e.e.e.e.e.e.e.e.e.",
"e.e.e.e.e.e.e.e.q.e.e.e.e.e.e.e.e.e.e.e.e.e.e.e.e.e.e.e.e.e.e.7.q.e.e.e.e.e.e.e.e.e.e.e.e.e.e.e.e.e.e.e.0.q.e.e.e.e.e.e.e.e.e.e.",
"e.e.e.e.e.e.e.e.e.q.e.e.e.e.e.e.e.e.q.e.e.e.e.e.e.e.e.e.e.e.7.q.e.e.e.e.e.e.e.e.q.e.e.e.e.e.e.e.e.e.e.0.0.q.e.e.e.e.e.e.e.e.e.e.",
"e.e.e.e.e.e.e.7.e.e.e.e.e.e.e.e.e.e.7.q.e.e.e.e.e.e.e.e.e.q.e.e.e.e.e.e.e.e.e.e.e.e.e.e.e.e.e.e.e.e.e.e.e.e.e.e.e.e.e.e.e.q.e.e.",
"e.e.e.e.e.e.q.e.e.e.e.e.e.e.e.e.e.e.e.e.e.e.e.e.e.e.e.e.e.e.e.e.e.e.e.e.e.e.e.e.e.e.e.e.e.e.e.e.e.e.e.q.e.e.e.e.e.e.e.e.e.7.e.e.",
"e.e.e.e.e.q.e.e.e.e.e.e.e.e.e.e.e.e.e.e.e.e.e.e.e.e.e.e.7.e.e.e.e.e.e.e.e.e.q.q.e.e.e.e.e.e.e.e.e.e.q.e.e.e.e.e.e.e.e.e.e.q.e.e.",
"e.e.e.e.q.e.e.e.e.e.e.e.e.e.e.q.q.e.e.e.e.e.e.e.e.e.q.e.e.e.e.e.e.e.e.e.e.e.q.e.e.e.e.e.e.e.e.e.7.e.e.e.e.e.e.e.e.e.e.7.e.e.e.e."
};
