/* XPM */
static char *out[] = {
/* columns rows colors chars-per-pixel */
"64 64 14 1 ",
"  c #FFFFFF",
". c black",
"X c #161616",
"o c #2F2F2F",
"O c #430303",
"+ c #4F0404",
"@ c #E01111",
"# c #E31111",
"$ c #E61313",
"% c #FF1616",
"& c gray69",
"* c gray88",
"= c #E2E2E2",
"- c white",
/* pixels */
"                                                                ",
"                                                                ",
"                                                                ",
"                                                                ",
"                              ....                              ",
"                        ................                        ",
"                      ....................                      ",
"                   ..........................                   ",
"                  ............................                  ",
"                ...........%%%%%%%%%%+..........                ",
"               .........%%%%%%%%%%%%%%%@@........               ",
"              .......$%%%%%%%%%%%%%%%%%%@@@.......              ",
"             .......%%%%%%%%%%%%%%%%%%%%%@@@@......             ",
"            ......%%%%%%%%%%%%%%%%%%%%%%%%@@@@......            ",
"           ......%%%%%%%%%%%%%%%%%%%%%%%%%%@@@@......           ",
"          ......%%%%%%%%%%%%%%%%%%%%%%%%%%%%@@@@......          ",
"         ......%%%%%%%%%%%%%%%%%%%%%%%%%%%%%%@@@@......         ",
"         .....%%%%%%%%%%%%%%%%%%%%%%%%%%%%%%%@@@@@.....         ",
"        .....%%%%%%%%%%%%%%%%%%%%%%%%%%%%%%%%%@@@@@.....        ",
"       ......%%%%%%%%%%%%%%%%%%%%%%%%%%%%%%%%%#@@@@@.....       ",
"       .....%%%%%%%%%%%%%%%%%%%%%%%%%%%%%%%%%%%@@@@@.....       ",
"       ....O%%%%%%%%%%%%%%%%%%%%%%%%%%%%%%%%%%%@@@@@@....       ",
"      .....%%%%%%%%%%%%%%%%%%%%%%%%%%%%%%%%%%%%%@@@@@.....      ",
"      .....%%%%%%%%%%%%%%%%%%......%%%%%%%%%%%%%@@@@@@....      ",
"      ....%%%%%%%%%%%%%%%%%..........%%%%%%%%%%%@@@@@@....      ",
"     .....%%%%%%%%%%%%%%%%............%%%%%%%%%%%@@@@@.....     ",
"     .....%%%%%%%%%%%%%%%..............%%%%%%%%%%@@@@@@....     ",
"     ....%%%%%%%%%%%%%%%.....------.....%%%%%%%%%@@@@@@....     ",
"     ....%%%%%%%%%%%%%%%....--------....%%%%%%%%%@@@@@@....     ",
"     ....%%%%%%%%%%%%%%....----------....%%%%%%%%@@@@@@....     ",
"     ......................----------......................     ",
"     ......................----------......................     ",
"     ......................----------......................     ",
"     ......................----------......................     ",
"     ....--------------....----------....--------******....     ",
"     ....---------------....--------....---------******....     ",
"     ....---------------.....------.....---------******....     ",
"     ....----------------..............----------*****.....     ",
"     .....----------------............-----------*****.....     ",
"      ....-----------------..........-----------******....      ",
"      ....-------------------......-------------*****.....      ",
"      .....-------------------------------------*****.....      ",
"       ....------------------------------------*****o....       ",
"       .....-----------------------------------*****.....       ",
"       .....----------------------------------=****......       ",
"        .....---------------------------------*****.....        ",
"         .....-------------------------------*****.....         ",
"         ......------------------------------****......         ",
"          ......----------------------------****......          ",
"           ......--------------------------****......           ",
"            ......------------------------****......            ",
"             ......----------------------***.......             ",
"              .......-------------------**&.......              ",
"               ........----------------*.........               ",
"                ..........X----------...........                ",
"                  ............................                  ",
"                   ..........................                   ",
"                      ....................                      ",
"                         ..............                         ",
"                               ..                               ",
"                                                                ",
"                                                                ",
"                                                                ",
"                                                                "
};
