/* XPM */
static char *out[] = {
/* columns rows colors chars-per-pixel */
"64 64 158 2 ",
"   c #14130F",
".  c #1B1C14",
"X  c #1D241D",
"o  c #22241E",
"O  c #27291F",
"+  c #252721",
"@  c #262925",
"#  c #2B2C26",
"$  c #2C2E29",
"%  c #2F322C",
"&  c #32332C",
"*  c #37392E",
"=  c #2F3430",
"-  c #343733",
";  c #363A35",
":  c #3A3C35",
">  c #3B3D39",
",  c #3F4136",
"<  c #3E413B",
"1  c #444537",
"2  c #42443D",
"3  c #4A463C",
"4  c #46483D",
"5  c #484A3F",
"6  c #3F4440",
"7  c #434541",
"8  c #464944",
"9  c #4A4C44",
"0  c #474B49",
"q  c #4C4E49",
"w  c #4E5045",
"e  c #4E514B",
"r  c #525445",
"t  c #52534C",
"y  c #56584E",
"u  c #58594E",
"i  c #4F5150",
"p  c #545651",
"a  c #565953",
"s  c #5A5C55",
"d  c #5C5E59",
"f  c #625B4F",
"g  c #5E6056",
"h  c #5E615B",
"j  c #626256",
"k  c #63645C",
"l  c #676A5F",
"z  c #6A6A5E",
"x  c #5F6260",
"c  c #646662",
"v  c #696760",
"b  c #666963",
"n  c #6A6C65",
"m  c #666B6B",
"M  c #6C6E69",
"N  c #6F7166",
"B  c #6E716B",
"V  c #737366",
"C  c #72746C",
"Z  c #75786C",
"A  c #797A6E",
"S  c #6E7370",
"D  c #747671",
"F  c #767873",
"G  c #7B7C74",
"H  c #7D7F79",
"J  c #7E8175",
"K  c #7E817A",
"L  c #838276",
"P  c #8B8677",
"I  c #8F8B77",
"U  c #83847C",
"Y  c #8A877B",
"T  c #86887D",
"R  c #898A7E",
"E  c #96927E",
"W  c #838681",
"Q  c #898681",
"!  c #868883",
"~  c #8B8C84",
"^  c #848B89",
"/  c #8C8E8A",
"(  c #918E84",
")  c #918F89",
"_  c #8F9186",
"`  c #8E908A",
"'  c #929285",
"]  c #989584",
"[  c #93948C",
"{  c #98958C",
"}  c #96998C",
"|  c #99998D",
" . c #949692",
".. c #969893",
"X. c #9C9C94",
"o. c #969B99",
"O. c #9C9E99",
"+. c #A09F9B",
"@. c #9EA095",
"#. c #9EA19C",
"$. c #A2A296",
"%. c #A3A49C",
"&. c #A6A99E",
"*. c #AAAA9D",
"=. c #B0AC99",
"-. c #9CA4A4",
";. c #A4A6A2",
":. c #A6A9A4",
">. c #ABACA4",
",. c #A6ABA9",
"<. c #ADAEA9",
"1. c #B2AEA3",
"2. c #AFB1A6",
"3. c #AEB1AB",
"4. c #B3B2A5",
"5. c #B3B4AD",
"6. c #B9B7AE",
"7. c #B6B8AD",
"8. c #BABAAD",
"9. c #ADB3B1",
"0. c #B5B5B1",
"q. c #B6B9B3",
"w. c #BABBB4",
"e. c #B7BDB9",
"r. c #BDBEBA",
"t. c #C0BDB5",
"y. c #BCC1B6",
"u. c #BFC0BA",
"i. c #C1C2B6",
"p. c #C2C3BC",
"a. c #C7C9BD",
"s. c #C8C9BF",
"d. c #BCC2C0",
"f. c #C4C5C2",
"g. c #C8C7C2",
"h. c #C7C8C2",
"j. c #CACBC5",
"k. c #CDCDC9",
"l. c #CFD1C6",
"z. c #CFD0CA",
"x. c #D1D2C5",
"c. c #D2D3CC",
"v. c #D6D8CD",
"b. c #D8DACF",
"n. c #D4D4D2",
"m. c #D7D8D3",
"M. c #D9DAD5",
"N. c #DCDDDA",
"B. c #DFE0DB",
"V. c #E1E2DC",
"C. c #E4E4E2",
"Z. c #EAEAE6",
"A. c #ECEDEA",
"S. c #F2F3EE",
"D. c #F5F5F2",
"F. c #F6F8F5",
"G. c #F9FAF6",
"H. c #FFFFFF",
/* pixels */
"H.H.H.H.H.H.H.H.H.H.H.H.H.H.H.H.H.H.H.H.H.H.H.H.H.H.H.H.H.H.H.H.H.H.H.H.H.H.H.H.H.H.H.H.H.H.H.H.H.H.H.H.H.H.H.H.H.H.H.H.H.H.H.H.",
"H.H.H.H.H.H.H.H.H.H.H.H.H.H.H.H.H.H.H.H.H.H.H.H.H.H.H.H.H.H.H.H.H.H.H.H.H.H.H.H.H.H.H.H.H.H.H.H.H.H.H.H.H.H.H.H.H.H.H.H.H.H.H.H.",
"H.H.H.H.H.H.H.H.H.H.H.H.H.H.H.H.H.H.H.H.H.H.H.H.H.G.H.H.H.H.H.H.H.H.H.H.H.G.H.H.H.H.H.H.H.H.H.H.H.H.H.H.H.H.H.H.H.H.H.H.H.H.H.H.",
"H.H.H.H.H.H.H.H.H.H.H.H.H.H.H.H.H.H.H.H.H.H.H.H.H.H.H.H.G.H.H.H.G.H.G.H.H.H.H.H.H.H.H.H.H.H.H.H.H.H.H.H.H.H.H.H.H.H.H.H.H.H.H.H.",
"H.H.H.H.H.H.H.H.H.H.H.H.H.H.H.H.H.H.H.H.H.H.H.F.C.m.n.N.M.N.N.n.k.f.c.M.n.N.C.D.H.H.H.H.H.G.H.H.H.H.H.H.H.H.H.H.H.H.H.H.H.H.H.H.",
"H.H.H.H.H.H.H.H.H.H.H.H.H.H.H.H.H.H.H.H.H.N.n.f.r.q.5.q.5.>.5.h.z.k.h.w.r.u.w.N.B.n.C.G.H.H.H.H.H.H.H.H.H.H.H.H.H.H.H.H.H.H.H.H.",
"H.H.H.H.H.H.H.H.H.H.H.H.H.H.H.H.H.H.G.N.f.n.n.n.j.g.p.n.j.g.h.w.k.k.i.k.m.M.m.n.m.n.k.k.N.H.H.H.H.H.H.H.H.H.H.H.H.H.H.H.H.H.H.H.",
"H.H.H.H.H.H.H.H.H.H.H.H.H.H.H.H.H.C.n.n.n.k.k.n.k.f.i.j.g.p.u.e.e.r.0.5.w.g.v.M.c.M.N.N.n.N.N.G.H.H.H.H.H.H.H.H.H.H.H.H.H.H.H.H.",
"H.H.H.H.H.H.H.H.H.H.H.H.H.H.H.A.n.n.n.n.w.k.n.k.k.O.f.t.u.f.f.r.r.u.g.f.k.7.i.x.4.z.N.C.C.C.Z.N.A.H.H.H.H.H.H.H.H.H.H.H.H.H.H.H.",
"H.H.H.H.H.H.H.H.H.H.H.H.H.H.Z.z.m.k.j.d.k.k.k.f.g.g.d.g.f.f.5.C f.t.t.>.r.g.r.r.k.e.n.M.C.A.m.d.Z.Z.H.H.H.H.H.H.H.H.H.H.H.H.H.H.",
"H.H.H.H.H.H.H.H.H.H.H.H.H.n.m.k.n.j.t.k.k.k.g.g.k.e.w.<.t.t.c.z.f.0.5.>.j.p.j.<.<.3.g.k.m.C.Z.j.M.C.A.H.H.H.H.H.H.H.H.H.H.H.H.H.",
"H.H.H.H.H.H.H.H.H.H.H.G.z.M.M.u.t.h.f.r.d.w.g.k.h.p.w.,.0.u.f.t.r.r.t.t.k.>.p.;.M g.c M n ;.N.f.M.B.N.A.G.H.D.H.H.H.H.H.H.H.H.H.",
"H.H.H.H.H.H.H.H.H.G.H.N.m.M.g.k.t.j.w.d.g.c.F h.k.e.d.o.S h.0.9.d.e.5.+.5.k.W #.O.>.u.c.i.m.A.0.,.m.f.c.N.H.H.H.H.H.H.H.H.H.H.H.",
"H.H.H.H.H.H.H.H.H.S.+.V.p.k.p.f.j.p.c.k.p.O.o.u.j.d.r.0.j.r.0.f.9.9...W w.h.>.:.0.2.i.k.>.0.n.f.N.z.C.C.A.c.F.H.H.H.H.H.H.H.H.H.",
"H.H.H.H.H.H.H.H.H.h.r.B.k.j.z.<.w.j.p.>.a.a.8.c.z.i.+.U i.i.i.j.e.-.%.J :.y.3.3.0.{ 8.>. .q.r.f.g.<.k.C.A.f.e.H.H.H.H.H.H.H.H.H.",
"H.H.H.H.H.H.H.H.Z.k.g.j.z.z.+.j.k.f.z.f.c.O.j.p.p.p.t.c.j.r.w.q.,.q.M r.5.,.3.N X.<.%.5.0.c.g.n.+.O.;.N.M.A.q.N.H.H.H.H.H.H.H.H.",
"H.H.H.H.H.H.H.H.z.k.k.k.j.h.n.e.t.f.f.d.f.j.q.0.v.h.a.p.*.2.;.0.#.K e.3.-.,.0.K 3.u.p.4._ } e.^ ..+.;.t.M.C.A.f.H.H.H.H.H.H.H.H.",
"H.H.H.H.H.H.H.n.N.;.n.n.j.j.f.;.r.f.f.r.r.0.0.O.V.x.w.c.i.k.5.<.} e.f.9.-.,.f.C y.u.;.j.7.y.C.v.~ a.X.( i.q.i.C.N.H.H.H.H.H.H.H.",
"H.H.H.H.H.G.D.m.q.f.k.t.q.,.,.<.o.9.e.q.3.q.:.>.l.a.$.%.%.w.2.5.U i.q.q.9.<.3.+.>.a.W X.#.3.,.d.<. .;.p.>./ O.p.^ D.G.H.H.H.H.H.",
"H.H.H.H.H.H.C.g.m.k.c.g.;.r.w.q.q.f.f.h.p.w.k.c.q.3.j.g.7.l %.X.<.q.k.-.9.) t.+.8.U 5.J T ` #.d.w.<.V.;.g.i.t.m.B.w.H.H.H.H.H.H.",
"H.H.H.H.H.F.m.j.a.j.w.j.m.0.w.p.g.>.5.w.#.w.#.j.p.f.0.>.q.5.u.>.[ w.q.o.,.9.O.) X.a w K %.,.#.W O.0.,.j.g.0.5.g.h.f.H.H.H.H.H.H.",
"H.H.H.H.H.Z.g.j.k.z.h.j.k.f.5.j.g.h.a.1.a.8.a.q.w.w.j.i.p.p.T q C 5...#.,./ O.i Q 0.w.| 2.:.W K :.p.h.q.5.k.%.j.n.n.n.H.H.H.H.H.",
"H.H.H.H.H.r.j.j.k.k.g.w.<.0.1.p.p.w.p.1.p.v.j.x.i.8.2.>.7.G @.y.5.X.-.#.O.` O.+.w.6.6.X.:.5. .W +.+.+.%.<./ %.>.<.h.h.H.H.H.H.H.",
"H.H.H.H.F.v.w.g.M.0.t.j.a.c.a.c.p.j.k.t.g.i.6.x.y.:.q.u.2.p.e.e.0.-. .! o.Q 3.<.w.f.0.W ,.K x G +.R [ M k.v.m.w.t.,.p.D.H.H.H.H.",
"H.H.H.H.C.a.p.w.i.w.k.s.j.p.$.X.s.p.t.6.0.5.s.G <.K 5.G N q.,.,...3.K 3.D >.0.w.$.r.C C >.;.` [ K T W  .n U p.n / u.k.N.H.H.H.H.",
"H.H.G.H.p.5.j.q.c.b.a.w.h.l.8.1.x.$.+.>.w.i.C u 4.G  ./  .p.3.q.u.3.b :.%.` 3.0.0.<...>.t #.S m ` G S G B b [ q x ,.g.z.H.H.H.H.",
"H.H.H.H.r.w.a.k.a.+.2.g.p.0.~ Y 8.+.7.5.%.k X.w.X.F 3.,...:.5.i.w.7.~ q.5.q.0.%.>._ G [ a D ^ K F G ;.b b s 8 s s  .%.0.H.H.H.H.",
"H.H.G.H.w.5.k.7.X... .C 5.g.5.6.t.j.g.l.g.q.w.4.<.r.a.` } +.h.h.0.H ` :.>.0.0.O.%.{ R Y u K m D M 0 C ~ _ s N l t +.;.w.S.H.H.H.",
"H.H.G.G.i.w.w.~ ~ ;.%.O.q.<.&.p.| 5.X.w.X.R $.X.$.v.<.5.~ w.8.<.r.G l <.<.6.1.5.&.%.X.} G G C C g :.g 9 w r u r j L [ w.S.H.H.H.",
"H.H.G.M.5.u.j.%.>.| %.>...>.%.w.a.p.4.t.1.n ~ s g.h.>.~ $.a.<.g.U 4 v <.>.>.X.%.X.$.+.' l k H q Z } } J ] R } Z t q U #.A.H.H.H.",
"H.H.H.k.w.h.<.5.>.4.2.l.w.a.x.w.w.+.w.$.8.x.i.u.<.$.>.>.<.w.5.X.[ : } %.2.$.X.$.( A L Y ( *.R A %.n Z @.s Z L 5.W [ X.w.S.H.H.H.",
"H.H.H.c.%.q.k.l.b.s.j.4.a.j.w.i.1.p.*.6.8.$.P 2.7.[ 5.<.[ ~ >.l 1 j } } | ] u A ' ~ U u Q V L j [ n m x a W 2 s , X.U w.D.G.H.H.",
"H.H.H.M.w.h.a.*.q.r.q.5.t.>.0.0.$.%.A i.R R R *.L $.w.U H ' ~ V f 3 R J T I J _ +.( a.*.G G M y L L H b Q p t w w s k <.D.H.H.H.",
"H.H.G.M.w.p.w.k.a.f.t.;.<.<.0.;.8.4.*.J ' 1.Z $.' >.X.[ X.U 4.$.%.&.' @.*.R *.y.w.{ G u A V L k & , 9 $ 7 w u e : p F D A.G.H.H.",
"H.H.G.Z.>.<.5.0.q.w.0.O.p.;.H G y.~ $.} $.' $.4.4.*.E C 2 X. .| $.:.X.@.$.{ $.@.) M 8 w s t k > M 4 & & : : p t u t 9 A 5.H.H.H.",
"H.H.G.Z.w.5.G *.>.q.t.o.0.O. .;.&.{ { $.j 1 *.t.i.4.| %.%.<.;. .-.` @.Z 1 [ %.@.C S v M H k O.:.F C k N C f p s c y z H m.H.H.H.",
"H.H.D.G.;...w.0...t.q.+.R U u.<.p.:.[ G f 2.$.=.=.E I z U #.X./ ` U G j : } A V w Y t M > M F o.F c h G A k t s a ) w ^ H.G.H.H.",
"H.H.G.H.%.>.w.>.w.a.X.a.a.w.3.j.U H K M L 4.] 4.I E P P C U F 7 @ a t k Y *.%.L j & * % W c F  .0 a y 2 k e r 8 3 H 9 [ H.H.H.H.",
"H.H.H.G.,.L >.w.7.*.s.U C ~ X.>.[ : | X.C +.] +.] E L J . n d c ; :.X.6.*.I k u V 5 v U / 6 p c > 7 t u 2 w 2 : > g ) ;.H.H.H.H.",
"H.H.H.H.;.Z >.y.c.{ z 5 A Z s X.Y 4.+.$.] +.C L ] *.A u V c ~ q.K w.5.~ Y z Z u 9 w 3 D - ; i p 0 > : q 3 2 g p u h F  .H.H.H.H.",
"H.H.H.H.D.[ h.X.[ X.} U %.V | } _ C j x.*.a.w.5.G 1 t o j ~ <.>.o.T 2.C V G k A z : j 2 t 8 - p 6 2 e t $ C t t M z A G.G.H.H.H.",
"H.H.H.H.H./ W %.k k ' &.k y.o.~ L t { } w.c.q.0.t.[ *.<...o.-.-.~ ~  .} Q A N * v L e s m a ; 7 d 9 8 i @ 7 t a t C ~ H.H.H.H.H.",
"H.H.H.H.H.m.%...1 5.*.G @.7.X.<.7.R A 5.[ W <.r.:.<.r %. .;.-.<.$.k $.G o.:   7 9 9 g B ; e # 7 i 7 7 t : : a p s B H H.H.H.H.H.",
"H.H.H.H.H.H.| +.[ ..3.o.X.:.` %.&.2.>.*.w./ !  .G 2 L ^ o.^ o.;.n t ` v & H D 8 t d s h s < % , 7 7 7 0 : 2 s s d d H.H.H.H.H.H.",
"H.H.H.H.H.H.q.G %.:.[  .O.:.;.;.@.$._ t ~ u.y.5.h % Q +.D ^ M d q.4 4 G >.c 6 M c x F S n k o 2 > 6 7 @ : q q q p F G.H.H.H.H.H.",
"H.H.H.H.H.G.m.<.X.$.#.%.W [ ;.O.$.[ J ~ C H / 5.0.+ G C W q M ..G v a w.<.H > x s 8 m S h e < 0 6 i 0 > a 9 t q s D.H.H.H.H.H.H.",
"H.H.H.H.H.H.H.+.~ K k D 9 B [ F - n b J F s e s : 2 d $ . ;.Q Q ~ U y./ 0 6 7 ; 6 q 0 > 7 % < < - t q & 9 s t d S H.G.H.H.H.H.H.",
"H.H.H.H.H.D.H.N.` < H ` [ L .. .2  . .B g : d C i F % B ~ ^ Y C Z k X.a 6 7 0 7 7 = $ 6 = < < 7 7 > 7 p d s k d G.H.H.H.H.H.H.H.",
"H.H.H.H.H.H.H.G.V.t n F K M W ) q C ! #. .! t ;.W 0 F M ( ..Q ) R k U 7 < 6 ; < 2 - , 9 7 9 7 0 > > q i h p a h.G.H.H.H.H.H.H.H.",
"H.H.H.H.H.H.H.H.G.3.n n F / F > b W / !  ./ ^ b M F t ~ 5.Q  .H y 8 a 6 ; < 6 < - # & 2 : q s s 2 2 0 q x a M.F.D.H.H.H.H.H.H.H.",
"H.H.H.H.H.H.H.H.H.F.c ^ K x p 6 h X F W S ! ` D M i c 2.2 8 i : * * a 8 q 6 0 : < y e 2 q u e y , t l a M ;.H.H.H.H.H.H.H.H.H.H.",
"H.H.H.H.H.H.H.H.H.G.F...m n S S K % ` / ! W d r.F q p / : 2 s 8 1 & + X @ 6 ; # & q t e 1 y > a , q k a M F.G.H.H.H.H.H.H.H.H.H.",
"H.H.H.H.H.H.H.H.H.H.H.H.U H H K b < t b 3.p D b U C D ~ > > g 7 h + 0 2 ; = q 6 1 w 0 e v B e q d c k M H.H.H.H.H.H.H.H.H.H.H.H.",
"H.H.H.H.H.H.H.H.H.H.H.F.D.U { g , } [ B B D ` s M n k ; % # + - : * > 6 ; < e < & 2 r k v 0 q s h c / D.H.H.H.H.H.H.H.H.H.H.H.H.",
"H.H.H.H.H.H.H.H.H.H.H.H.G.H.g k g J G B K D h n H c + i 7 : > - 3 9 : 7 7 e e , ; 9 a 9 p i p q x n.H.H.H.H.H.H.H.H.H.H.H.H.H.H.",
"H.H.H.H.H.H.H.H.H.H.H.H.H.H.G.Z.n e b n h N t s : 0 8 6 0 : 7 3 w p 0 a s < & < 1 0 e a 0 c c m C.D.H.H.H.H.H.H.H.H.H.H.H.H.H.H.",
"H.H.H.H.H.H.H.H.H.H.H.H.H.H.G.G.H.G.k < g s n b t 7 9 9 7 : 7 7 2 : o $ 7 2 u k l s l l Z b F.G.F.H.H.H.H.H.H.H.H.H.H.H.H.H.H.H.",
"H.H.H.H.H.H.H.H.H.H.H.H.H.H.H.H.H.H.G.b s : m d s d d a s q s s s O c v v 8 c f q : s l X.F.H.H.H.H.H.H.H.H.H.H.H.H.H.H.H.H.H.H.",
"H.H.H.H.H.H.H.H.H.H.H.H.H.H.H.H.H.H.H.F.V.D s x d F t i a # p ; 5 a s k v h e v k k M G.H.G.H.H.H.H.H.H.H.H.H.H.H.H.H.H.H.H.H.H.",
"H.H.H.H.H.H.H.H.H.H.H.H.H.H.H.H.H.H.H.H.H.H.H.C.9.W m x m S 0 = t k D H F n C s n.H.H.H.H.H.H.H.H.H.H.H.H.H.H.H.H.H.H.H.H.H.H.H.",
"H.H.H.H.H.H.H.H.H.H.H.H.H.H.H.H.H.H.H.H.H.H.H.H.H.H.G.H.k.+. ./ H N.G.w.H.F.H.F.H.H.H.H.H.H.H.H.H.H.H.H.H.H.H.H.H.H.H.H.H.H.H.H.",
"H.H.H.H.H.H.H.H.H.H.H.H.H.H.H.H.H.H.H.H.H.H.H.H.H.H.H.H.H.G.H.H.H.H.H.H.H.H.H.H.H.H.H.H.H.H.H.H.H.H.H.H.H.H.H.H.H.H.H.H.H.H.H.H.",
"H.H.H.H.H.H.H.H.H.H.H.H.H.H.H.H.H.H.H.H.H.H.H.H.H.H.H.H.H.H.H.H.H.H.H.H.H.H.H.H.H.H.H.H.H.H.H.H.H.H.H.H.H.H.H.H.H.H.H.H.H.H.H.H.",
"H.H.H.H.H.H.H.H.H.H.H.H.H.H.H.H.H.H.H.H.H.H.H.H.H.H.H.H.H.G.H.H.H.H.G.H.H.H.H.H.H.H.H.H.H.H.H.H.H.H.H.H.H.H.H.H.H.H.H.H.H.H.H.H."
};
